/* XPM */
static char *code[] = {
/* columns rows colors chars-per-pixel */
"256 256 220 2 ",
"   c #1C1E22",
".  c #1C1E22",
"X  c #1C1E22",
"o  c #1D1E22",
"O  c #1C1E22",
"+  c #1D1E23",
"@  c #1C1E22",
"#  c #1C1E22",
"$  c #1C1E22",
"%  c #1C1E22",
"&  c #1C1E23",
"*  c #1C1E23",
"=  c #1C1E22",
"-  c #1D1E23",
";  c #1C1E22",
":  c #1C1E22",
">  c #1C1E22",
",  c #1D1E23",
"<  c #1C1E22",
"1  c #1C1E22",
"2  c #1C1E23",
"3  c #1C1E22",
"4  c #1C1F22",
"5  c #1C1E22",
"6  c #1C1E22",
"7  c #171A1F",
"8  c #1B1C1E",
"9  c #221E1E",
"0  c #351F1C",
"q  c #2C241E",
"w  c #27231F",
"e  c #33251E",
"r  c #3C251E",
"t  c #342A1E",
"y  c #3B2C1E",
"u  c #3E311E",
"i  c #1C1E23",
"p  c #1C1E22",
"a  c #171B21",
"s  c None",
"d  c #221F21",
"f  c #281F20",
"g  c #1E2023",
"h  c #242122",
"j  c #2B2421",
"k  c #2E2821",
"l  c #322520",
"z  c #342A21",
"x  c #3B2B21",
"c  c #382520",
"v  c #3A3020",
"b  c #432B1E",
"n  c #4B2C1D",
"m  c #46251C",
"M  c #562B1C",
"N  c #44331E",
"B  c #4B341D",
"V  c #4D3A1D",
"C  c #54331E",
"Z  c #5B331C",
"A  c #553C1D",
"S  c #5A3C1C",
"D  c #662D1A",
"F  c #732E19",
"G  c #782C17",
"H  c #63351B",
"J  c #6A3B1B",
"K  c #68361B",
"L  c #733B1B",
"P  c #793A19",
"I  c #442D20",
"U  c #4C2F20",
"Y  c #473621",
"T  c #563720",
"R  c #5C421D",
"E  c #64441C",
"W  c #6B491C",
"Q  c #6A461C",
"!  c #7C431B",
"~  c #744C1B",
"^  c #78491A",
"/  c #7C531A",
"(  c #75521C",
")  c #6C4B20",
"_  c #564120",
"`  c #853918",
"'  c #993916",
"]  c #882F16",
"[  c #A73914",
"{  c #BE3D13",
"}  c #B33913",
"|  c #B7350F",
" . c #D42F0A",
".. c #C8380C",
"X. c #D5320A",
"o. c #DC350A",
"O. c #D23A0C",
"+. c #DC3B0B",
"@. c #C23D11",
"#. c #D13E11",
"$. c #E0370A",
"%. c #E43A0A",
"&. c #EA3E0A",
"*. c #84441B",
"=. c #8B441A",
"-. c #854C19",
";. c #9A4C19",
":. c #974718",
">. c #83541A",
",. c #8C5C1A",
"<. c #875518",
"1. c #985818",
"2. c #A74C16",
"3. c #B94914",
"4. c #A65617",
"5. c #B45316",
"6. c #B85617",
"7. c #9B6319",
"8. c #986419",
"9. c #8D601A",
"0. c #AC6B16",
"q. c #A76717",
"w. c #B46A16",
"e. c #BA6815",
"r. c #AD7218",
"t. c #BC7416",
"y. c #B77417",
"u. c #DC420D",
"i. c #DA490D",
"p. c #C14416",
"a. c #C24C15",
"s. c #D84711",
"d. c #C35416",
"f. c #CD5C15",
"g. c #C65917",
"h. c #D45C13",
"j. c #DB5C12",
"k. c #D65713",
"l. c #CB4C0F",
"z. c #E4430B",
"x. c #ED410A",
"c. c #E34B0C",
"v. c #EB4B0C",
"b. c #F4450D",
"n. c #F8460E",
"m. c #F64A0B",
"M. c #F84D0B",
"N. c #EF5B0D",
"B. c #E7530C",
"V. c #F5520C",
"C. c #FA540D",
"Z. c #F35C0D",
"A. c #FC5C0E",
"S. c #E54811",
"D. c #F54610",
"F. c #F64A10",
"G. c #F84D10",
"H. c #F84710",
"J. c #E65911",
"K. c #FA5310",
"L. c #FC5C10",
"P. c #F25C11",
"I. c #C76916",
"U. c #DC6413",
"Y. c #D56715",
"T. c #C37515",
"R. c #C37A16",
"E. c #CB7C14",
"W. c #CA7515",
"Q. c #D37C12",
"!. c #D77713",
"~. c #CD750F",
"^. c #EC650E",
"/. c #F4640E",
"(. c #FD640E",
"). c #F56B0D",
"_. c #FD6B0E",
"`. c #FD740E",
"'. c #FD7C0E",
"]. c #F7780F",
"[. c #E36412",
"{. c #EB6312",
"}. c #E96913",
"|. c #F36512",
" X c #FD6510",
".X c #F46A12",
"XX c #FD6C11",
"oX c #E67913",
"OX c #FD7311",
"+X c #FD7C11",
"@X c #F37813",
"#X c #E57C0F",
"$X c #CD8116",
"%X c #D48415",
"&X c #DB8314",
"*X c #DC8A15",
"=X c #D58916",
"-X c #E9850F",
";X c #FD830E",
":X c #FD8B0E",
">X c #F5890C",
",X c #FD920F",
"<X c #FE9A0F",
"1X c #F5950E",
"2X c #EC8311",
"3X c #E38B14",
"4X c #EC8C12",
"5X c #E28414",
"6X c #FD8311",
"7X c #F48C12",
"8X c #FD8C11",
"9X c #F38412",
"0X c #EC9314",
"qX c #E49015",
"wX c #F49412",
"eX c #FD9411",
"rX c #FD9B12",
"tX c #F49914",
"yX c #EE900A",
"uX c #FEA013",
/* pixels */
"                                                                                          . o + & > 4 3 p s s s s s s s s s s s s s s s s s s s s s s s s s s s s s s s s s s s s s s s s s s s s s s s s s s s s s s s s s s s s s s s s s s s s s s s s s s s s s s s s s s s s s s s s s s s s s s s s s s s s s s s s s s s s s s s s s s s s s s s s s s s s s s s s s s s s s s s s s s s s s s s s s s s s s s p 3 2 > & + o .                                                                                           ",
"                                                                                  . O % > 2 6 p s s s s s s s s s s s s s s s s s s s s s s s s s s s s s s s s s s s s s s s s s s s s s s s s s s s s s s s s s s s s s s s s s s s s s s s s s s s s s s s s s s s s s s s s s s s s s s s s s s s s s s s s s s s s s s s s s s s s s s s s s s s s s s s s s s s s s s s s s s s s s s s s s s s s s s s s s s s s s s s s p 6 2 > % O .                                                                                   ",
"                                                                            X # ; 2 i s s s s s s s s s s s s s s s s s s s s s s s s s s s s s s s s s s s s s s s s s s s s s s s s s s s s s s s s s s s s s s s s s s s s s s s s s s s s s s s s s s s s s s s s s s s s s s s s s s s s s s s s s s s s s s s s s s s s s s s s s s s s s s s s s s s s s s s s s s s s s s s s s s s s s s s s s s s s s s s s s s s s s s s s s s i 2 ; # X                                                                             ",
"                                                                        O - 4 p s s s s s s s s s s s s s s s s s s s s s s s s s s s s s s s s s s s s s s s s s s s s s s s s s s s s s s s s s s s s s s s s s s s s s s s s s s s s s s s s s s s s s s s s s s s s s s s s s s s s s s s s s s s s s s s s s s s s s s s s s s s s s s s s s s s s s s s s s s s s s s s s s s s s s s s s s s s s s s s s s s s s s s s s s s s s s s s s p 4 - O                                                                         ",
"                                                                  X @ < 6 s s s s s s s s s s s s s s s s s s s s s s s s s s s s s s s s s s s s s s s s s s s s s s s s s s s s s s s s s s s s s s s s s s s s s s s s s s s s s s s s s s s s s s s s s s s s s s s s s s s s s s s s s s s s s s s s s s s s s s s s s s s s s s s s s s s s s s s s s s s s s s s s s s s s s s s s s s s s s s s s s s s s s s s s s s s s s s s s s s s s s s 6 < @ X                                                                   ",
"                                                              X % 4 s s s s s s s s s s s s s s s s s s s s s s s s s s s s s s s s s s s s s s s s s s s s s s s s s s s s s s s s s s s s s s s s s s s s s s s s s s s s s s s s s s s s s s s s s s s s s s s s s s s s s s s s s s s s s s s s s s s s s s s s s s s s s s s s s s s s s s s s s s s s s s s s s s s s s s s s s s s s s s s s s s s s s s s s s s s s s s s s s s s s s s s s s s s s 4 % X                                                               ",
"                                                          X % 4 s s s s s s s s s s s s s s s s s s s s s s s s s s s s s s s s s s s s s s s s s s s s s s s s s s s s s s s s s s s s s s s s s s s s s s s s s s s s s s s s s s s s s s s s s s s s s s s s s s s s s s s s s s s s s s s s s s s s s s s s s s s s s s s s s s s s s s s s s s s s s s s s s s s s s s s s s s s s s s s s s s s s s s s s s s s s s s s s s s s s s s s s s s s s s s s s 4 % X                                                           ",
"                                                        + 1 s s s s s s s s s s s s s s s s s s s s s s s s s s s s s s s s s s s s s s s s s s s s s s s s s s s s s s s s s s s s s s s s s s s s s s s s s s s s s s s s s s s s s s s s s s s s s s s s s s s s s s s s s s s s s s s s s s s s s s s s s s s s s s s s s s s s s s s s s s s s s s s s s s s s s s s s s s s s s s s s s s s s s s s s s s s s s s s s s s s s s s s s s s s s s s s s s s s s 1 +                                                         ",
"                                                    o > p s s s s s s s s s s s s s s s s s s s s s s s s s s s s s s s s s s s s s s s s s s s s s s s s s s s s s s s s s s s s s s s s s s s s s s s s s s s s s s s s s s s s s s s s s s s s s s s s s s s s s s s s s s s s s s s s s s s s s s s s s s s s s s s s s s s s s s s s s s s s s s s s s s s s s s s s s s s s s s s s s s s s s s s s s s s s s s s s s s s s s s s s s s s s s s s s s s s s s s p > o                                                     ",
"                                                  $ 5 s s s s s s s s s s s s s s s s s s s s s s s s s s s s s s s s s s s s s s s s s s s s s s s s s s s s s s s s s s s s s s s s s s s s s s s s s s s s s s s s s s s s s s s s s s s s s s s s s s s s s s s s s s s s s s s s s s s s s s s s s s s s s s s s s s s s s s s s s s s s s s s s s s s s s s s s s s s s s s s s s s s s s s s s s s s s s s s s s s s s s s s s s s s s s s s s s s s s s s s s s s 5 $                                                   ",
"                                              o < s s s s s s s s s s s s s s s s s s s s s s s s s s s s s s s s s s s s s s s s s s s s s s s s s s s s s s s s s s s s s s s s s s s s s s s s s s s s s s s s s s s s s s s s s s s s s s s s s s s s s s s s s s s s s s s s s s s s s s s s s s s s s s s s s s s s s s s s s s s s s s s s s s s s s s s s s s s s s s s s s s s s s s s s s s s s s s s s s s s s s s s s s s s s s s s s s s s s s s s s s s s s s s < o                                               ",
"                                            # 4 s s s s s s s s s s s s s s s s s s s s s s s s s s s s s s s s s s s s s s s s s s s s s s s s s s s s s s s s s s s s s s s s s s s s s s s s s s s s s s s s s s s s s s s s s s s s s s s s s s s s s s s s s s s s s s s s s s s s s s s s s s s s s s s s s s s s s s s s s s s s s s s s s s s s s s s s s s s s s s s s s s s s s s s s s s s s s s s s s s s s s s s s s s s s s s s s s s s s s s s s s s s s s s s s 4 #                                             ",
"                                        . = 6 s s s s s s s s s s s s s s s s s s s s s s s s s s s s s s s s s s s s s s s s s s s s s s s s s s s s s s s s s s s s s s s s s s g s s s s s s s s s s s s s s s s s s s s s s s s s s s s s s s s s s s s s s s s s s s s s s s s s s s s s s s s s s s s s s s s s s s s s s s s s s s s s s s s s s s s s s s s s s s s s s s s s s s s s s s s s s s s s s s s s s s s s s s s s s s s s s s s s s s s s s s s s s s s s s s 6 = .                                         ",
"                                      . > s s s s s s s s s s s s s s s s s s s s s s s s s s s s s s s s s s s s s s s s s s s s s s s s s s s s s s s s s s s s s s s s s s s q W h s s s s s s s s s s s s s s s s s s s s s s s s s s s s s s s s s s s s s s s s s s s s s s s s s s s s s s s s s s s s s s s s s s s s s s s s s s s s s s s s s s s s s s s s s s s s s s s s s s s s s s s s s s s s s s s s s s s s s s s s s s s s s s s s s s s s s s s s s s s s s s s s > .                                       ",
"                                    o < s s s s s s s s s s s s s s s s s s s s s s s s s s s s s s s s s s s s s s s s s s s s s s s s s s s s s s s s s s s s s s s s s s s s h t.^ s s s s s s s s s s s s s s s s s s s s s s s s s s s s s s s s s s s s s s s s s s s s s s s s s s s s s s s s s s s s s s s s s s s s s s s s s s s s s s s s s s s s s s s s s s s s s s s s s s s s s s s s s s s s s s s s s s s s s s s s s s s s s s s s s s s s s s s s s s s s s s s s s < o                                     ",
"                                  o 1 s s s s s s s s s s s s s s s s s s s s s s s s s s s s s s s s s s s s s s s s s s s s s s s s s s s s s s s s s s s s s s s s s s s s s s q.4XS a 8 s s s s s s s s s s s s s s s s s s s s s s s s s s s s s s s s s s s s s s s s s s s s s s s s s s s s s s s s s s s s s s s s s s s s s s s s s s s s s s s s s s s s s s s s s s s s s s s s s s s s s s s s s s s s s s s s s s s s s s s s s s s s s s s s s s s s s s s s s s s s s s s 1 o                                   ",
"                                o 1 s s s s s s s s s s s s s s s s s s s s s s s s s s s s s s s s s s s s s s s s s s s s s s s s s s s s s s s s s s s s s s s s s s s s s s s / <XQ.y 7 s s s s s s s s s s s s s s s s s s s s s s s s s s s s s s s s s s s s s s s s s s s s s s s s s s s s s s s s s s s s s s s s s s s s s s s s s s s s s s s s s s s s s s s s s s s s s s s s s s s s s s s s s s s s s s s s s s s s s s s s s s s s s s s s s s s s s s s s s s s s s s s s 1 o                                 ",
"                              o 1 s s s s s s s s s s s s s s s s s s s s s s s s s s s s s s s s s s s s s s s s s s s s s s s s s s s s s s s s s s s s s s s s s s s s s s s s A >X:Xe.t s s s s s s s s s s s s s s s s s s s s s s s s s s s s s s s s s s s s s s s s s s s s s s s s s s s s s s s s s s s s s s s s s s s s s s s s s s s s s s s s s s s s s s s s s s s s s s s s s s s s s s s s s s s s s s s s s s s s s s s s s s s s s s s s s s s s s s s s s s s s s s s s s 1 o                               ",
"                            o 1 s s s s s s s s s s s s s s s s s s s s s s s s s s s s s s s s s s s s s s s s s s s s s s s s s s s s s s s s s s s s s s s s s s s s s s s s s t Q.:X:Xw.z s s s s s s s s s s s s s s s s s s s s s s s s s s s s s s s s s s s s s s s s s s s s s s s s s s s s s s s s s s s s s s s s s s s s s s s s s s s s s s s s s s s s s s s s s s s s s s s s s s s s s s s s s s s s s s s s s s s s s s s s s s s s s s s s s s s s s s s s s s s s s s s s s 1 o                             ",
"                          . < s s s s s s s s s s s s s s s s s s s s s s s s s s s s s s s s s s s s s s s s s s s s s s s s s s s s s s s s s s s s s s s s s s s s s s s s s s s q.:X<XeX0.q s s s s s s s s s s s s s s s s s s s s s s s s s s s s s s s s s s s s s s s s s s s s s s s s s s s s s s s s s s s s s s s s s s s s s s s s s s s s s s s s s s s s s s s s s s s s s s s s s s s s s s s s s s s s s s s s s s s s s s s s s s s s s s s s s s s s s s s s s s s s s s s s s < .                           ",
"                        . > s s s s s s s s s s s s s s s s s s s s s s s s s s s s s s s s s s s s s s s s s s s s s s s s s s s s s s s s s s s s s s s s s s s s s s s s s s s s E >X<X<X<Xq.q s s s s s s s s s s s s s s s s s s s s s s s s s s s s s s s s s s s s s s s s s s s s s s s s s s s s s s s s s s s s s s s s s s s s s s s s s s s s s s s s s s s s s s s s s s s s s s s s s s s s s s s s s s s s s s s s s s s s s s s s s s s s s s s s s s s s s s s s s s s s s s s s s > .                         ",
"                        = s s s s s s s s s s s s s s s s s s s s s s s s s s s s s s s s s s s s s s s s s s s s s s s s s s s s s s s s s s s s s s s s s s s s s s s s s s s s s t !.<X<X:X:Xq.k s s s s s s s s s s s s s s s s s s s s s s s s s s s s s s s s s s s s s s s s s s s s s s s s s s s s s s s s s s s s s s s s s s s s s s s s s s s s s s s s s s s s s s s s s s s s s s s s s s s s s s s s s s s s s s s s s s s s s s s s s s s s s s s s s s s s s s s s s s s s s s s s s =                         ",
"                      # i s s s s s s s s s s s s s s s s s s s s s s s s s s s s s s s s s s s s s s s s s s s s s s s s s s s s s s s s s s s s s s s s s s s s s s s s s s s s s s 7.<X:X:X:X:Xw.z a s s s s s s s s s s s s s s s s s s s s s s s s s s s s s s s s s s s s s s s s s s s s s s s s s s s s s s s s s s s s s s s s s s s s s s s s s s s s s s s s s s s s s s s s s s s s s s s s s s s s s s s s s s s s s s s s s s s s s s s s s s s s s s s s s s s s s s s s s s s s s s s i #                       ",
"                    o 4 s s s s s s s s s s s s s s s s s s s s s s s s s s s s s V v s s s s s s s s s s s s s s s s s s s s s s s s s s s s s s s s s s s s s s s s s s s s s s s s A >X:X:X:X:X:Xw.t s s s s s s s s s s s s s s s s s s s s s s s s s s s s s s s s s s s s s s s s s s s s s s s s s s s s s s s s s s s s s s s s s s s s s s s s s s s s s s s s s s s s s s s s s s s s s s s s s s s s s s s s s s s s s s s s s s s s s s s s s s s s s s s s s s s s s s s s s s s s s s s s 4 o                     ",
"                    < s s s s s s s s s s s s s s s s s s s s s s s s s s s s s a ( r.h s s s s s s s s s s s s s s s s s s s s s s s s s s s s s s s s s s s s s s s s s s s s s s s h e.:X:X:X:X:X:XT.B s s s s s s s s s s s s s s s s s s s s s s s s s s s s s s s s s s s s s s s s s s s s s s s s s s s s s s s s s s s s s s s s s s s s s s s s s s s s s s s s s s s s s s s s s s s s s s s s s s s s s s s s s s s s s s s s s s s s s s s s s s s s s s s s s s s s s s s s s s s s s s s s <                     ",
"                  $ s s s s s s s s s s s s s s s s s s s s s s s s s s s s s s s ) tX<.8 s s s s s s s s s s s s s s s s s s s s s s s s s s s s s s s s s s s s s s s s s s s s s s s Q >X:X:X:X:X:XeXQ.R s s s s s s s s s s s s s s s s s s s s s s s s s s s s s s s s s s s s s s s s s s s s s s s s s s s s s s s s s s s s s s s s s s s s s s s s s s s s s s s s s s s s s s s s s s s s s s s s s s s s s s s s s s s s s s s s s s s s s s s s s s s s s s s s s s s s s s s s s s s s s s s s $                   ",
"                o 5 s s s s s s s s s s s s s s s s s s s s s s s s s s s s s s s A 1XyXE s s s s s s s s s s s s s s s s s s s s s s s s s s s s s s s s s s s s s s s s s s s s s s s q W.<X:X:X:X:X:X:X-X/ h s s s s s s s s s s s s s s s s s s s s s s s s s s s s s s s s s s s s s s s s s s s s s s s s s s s s s s s s s s s s s s s s s s s s s s s s s s s s s s s s s s s s s s s s s s s s s s s s s s s s s s s s s s s s s s s s s s s s s s s s s s s s s s s s s s s s s s s s s s s s s s 5 o                 ",
"                > s s s s s s s s s s s s s s s s s s s s s s s s s s s s s s s s y 3X<X3X_ s s s s s s s s s s s s s s s s s s s s s s s s s s s s s s s s s s s s s s s s s s s s s s s ^ 8X:X:X:X:X:X:X:X7Xq.x s s s s s s s s s s s s s s s s s s s s s s s s s s s s s s s s s s s s s s s s s s s s s s s s s s s s s s s s s s s s s s s s s s s s s s s s s s s s s s s s s s s s s s s s s s s s s s s s s s s s s s s s s s s s s s s s s s s s s s s s s s s s s s s s s s s s s s s s s s s s s s >                 ",
"              + p s s s s s s s s s s s s s s s s s s s s s s s s s s s s s s s s w $XrXrX=XN s s s s s s s s s s s s s s s s s s s s s s s s s s s s s s s s s s s s s s s s s s s s s s k T.<X:X:X:X:X:X:X8XeXE.S s s s s s s s s s s s s s s s s s s s s s s s s s s s s s s s s s s s s s s s s s s s s s s s s s s s s s s s s s s s s s s s s s s s s s s s s s s s s s s s s s s s s s s s s s s s s s s s s s s s s s s s s s s s s s s s s s s s s s s s s s s s s s s s s s s s s s s s s s s s s s p +               ",
"            X 1 s s s s s s s s s s s s s s s s s s s s s s s s s s s s s s s s s s 0.rX<X<XE.y s s s s s s s s s s s s s s s s s s s s s s s s s s s s s s s s s s s s s s s s s s s s s s E 7X:X:X:X:X8XeXeXeXeX2X<.q s s s s s s s s s s s s s s s s s s s s s s s s s s s s s s s s s s s s s s s s s s s s s s s s s s s s s s s s s s s s s s s s s s s s s s s s s s s s s s s s s s s s s s s s s s s s s s s s s s s s s s s s s s s s s s s s s s s s s s s s s s s s s s s s s s s s s s s s s s s s 1 X             ",
"            % s s s s s s s s s s s s s s s s s s s s s s s s s s s s s s s s s s s / rX<X<X<XR.t s s s s s s s s s s s s s s s s s s s s s s s s s s s s s s s s s s s s s s s s s s s s s h q.:X:X<X:X<XeXeXeX:X<X8XT.S s s s s s s s s s s s s s s s s s s s s s s s s s s s s s s s s s s s s s s s s s s s s s s s s s s s s s s s s s s s s s s s s s s s s s s s s s s s s s s s s s s s s s s s s s s s s s s s s s s s s s s s s s s s s s s s s s s s s s s s s s s s s s s s s s s s s s s s s s s s s %             ",
"          X 4 s s s s s s s s s s s s s s s s s s s s s s s s s s s s s s s s s s s V 0X<X<XrXrXt.t s s s s s s s s s s s s s s s s s s s s s s s s s s s s s s s s s s s s s s s s s s s s s u &X<X<X<X<XeXeXeXeXeXeXeX4X1.y s s s s s s s s s s s s s s s s s s s s s s s s s s s s s s s s s s s s s s s s s s s s s s s s s s s s s s s s s s s s s s s s s s s s s s s s s s s s s s s s s s s s s s s s s s s s s s s s s s s s s s s s s s s s s s s s s s s s s s s s s s s s s s s s s s s s s s s s s s 4 X           ",
"          % s s s s s s s s s s s s s s s s s s s s s s s s s s s s s s s s s s s s k $XrXrXrXrXrXt.y s s s s s s s s s s s s s s s s s s s s s s s s s s s s s s s s s s s s s s s s s s s s s W 7X<X<X<XeXeXeXeXeXeXeX8XeX&X>.t s s s s s s s s s s s s s s s s s s s s s s s s s s s s s s s s s s s s s s s s s s s s s s s s s s s s s s s s s s s s s s s s s s s s s s s s s s s s s s s s s s s s s s s s s s s s s s s s s s s s s s s s s s s s s s s s s s s s s s s s s s s s s s s s s s s s s s s s s %           ",
"        X 4 s s s s s s s s s s s s s s s s s s s s s s s s s s s s s s s s s s s s s 7.rXrXrX<XeX<XR.N s s s s s s s s s s s s s s s s s s s s s s s s s s s s s s s s s s s s s s s s s s s s h 7.eXeXeXeXeXeXeXeXeXeX8X8XeX:X!./ e s s s s s s s s s s s s s s s s s s s s s s s s s s s s s s s s s s s s s s s s s s s s s s s s s s s s s s s s s s s s s s s s s s s s s s s s s s s s s s s s s s s s s s s s s s s s s s s s s s s s s s s s s s s s s s s s s s s s s s s s s s s s s s s s s s s s s s s 4 X         ",
"        @ s s s s s s s s s s s s s s s s s s s s s s s s s s s s s s s s s s s s s s E wXeXeXeXeX<X<XE.V s s s s s s s s s s s s s s s s s s s s s s s s s s s s s s s s s s s s s s s s s s s s k t.eXeXeXeXeXeXeXeXeX8XeX<X:X<XeXE.^ t s s s s s s s s s s s s s s s s s s s s s s s s s s s s s s s s s s s s s s s s s s s s s s s s s s s s s s s s s s s s s s s s s s s s s s s s s s s s s s s s s s s s s s s s s s s s s s s s s s s s s s s s s s s s s s s s s s s s s s s s s s s s s s s s s s s s s s @         ",
"        < s s s s s s s s s s s s s s s s s s s s s s s s s s s s s s s s s s s s s s z &XeXeXeXeXeXeXeX*XE s s s s s s s s s s s s s s s s s s s s s s s s s s s s s s s s s s s s s s s s s s s s u $XeXeXeXeXeXeXeXeXeXeXeX<X<X<XeXeX!.>.x s s s s s s s s s s s s s s s s s s s s s s s s s s s s s s s s s s s s s s s s s s s s s s s s s s s s s s s s s s s s s s s s s s s s s s s s s s s s s s s s s s s s s s s s s s s s s s s s s s s s s s s s s s s s s s s s s s s s s s s s s s s s s s s s s s s s <         ",
"      O 6 s s s s s s s s s s s s s s s s s s s s s s s s s s s s s s s s s s s s s s s 7.eXeXeXeXeXeXeXeX4X/ h s s s s s s s s s s s s s s s s s s s s s s s s s s s s s s s s s s s s s s s s s s s V *XrXeXeXeXeXeXeXeXeXeXeXeXeXeXeXeXeX&X1.N d s s s s s s s s s s s s s s s s s s s s s s s s s s s s s s s s s s s s s s s s s s s s s s s s s s s s s s s s s s s s s s s s s s s s s s s s s s s s s s s s s s s s s s s s s s s s s s s s s s s s s s s s s s s s s s s s s s s s s s s s s s s s s s s s s 6 O       ",
"      - s s s s s s s s s s s s s s s s s s s s s s s s s s s s s s s s s s s s s s s s S 7XeXeXeXeXeXeX<X<XwXq.z s s s s s s s s s s s s s s s s s s s s s s s s s s s s s s s s s s s s s s s s s s s S 3XrXeXeXeXeXeXeXeXeXeXeXeXeXeXeXeX<XeX3X0.R k s s s s s s s s s s s s s s s s s s s s s s s s s s s s s s s s s s s s s s s s s s s s s s s s s s s s s s s s s s s s s s s s s s s s s s s s s s s s s s s s s s s s s s s s s s s s s s s s s s s s s s s s s s s s s s s s s s s s s s s s s s s s s s s s -       ",
"    X 4 s s s s s s s s s s s s s s s s s s s s s s s s s s s s s s s s s s s s s s s s k T.eXeXeXeXeXeXeX<XeXeXE.R s s s s s s s s s s s s s s s s s s s s s s s s s s s s s s s s s s s s s s s s s s s R 3XrXrXeXeXeXeXeXeXeXeXeXeXeXeXeXeXeXeXeXwXT.^ z s s s s s s s s s s s s s s s s s s s s s s s s s s s s s s s s s s s s s s s s s s s s s s s s s s s s s s s s s s s s s s s s s s s s s s s s s s s s s s s s s s s s s s s s s s s s s s s s s s s s s s s s s s s s s s s s s s s s s s s s s s s s s s 4 X     ",
"    # p s s s s s s s s s s s s s s s s s s s s s s s s s s s s s s s s s s s s s s s s s ^ 8X8X8X8X8XeX8XeXeXeXeX4X,.k s s s s s s s s s s s s s s s s s s s s s s s s s s s s s s s s s s s s s s s s s s R *XrXeXeXeXeXeXeXeXeXeXeXeXeXeXeXeXeXeXeXeXeX%X,.N s s s s s s s s s s s s s s s s s s s s s s s s s s s s s s s s s s s s s s s s s s s s s s s s s s s s s s s s s s s s s s s s s s s s s s s s s s s s s s s s s s s s s s s s s s s s s s s s s s s s s s s s s s s s s s s s s s s s s s s s s s s s p #     ",
"    ; s s s s s s s s s s s s s s s s s s s s s s s s s s s s s s s s s s s s s s s s s s t Q.8X8X8X8X8X8XeXeXeXeXeXeXT.S s s s s s s s s s s s s s s s s s s s s s s s s s s s s s s s s s s s s s s s s s s V $XrXeXeXeXeXeXeXeXeXeXeXeXeXeXeXeXeXeXeXeXeXeX3Xq.A d s s s s s s s s s s s s s s s s s s s s s s s s s s s s s s s s s s s s s s s s s s s s s s s s s s s s s s s s s s s s s s s s s s s s s s s s s s s s s s s s s s s s s s s s s s s s s s s s s s s s s s s s s s s s s s s s s s s s s s s s s s ;     ",
"  . 2 s s s s s s s s s s s s s s s s s s s s s s s s s s s s s s s s s s s s s s s s s s s / 8X8X8X8X8X8X8X8XeXeXeXeXeX4X7.N s s s s s s s s s s s s s s s s s s s s s s s s s s s s s s s s s s s s s s s s s y y.rXeXeXeXeXeXeXeXeXeXeXeXeXeXeXeXeXeXeXeXeXeXrX0X0.A h s s s s s s s s s s s s s s s s s s s s s s s s s s s s s s s s s s s s s s s s s s s s s s s s s s s s s s s s s s s s s s s s s s s s s s s s s s s s s s s s s s s s s s s s s s s s s s s s s s s s s s s s s s s s s s s s s s s s s s s s 2 .   ",
"  O 6 s s s s s s s s s s s s s s s s s s s s s s s s s s s s s s s s s s s s s s s s s s s t !.8X8X8X8X8X8X8X8X8X8XeXeXeXeX5X,.z s s s s s s s s s s s s s s s s s s s s s s s s s s s s s s s s s s s s s s s s q 9.wXrXeXeXeXeXeXeXeXeXeXeXeXeXeXeXeXeXeXeXeXeXrXrX0Xy.A h s s s s s s s s s s s s s s s s s s s s s s s s s s s s s s s s s s s s s s s s s s s s s s s s s s s s s s s s s s s s s s s s s s s s s s s s s s s s s s s s s s s s s s s s s s s s s s s s s s s s s s s s s s s s s s s s s s s s s s i O   ",
"  % s s s s s s s s s s s s s s s s s s s s s s s s s s s s s s s s s s s s s s s s s s s s s / 8X:X8X8X8X8X8X8X8X8XeXeXeXeXeXeX%X/ t s s s s s s s s s s s s s s s s s s s s s s s s s s s s s s s s s s s s s s s g W &XrXeXeXrXrXeXeXeXeXeXeXeXeXeXeXeXeXeXeXeXrXrXrXrX0Xq.N s s s s s s s s s s s s s s s s s s s s s s s s s s s s s s s s s s s s s s s s s s s s s s s s s s s s s s s s s s s s s s s s s s s s s s s s s s s s s s s s s s s s s s s s s s s s s s s s s s s s s s s s s s s s s s s s s s s s s s %   ",
"  > s s s s s s s s s s s s s s s s s s s s s s s s s s s s s s s s s s s s s s s s s s s s s q I.:X8X:X8X8X8X8X8X8X8XeXeXeX<X<XeXeX%X>.y s s s s s s s s s s s s s s s s s s s s s s s s s s s s s s s s s s s s s s s N y.wXrXrXrXeXeXeXeXeXeXeXeXeXeXeXeXeXeXeXrXrXrXrXrXrXqX9.z s s s s s s s s s s s s s s s s s s s s s s s s s s s s s s s s s s s s s s s s s s s s s s s s s s s s s s s s s s s s s s s s s s s s s s s s s s s s s s s s s s s s s s s s s s s s s s s s s s s s s s s s s s s s s s s s s s s s >   ",
". 2 s s s s s s s s s s s s s s s s s s s s s s s s s s s s s s s s s s s s s s s s s s s s s s S 2X8X8X8X8X8X8X8X8X8X8X8X8XeXeXeXeXeXeX&X9.V h s s s s s s s s s s s s s s s s s s s s s s s s s s s s s s s s s s s s s w / *XrXrXrXeXeXeXeXeXeXeXeXeXeXeXeXrXeXrXrXrXrXrXrXrXrX%XW h s s s s s s s s s s s s s s s s s s s s s s s s s s s s s s s s s s s s s s s s s s s s s s s s s s s s s s s s s s s s s s s s s s s s s s s s s s s s s s s s s s s s s s s s s s s s s s s s s s s s s s s s s s s s s s s s s s 2 . ",
"o 6 s s s s s s s s s s s s s s s s s s s s s s s s s s s s s s s s s s s s s s s s s s s s s s s 1.6X6X6X8X8X8X8X8X8X8X8X8X8X8XeXeXeXeXeXeX4Xw.W t s s s s s s s s s s s s s s s s s s s s s s s s s s s s s s s s s s s s s B y.rXrXrXrXrXrXrXeXrXeXeXeXeXrXrXrXrXrXrXrXrXrXrXrXrXwX0.u s s s s s s s s s s s s s s s s s s s s s s s s s s s s s s s s s s s s s s s s s s s s s s s s s s s s s s s s s s s s s s s s s s s s s s s s s s s s s s s s s s s s s s s s s s s s s s s s s s s s s s s s s s s s s s s s s 6 o ",
"+ p s s s s s s s s s s s s s s s s s s s s s s s s s s s s s s s s s s s s s s s s s s s s s s s t W.6X6X6X6X8X8X8X8X8X8X8X8X8X8XeXeXeXeXeXeXeXeX&Xq.E z s s s s s s s s s s s s s s s s s s s s s s s s s s s s s s s s s s s k / 3XrXrXrXrXrXrXrXeXeXeXeXeXrXeXrXrXrXrXrXrXrXrXrX<XrX*XW h s s s s s s s s s s s s s s s s s s s s s s s s s s s s s s s s s s s s s s s s s s s s s s s s s s s s s s s s s s s s s s s s s s s s s s s s s s s s s s s s s s s s s s s s s s s s s s s s s s s s s s s s s s s s s s s p + ",
"& s s s s s s s s s s s s s s s s s s s s s s s s s s s s s s s s s s s s s s s s s s s s s s s s s S oX6X6X6X6X6X8X8X8X8X8X8X8X8X8XeXeXeXeXeXeXeXeXeXwX&X0.^ N k s s s s s s s s s s s s s s s s s s s s s s s s s s s s s s s s s V t.rXrXrXrXrXrXeXeXeXeXeXeXrXrXrXrXrXrXrXrXrXrXrXrXrXtX7.z s s s s s s s s s s s s s s s s s s s s s s s s s s s s s s s s s s s s s s s s s s s s s s s s s s s s s s s s s s s s s s s s s s s s s s s s s s s s s s s s s s s s s s s s s s s s s s s s s s s s s s s s s s s s s s s & ",
"> s s s s s s s s s s s s s s s s s s s s s s s s s s s s s s s s s s s s s s s s s s s s s s s s s s -.9X6X6X6X6X6X6X8X8X8X8X8X8X8X8X8XeXeXeXeXeXeXeXeXeXeXeX3XR.9.W N k s s s s s s s s s s s s s s s s s s s s s s s s s s s s s s k 9.0XrXrXrXrXeXeXrXrXrXrXrXrXrXrXrXrXrXrXrXrXrXrXrXrXrXt.N s s s s s s s s s s s s s s s s s s s s s s s s s s s s s s s s s s s s s s s s s s s s s s s s s s s s s s s s s s s s s s s s s s s s s s s s s s s s s s s s s s s s s s s s s s s s s s s s s s s s s s s s s s s s s s > ",
"2 s s s s s s s s s s s s s s s s s s s s s s s s s s s s s s s s s s s s s s s s s s s s s s s s s s h 4.6X6X6X6X6X6X6X6X6X8X8X8X8X8X8X8X8XeXeXeXeXeXeXeXeXeXeXrXrXeX3XE.q./ R N k h s s s s s s s s s s s s s s s s s s s s s s s s s s R %XrXrXrXrXrXrXrXrXrXrXrXrXrXrXrXrXrXrXrXrXrXrXrXrXrX%XR s s s s s s s s s s s s s s s s s s s s s s s s s s s s s s s s s s s s s s s s s s s s s s s s s s s s s s s s s s s s s s s s s s s s s s s s s s s s s s s s s s s s s s s s s s s s s s s s s s s s s s s s s s s s s 2 ",
"3 s s s s s s s s s s s s s s s s s s s s s s s s s s s s s s s s s s s s s s s s s s s s s s s s s s s z e.6X6X6X6X6X6X6X6X6X6X8X8X8X8X8X8X8X8XeXeXeXeXeXeXeXeXeXeXeXeXeXeXrXwX3X$Xy.9.( R N k h s s s s s s s s s s s s s s s s s s s s s u y.rXrXrXrXrXrXrXrXrXrXrXrXrXrXrXrXrXrXrXrXrXrXrXrXrXqX( s s s s s s s s s s s s s s s s s s s s s s s s s s s s s s s s s s s s s s s s s s s s s s s s s s s s s s s s s s s s s s s s s s s s s s s s s s s s s s s s s s s s s s s s s s s s s s s s s s s s s s s s s s s s 3 ",
"p s s s s s s s s s s s s s s s s s s s s s s s s s s s s s s s s s s s s s s s s s s s s s s s s s s s s y I.6X6X6X6X6X6X6X6X6X6X6X8X8X8X8X8X8X8X8XeXeXeXeXeXeXeXeXeXeXeXeXeXeXrXrXrXrXeXwX3X%Xt.7.>.E Y z h s s s s s s s s s s s s s s s s k 9.wXrXrXrXrXrXrXrXrXrXrXrXrXrXrXrXrXrXrXrXrXrXrXrXrX0X/ s s s s s s s s s s s s s s s s s s s s s s s s s s s s s s s s s s s s s s s s s s s s s s s s s s s s s s s s s s s s s s s s s s s s s s s s s s s s s s s s s s s s s s s s s s s s s s s s s s s s s s s s s s s p ",
"s s s s s s s s s s s s s s s s s s s s s s s s s s s s s s s s s s s s s s s s s s s s s s s s s s s s s s N Q.6X6X6X6X6X6X6X6X6X6X6X6X8X8X8X8X8X8X8XeXeXeXeXeXeXeXeXeXeXeXeXeXrXrXeXeXeXeXeXeXeXrXeXeX4X&Xt.q./ R N q s s s s s s s s s s s s h ( qXrXrXrXrXrXrXrXrXrXrXrXrXrXrXrXrXrXrXrXrXrXrXrXrXwX<.g s s s s s s s s s s s s s s s s s s s s s s s s s s s s s s s s s s s s s s s s s s s s s s s s s s s s s s s s s s s s s s s s s s s s s s s s s s s s s s s s s s s s s s s s s s s s s s s s s s s s s s s s s s ",
"s s s s s s s s s s s s s s s s s s s s s s s s s s s s s s s s s s s s s s s s s s s s s s s s s s s s s s s B !.6X6X6X;X;X;X;X6X6X6X6X6X6X8X8X8X8X8X8X8XeXeXeXeXeXeXeXeXeXeXeXeXeXeXeXeXeXeXeXeXeXeXeXeXeXeX<XeXwX3XE.0./ A z h s s s s s s s s s R *XrXrXrXrXrXrXrXrXrXrXrXrXrXrXrXrXrXrXrXrXrXrXrXrXtX<.s s s s s s s s s s s s s s s s s s s s s s s s s s s s s s s s s s s s s s s s s s s s s s s s s s s s s s s s s s s s s s s s s s s s s s s s s s s s s s s s s s s s s s s s s s s s s s s s s s s s s s s s s s ",
"s s s s s s s s s s s s s s s s s s s s s s s s s s s s s s s s s s s s s s s s s s s s s s s s s s s s s s s s C Q.6X+X'.'.;X;X6X6X6X6X6X6X6X6X8X8X8X8X8X8X8XeXeXeXeXeXeXeXeXeXeXeXeXeXeXeXeXeXeXeXeXeXeXeXeXeX<XeXeXeXrXrXwX&Xy./ N w s s s s s s s B $XrXrXrXrXrXrXrXrXrXrXrXrXrXrXrXrXrXrXrXrXrXrXrXrXtX/ s s s s s s s s s s s s s s s s s s s s s s s s s s s s s s s s s s s s s s s s s s s s s s s s s s s s s s s s s s s s s s s s s s s s s s s s s s s s s s s s s s s s s s s s s s s s s s s s s s s s s s s s s ",
"s s s s s s s s s s s s s s s s s s s s s s s s s s s s s s s s s s s s s s s s s s s s s s s s s s s s s s s s s B Y.+X'.'.'.+X6X6X6X6X6X6X6X6X6X6X8X8X8X8X8X8XeXeXeXeXeXeXeXeXeXeXeXeXeXeXeXeXeXeXeXeXeXeXeXeXeXeXeXrXrXrXrXrXrXeX4Xt.>.I h s s s s 7 u $XrXrXrXrXrXrXrXrXrXrXrXrXrXrXrXrXrXrXrXrXrXrXrXrXwX( s s s s s s s s s s s s s s s s s s s s s s s s s s s s s s s s s s s s s s s s s s s s s s s s s s s s s s s s s s s s s s s s s s s s s s s s s s s s s s s s s s s s s s s s s s s s s s s s s s s s s s s s ",
"s s s s s s s s s s s s s s s s s s s s s s s s s s s s s s s s s s s s s s s s s s s s s s s s s s s s s s s s s s N I.+X'.+X+X+X+X+X6X6X6X6X6X6X6X6X8X8X8X8X8X8X8X8XeXeXeXeXeXeXeXeXeXeXeXeXeXeXeXeXeXeXeXeXeXeXeXrXrXrXrXrXrXrXeXrXrXrX3X0.E k s s s s v R.rXrXrXrXrXrXrXrXrXrXrXrXrXrXrXrXrXrXrXrXrXrXrXrX0XE s s s s s s s s s s s s s s s s s s s s s s s s s s s s s s s s s s s s s s s s s s s s s s s s s s s s s s s s s s s s s s s s s s s s s s s s s s s s s s s s s s s s s s s s s s s s s s s s s s s s s s s ",
"s s s s s s s s s s s s s s s s s s s s s s s s s s s s s s s s s s s s s s s s s s s s s s s s s s s s s s s s s s s y 6.+X+X+X+X+X+X+X+X6X6X6X6X6X6X6X6X8X8X8X8X8X8X8X8XeXeXeXeXeXeXeXeXeXeXeXeXeXeXeXeXeXeXeXeXeXeXeXrXrXrXrXeXrXrXrXrXrXrXwXR.( z s s s y R.rXrXrXrXrXrXrXrXrXrXrXrXrXrXrXrXrXrXrXrXrXrXrXrX*XV s s s s s s s s s s s s s s s s s s s s s s s s s s s s s s s s s s s s s s s s s s s s s s s s s s s s s s s s s s s s s s s s s s s s s s s s s s s s s s s s s s s s s s s s s s s s s s s s s s s s s s ",
"s s s s s s s s s s s s s s s s s s s s s s s s s s s s s s s s s s s s s s s s s s s s s s s s s s s s s s s s s s s s q 1.@X+X+X+X+X+X+X+X+X+X6X6X6X6X6X6X6X6X8X8X8X8X8X8X8X8XeXeXeXeXeXeXeXeXeXeXeXeXeXeXeXeXeXeXeXeXrXrXrXrXrXrXrXrXrXrXeXeXrXrX$X( k 7 a I $XrXrXrXrXrXrXrXrXrXrXrXrXrXrXrXrXrXrXrXrXrXrXrXrX$Xy s s s s s s s s s s s s s s s s s s s s s s s s s s s s s s s s s s s s s s s s s s s s s s s s s s s s s s s s s s s s s s s s s s s s s s s s s s s s s s s s s s s s s s s s s s s s s s s s s s s s s ",
"s s s s s s s s s s s s s s s s s s s s s s s s s s s s s s s s s s s s s s s s s s s s s s s s s s s s s s s s s s s s s h ! oX+X+X+X+X+X+X+X+X+X6X6X6X6X6X6X6X6X6X8X8X8X8X8X8X8X8X8XeXeXeXeXeXeXeXeXeXeXeXeXeXeXeXeXeXeXrXrXrXrXrXrXrXrXrXrXrXrXrXrXrXR.E h a B %XrXrXrXrXrXrXrXrXrXrXrXrXrXrXrXrXrXrXrXrXrXrXrXrX0.h s s s s s s s s s s s s s s s s s s s s s s s s s s s s s s s s s s s s s s s s s s s s s s s s s s s s s s s s s s s s s s s s s s s s s s s s s s s s s s s s s s s s s s s s s s s s s s s s s s s s ",
"s s s s s s s s s s s s s s s s s s s s s s s s s s s s s s s s s s s s s s s s s s s s s s s s s s s s s s s s s s s s s s s S I.+X+X+X+X+X+X+X+X+X+X+X6X6X6X6X6X6X6X6X8X8X8X8X8X8X8X8X8XeXeXeXeXeXeXeXeXeXeXeXeXeXeXeXeXeXeXeXrXrXrXrXrXrXrXrXrXrXrXrXrXwXy.V 8 A qXrXrXrXrXrXrXrXrXrXrXrXrXrXrXrXrXrXrXrXrXrX<X<XrX<.s s s s s s s s s s s s s s s s s s s s s s s s s s s s s s s s s s s s s s s s s s s s s s s s s s s s s s s s s s s s s s s s s s s s s s s s s s s s s s s s s s s s s s s s s s s s s s s s s s s s ",
"s s s s s s s s s s s s s s s s s s s s s s s s s s s s s s s s s s s s s s s s s s s s s s s s s s s s s s s s s s s s s s s s z 1.@X+X+X+X+X+X+X+X+X+X+X+X6X6X6X6X6X6X6X6X8X8X8X8X8X8X8X8X8X8X8X8X8XeXeXeXeXeXeXeXeXeXeXeXeXeXeXeXeXeXrXrXeXrXrXrXrXrXrXrXrX4X9.v ( wXrXrXrXrXrXrXrXrXrXrXrXrXrXrXrXrX<XrX<X<XrX<XrX0XR s s s s s s s s s s s s s s s s s s s s s s s s s s s s s s s s s s s s s s s s s s s s s s s s s s s s s s s s s s s s s s s s s s s s s s s s s s s s s s s s s s s s s s s s s s s s s s s s s s s ",
"s s s s s s s s s s s s s s s s s s s s s s s s s s s s s s s s s s s s s s s s s s s s s s s s s s s s s s s s s s s s s s s s s h E Y.+X+X+X+X+X+X+X+X+X+X+X6X6X6X6X6X6X6X6X6X6X6X8X8X8X8X8X8X8X8X8X8X8XeXeXeXeXeXeXeXeXeXeXeXeXeXeXeXeXeXeXeXeXrXrXrXrXrXrXrXrX%XW 7.rXrXrXrXrXrXrXrXrXrXrXrXrXrXrXrXrX<X<X<XrX<X<X<X%Xy s s s s s s s s s s s s s s s s s s s s s s s s s s s s s s s s s s s s s s s s s s s s s s s s s s s s s s s s s s s s s s s s s s s s s s s s s s s s s s s s s s s s s s s s s s s s s s s s s s ",
"s s s s s s s s s s s s s s s s s s s s s s s s s s s s s s s s s s s s s s s s s s s s s s s s s s s s s s s s s s s s s s s s s s s x 1.oX+X+X+X+X+X+X+X+X+X+X+X6X6X6X6X6X6X6X6X6X8X8X8X8X8X8X8X8X8X8X8X8X8X8X8X8X8XeXeXeXeXeXeXeXeXeXeXeXeXeXeXrXrXrXrXrXrXrXrXrXwXy.*XrX<X<XrXrXrXrXrXrXrXrXrXrXrXrXrXrXrXrX<X<X<X<XrX0.h s s s s s s s s s s s s s s s s s s s s s s s s s s s s s s s s s s s s s s s s s s s s s s s s s s s s s s s s s s s s s s s s s s s s s s s s s s s s s s s s s s s s s s s s s s s s s s s s s ",
"s s s s s s s s s s s s s s s s s s s s s s s s s s s s s s s s s s s s s s s s s s s s s s s s s s s s s s s s s s s s s s s s s s s s d S e.+X+X+X+X+X+X+X+X+X+X+X+X6X6X6X6X6X6X6X6X6X6X6X6X6X8X8X8X8X8X8X8X8X8X8X8X8X8XeXeXeXeXeXeXeXeXeXeXeXeXeXeXeXeXeXrXrXrXrXrXrXwXrXrXrXrXrXrXrXrXrXrXrXrXrXrXrXrXrXrXrX<X<X<X<XrXwX^ s s s s s s s s s s s s s s s s s s s s s s s s s s s s s s s s s s s s s s s s s s s s s s s s s s s s s s s s s s s s s s s s s s s s s s s s s s s s s s s s s s s s s s s s s s s s s s s s s ",
"s s s s s s s s s s s s s s s s s s s s s s s s s s s s s s s s s s s s s s s s s s s s s s s s s s s s s s s s s s s s s s s s s s s s s s k Q I.+X+X+X+X+X+X+X+X+X+X+X+X+X+X6X6X6X6X6X6X6X6X6X6X6X8X8X8X8X8X8X8X8X8X8X8X8X8XeXeXeXeXeXeXeXeXeXeXeXeXeXeXeXrXrXrXrXrXrXrXrXrXrXrXrXrXrXrXrXrXrXrXrXrXrXrXrXrXrX<X<XrXrX<XrX*XN s s s s s s s s s s s s s s s s s s s s s s s s s s s s s s s s s s s s s s s s s s s s s s s s s s s s s s s s s s s s s s s s s s s s s s s s s s s s s s s s s s s s s s s s s s s s s s s s ",
"s s s s s s s s s s s s s s s s s s s s s s s s s s s s s s s s s s s s s s s s s s s s s s s s s s s s s s s s s s s s s s s s s s s s s s s s z ! Y.+X+X+X+X+X+X+X+X+X+X+X+X+X6X6X6X6X6X6X6X6X6X6X6X6X6X8X8X8X8X8X8X8X8X8X8X8X8XeX8XeXeXeXeXeXeXeXeXeXeXeXeXeXeXeXrXrXrXrXrXrXrXrXrXrXrXrXrXrXrXrXrXrXrXrXrXrXrXrXrXrXrXrXrXy.w s s s s s s s s s s s s s s s s s s s s s s s s s s s s s s s s s s s s s s s s s s s s s s s s s s s s s s s s s s s s s s s s s s s s s s s s s s s s s s s s s s s s s s s s s s s s s s s ",
"s s s s s s s s s s s s s s s s s s s s s s s s s s s s s s s s s s s s s s s s s s s s s s s s s s s s s s s s s s s s s s s s s s s s s s s s s s e ! I.@X+X+X+X+X+X+X+X+X+X+X+X+X+X+X6X6X6X6X6X6X6X6X6X6X6X6X8X8X8X8X8X8X8X8X8X8X8X8X8XeX<X<XeX<XeXeXeXeXeXeXeXeXeXeXeXrXeXrXrXrXrXrXrXrXrXrXrXrXrXrXrXrXrXrXrXrXrXrXrXrXrXrX>.8 s s s s s s s s s s s s s s s s s s s s s s s s s s s s s s s s s s s s s s s s s s s s s s s s s s s s s s s s s s s s s s s s s s s s s s s s s s s s s s s s s s s s s s s s s s s s s s ",
"s s s s s s s s s s s s s s s s s s s s s s s s s s s s s s s s s s s s s s s s s s s s s s s s s s s s s s s s s s s s s s s s s s s s s s s s s s s s l Q e.@X+X+X+X+X+X+X+X+X+X+X+X+X+X+X+X6X6X6X6X6X6X6X6X6X6X6X8X8X8X8X8X8X8X8X8X8X8X8X<X:X:X:X<XeXeXeXeXeXeXeXeXeXeXeXeXeXrXrXrXrXrXrXrXrXrXrXrXrXrXrXrXrXrXrXrXrXrXrXrXrXqXA a s s s s s s s s s s s s s s s s s s s s s s s s s s s s s s s s s s s s s s s s s s s s s s s s s s s s s s s s s s s s s s s s s s s s s s s s s s s s s s s s s s s s s s s s s s s s s ",
"s s s s s s s s s s s s s s s s s s s s s s s s s s s s s s s s s s s s s s s s s s s s s s s s s s s s s s s s s s s s s s s s s s s s s s s s s s s s s s k S 4.}.+X+X+X+X+X+X+X+X+X+X+X+X+X+X+X+X6X6X6X6X6X6X6X6X6X6X6X8X8X:X:X8X8X:X:X8X:X:X:X:X:XeXeXeXeXeXeXeXeXeXeXeXeXeXeXrXrXrXrXrXrXrXrXrXrXrXrXrXrXrXrXrXrXrXrXrXrXrX<X$Xy s s s s s s s s s s s s s s s s s s s s s s s s s s s s s s s s s s s s s s s s s s s s s s s s s s s s s s s s s s s s s s s s s s s s s s s s s s s s s s s s s s s s s s s s s s s s s ",
"s s s s s s s s s s s s s s s s s s s s s s s s s s s s s s s s s s s s s s s s s s s s s s s s s s s s s s s s s s s s s s s s s s s s s s s s s s s s s s s s s y / I.@X+X+X+X+X+X+X+X+X+X+X+X+X+X+X+X6X6X6X6X6X6X6X6X6X6X6X8X8X:X8X8X8X8X:X:X:X:X8X8XeXeXeXeXeXeXeXeXeXeXeXeXeXrXeXeXrXrXrXrXrXrXrXrXrXrXrXrXrXrXrXrXrXrXrX<X<X<Xr.k s s s s s s s s s s s s s s s s s s s s s s s s s s s s s s s s s s s s s s s s s s s s s s s s s s s s s s s s s s s s s s s s s s s s s s s s s s s s s s s s s s s s s s s s s s s s ",
"s s s s s s s s s s s s s s s s s s s s s s s s s s s s s s s s s s s s s s s s s s s s s s s s s s s s s s s s s s s s s s s s s s s s s s s s s s s s s s s s s s s k T 1.Y.+X+X+X+X+X+X+X+X+X+X+X+X+X+X6X6X6X6X6X6X6X6X6X6X6X;X6X8X8X8X8X:X:X:X8X8X8X8X8XeXeXeXeXeXeXeXeXeXeXeXeXeXeXrXrXrXrXrXrXrXrXrXrXrXrXrXrXrXrXrXrXrXrXrXrXrX7.h s s s s s s s s s s s s s s s s s s s s s s s s s s s s s s s s s s s s s s s s s s s s s s s s s s s s s s s s s s s s s s s s s s s s s s s s s s s s s s s s s s s s s s s s s s s ",
"s s s s s s s s s s s s s s s s s s s s s s s s s s s s s s s s s s s s s s s s s s s s s s s s s s s s s s s s s s s s s s s s s s s s s s s s s s s s s s s s s s s s s s t J 6.}.+X+X+X+X+X+X+X+X+X+X+X+X6X6X6X6X6X6X6X6X6X6X6X6X6X6X8X:X8X8X8X8X8X8X8X8X8X8XeXeXeXeXeXeXeXeXeXeXeXeXrXrXrXrXrXrXrXrXrXrXrXrXrXrXrXrXrXrXrXrXrXrXrXrX,.h s s s s s s s s s s s s s s s s s s s s s s s s s s s s s s s s s s s s s s s s s s s s s s s s s s s s s s s s s s s s s s s s s s s s s s s s s s s s s s s s s s s s s s s s s s ",
"s s s s s s s s s s s s s s s s s s s s s s s s s s s s s s s s s s s s s s s s s s s s s s s s s s s s s s s s s s s s s s s s s s s s s s s s s s s s s s s s s s s s s s s 7 d b -.I.oX+X+X'.+X+X+X+X+X+X+X+X+X+X6X6X6X6X6X6X6X6X6X6X6X;X;X8X8X8X8X8X8X8X8X8X:X8XeXeXeXeXeXeXeXeXeXeXeXrXeXeXrXrXrXrXrXrXrXrXrXrXrXrXrXrXrXrXrXrXrXrXtX,.h s s s s s s s s s s s s s s s s s s s s s s s s s s s s s s s s s s s s s s s s s s s s s s s s s s s s s s s s s s s s s s s s s s s s s s s s s s s s s s s s s s s s s s s s s ",
"s s s s s s s s s s s s s s s s s s s s s s s s s s s s s s s s s s s s s s s s s s s s s s s s s s s s s s s s s s s s s s s s s s s s s s s s s s s s s s s s s s s s s s s s s s s k C <.I.@X+X+X+X+X+X+X+X+X+X+X+X+X6X6X6X6X6X6X6X6X6X6X;X6X6X8X8X8X8X8X8X8X8X8X8X<X<XeXeXeXeXeXeXeXeXeXeXeXrXrXrXrXrXrXrXrXrXrXrXrXrXrXrXrXrXrXrXrXrXtX9.h s s s s s s s s s s s s s s s s s s s s s s s s s s s s s s s s s s s s s s s s s s s s s s s s s s s s s s s s s s s s s s s s s s s s s s s s s s s s s s s s s s s s s s s s ",
"s s s s s s s s s s s s s s s s s s s s s s s s s s s s s s s s s s s s s s s s s s s s s s s s s s s s s s s s s s s s s s s s s s s s s s s s s s s s s s s s s s s s s s s s s s s s a 7 w Z 4.!.+X'.+X+X+X+X+X+X6X6X6X6X6X6X6X6X6X6X6X6X6X6X6X8X8X8X8X8X8X8X8X8X8XeX8X8X8XeXeXeXeXeXeXeXeXeXeXeXrXrXrXrXrXrXrXrXrXrXrXrXrXrXrXrXrXrXrXrXrXq.t s s s s s s s s s s s s s s s s s s s s s s s s s s s s s s s s s s s s s s s s s s s s s s s s s s s s s s s s s s s s s s s s s s s s s s s s s s s s s s s s s s s s s s s ",
"s s s s s s s s s s s s s s s s s s s s s s s s s s s s s s s s s s s s s s s s s s s s s s s s s s s s s s s s s s s s s s s s s s s s s s s s s s s s s s s s s s s s s s d 9 q e r m r r 0 0 l n ! I.@X6X+X+X+X+X6X+X6X6X+X6X6X6X6X6X6X6X6X6X6X6X8X8X8X8X8X8X8X8X8X8X8X8X8XeXeXeXeXeXeXeXeXeXeXeXeXeXrXrXrXrXrXrXrXrXrXrXrXrXrXrXrXrXrXrXrXrXR.N s s s s s s s s s s s s s s s s s s s s s s s s s s s s s s s s s s s s s s s s s s s s s s s s s s s s s s s s s s s s s s s s s s s s s s s s s s s s s s s s s s s s s s ",
"s s s s s s s s s s s s s s s s s s s s s s s s s s s s s s s s s s s s s s s s s s s s s s s s s s s s s s s s s s s s s s s s s s s s s s s s s s s s s s s s w r M F ] [ } @.@.O.O.O.O.O.O.O.O...| [ l.^.`.+X+X+X+X+X+X+X+X+X6X6X6X6X6X6X6X6X6X6X6X6X6X8X8X8X8X8X8X8X8X8X8X8X8XeXeX<XeXeXeXeXeXeXeXeXeXeXrXrXrXrXrXrXrXrXrXrXrXrXrXrXrXrXrXrXrX*XE s s s s s s s s s s s s s s s s s s s s s s s s s s s s s s s s s s s s s s s s s s s s s s s s s s s s s s s s s s s s s s s s s s s s s s s s s s s s s s s s s s s s s ",
"s s s s s s s s s s s s s s s s s s s s s s s s s s s s s s s s s s s s s s s s s s s s s s s s s s s s s s s s s s s s s s s s s s s s s s s s s s s s k m F ' { u.x.m.m.m.x.x.x.&.&.&.&.&.&.&.&.&.&.$.$.o.z.N.OX+X+X+X+X+X+X+X6X6X6X6X6X6X6X6X6X6X6X6X6X;X8X8X8X8X8X8X8X8X8X8X8X8XeXeXeX<XeXeXeXeXeXeXeXeXeXrXrXrXrXrXrXrXrXrXrXrXrXrXrXrXrXrXrXrX0X,.k s s s s s s s s s s s s s s s s s s s s s s s s s s s s s s s s s s s s s s s s s s s s s s s s s s s s s s s s s s s s s s s s s s s s s s s s s s s s s s s s s s s ",
"s s s s s s s s s s s s s s s s s s s s s s s s s s s s s s s s s s s s s s s s s s s s s s s s s s s s s s s s s s s s s s s s s s s s s s s s d r D ' @.z.m.M.m.m.m.m.m.x.x.x.x.x.&.&.&.&.&.&.&.&.&.&.&.X.X.X.z.^.+X+X+X+X+X+X+X6X6X6X6X6X6X6X6X6X6X6X;X;X6X8X8X8X8X8X8X8X8X8X8X8X8X<X<X<XeXeXeXeXeXeXeXeXeXrXrXrXrXrXrXrXrXrXrXrXrXrXrXrXrXrXrXrXrXrXy.N s s s s s s s s s s s s s s s s s s s s s s s s s s s s s s s s s s s s s s s s s s s s s s s s s s s s s s s s s s s s s s s s s s s s s s s s s s s s s s s s s s ",
"s s s s s s s s s s s s s s s s s s s s s s s s s s s s s s s s s s s s s s s s s s s s s s s s s s s s s s s s s s s s s s s s s s s s s s r F } u.m.m.m.m.m.m.m.m.m.m.m.m.x.x.x.&.x.x.&.&.&.&.&.&.&.&.&.X.X.X.X.X.z./.+X+X+X+X+X+X+X6X6X6X6X6X6X6X6X6X;X;X6X8X8X8X8X8X8X8X8X8X8X8X8X:X:X<XeXeXeXeXeXeXeXeXeXrXrXrXrXrXrXrXrXrXrXrXrXrXrXrXrXrXrXrXrXrXrX&XE s s s s s s s s s s s s s s s s s s s s s s s s s s s s s s s s s s s s s s s s s s s s s s s s s s s s s s s s s s s s s s s s s s s s s s s s s s s s s s s s s ",
"s s s s s s s s s s s s s s s s s s s s s s s s s s s s s s s s s s s s s s s s s s s s s s s s s s s s s s s s s s s s s s s s s s s k Z [ u.m.M.m.m.m.m.m.m.m.m.m.m.m.m.m.m.x.x.x.x.x.x.&.&.&.&.&.&.&.&.&.X.X.X.X.X.X.c.].6X6X6X+X+X+X6X6X6X6X6X6X6X6X;X;X;X;X6X8X8X8X8X8X8X8X8X8X8X8XeX8XeXeXeXeXeXeXeXeXeXeXrXrXrXrXrXrXrXrXrXrXrXrXrXrXrXrXrXrXrXrXrXrX0X<.w s s s s s s s s s s s s s s s s s s s s s s s s s s s s s s s s s s s s s s s s s s s s s s s s s s s s s s s s s s s s s s s s s s s s s s s s s s s s s s s ",
"s s s s s s s s s s s s s s s s s s s s s s s s s s s s s s s s s s s s s s s s s s s s s s s s s s s s s s s s s s s s s s s s s r G p.m.M.M.m.m.m.m.m.m.m.m.m.m.m.m.m.m.m.m.m.x.x.x.x.x.&.&.&.&.&.&.&.&.&.X.X.X.X.X.X.X.o./.+X6X+X+X+X6X6X6X6X6X6X6X6X6X6X;X;X6X6X8X8X8X8X8X8X8X8X8X8X8X8X8XeXeXeXeXeXeXeXeXeXeXeXrXrXrXrXrXrXrXrXrXrXrXrXrXrXrXrXrXrXrXrXrXrXr.y s s s s s s s s s s s s s s s s s s s s s s s s s s s s s s s s s s s s s s s s s s s s s s s s s s s s s s s s s s s s s s s s s s s s s s s s s s s s s s ",
"s s s s s s s s s s s s s s s s s s s s s s s s s s s s s s s s s s s s s s s s s s s s s s s s s s s s s s s s s s s s s s s m ' u.m.M.M.m.m.m.M.m.m.m.m.m.m.m.m.m.m.m.m.m.m.m.m.m.x.x.x.x.&.&.&.&.&.$.&.&.$.X.X.X.X.X.X.X.X.B.+X6X6X6X6X6X6X6X6X6X6X6X6X6X6X;X6X6X8X8X8X8X8X8X8X8X8X8X8X8X:X<X<X<XeXeXeXeXeXeXeXeXrXrXrXrXrXrXrXrXrXrXrXrXrXrXrXrXrXrXrXrXrXrXrXE.V s s s s s s s s s s s s s s s s s s s s s s s s s s s s s s s s s s s s s s s s s s s s s s s s s s s s s s s s s s s s s s s s s s s s s s s s s s s s s ",
"s s s s s s s s s s s s s s s s s s s s s s s s s s s s s s s s s s s s s s s s s s s s s s s s s s s s s s s s s s s s s b ' c.M.M.M.M.M.M.M.m.M.M.M.m.m.m.m.m.m.m.m.m.m.m.m.m.m.m.x.x.x.x.x.&.&.&.&.&.&.&.X.X.X.X.X.X.X.X. . .c.+X6X6X6X6X6X6X6X6X6X6X6X6X6X6X6X6X6X8X8X8X8X8X8X8X8X8X8X8X:X:X8X8XeXeXeXeXeXeXeXeXeXrXrXrXrXrXrXrXrXrXrXrXrXrXrXrXrXrXrXrXrXrX<X<X*XE s s s s s s s s s s s s s s s s s s s s s s s s s s s s s s s s s s s s s s s s s s s s s s s s s s s s s s s s s s s s s s s s s s s s s s s s s s s s ",
"s s s s s s s s s s s s s s s s s s s s s s s s s s s s s s s s s s s s s s s s s s s s s s s s s s s s s s s s s s s r ' c.C.C.M.M.M.M.M.M.M.m.M.M.M.M.m.m.m.m.m.m.m.m.m.m.m.m.m.x.x.x.x.x.x.&.&.&.&.&.&.&.&.$.$.$.X.X.X.X. . .X.c.+X6X6X6X6X6X6X6X6X6X6X6X6X6X6X6X6X6X;X6X8X8X8X8X8X8X8X8X8X8X8X8X8X8XeXeXeXeXeXeXeXeXeXrXrXrXrXrXrXrXrXrXrXrXrXrXrXrXrXrXrXrXrXrXrX0X/ h s s s s s s s s s s s s s s s s s s s s s s s s s s s s s s s s s s s s s s s s s s s s s s s s s s s s s s s s s s s s s s s s s s s s s s s s s s ",
"s s s s s s s s s s s s s s s s s s s s s s s s s s s s s s s s s s s s s s s s s s s s s s s s s s s s s s s s s l ` i.C.C.C.C.C.C.M.M.M.M.M.M.M.M.M.M.M.M.M.M.M.m.m.m.m.m.m.m.m.m.m.x.x.x.x.&.&.&.&.&.&.&.$.$.$.X.X.X. . . . .X.X.c.'.;X6X6X6X6X6X6X6X6X6X6X6X6X6X6X6X6X6X6X8X8X8X:X:X8X8X8X8X8X8X8X:X:XeXeXeXeXeXeXeXeXeXeXeXrXrXrXrXrXrXrXrXrXrXrXrXrXrXrXrXrXrXrXrXwX,.h s s s s s s s s s s s s s s s s s s s s s s s s s s s s s s s s s s s s s s s s s s s s s s s s s s s s s s s s s s s s s s s s s s s s s s s s s ",
"s s s s s s s s s s s s s s s s s s s s s s s s s s s s s s s s s s s s s s s s s s s s s s s s s s s s s s s d H a.C.C.C.C.C.C.C.C.C.M.M.M.M.M.M.M.M.M.M.M.M.M.M.M.m.m.m.m.m.m.m.m.m.x.x.x.x.&.&.&.&.&.&.z.z.c.B.B.B.B.B.B.c.c.z.o.X.i.'.6X6X6X6X6X6X6X6X6X6X6X6X6X6X6X6X8X8X8X:X:X:X:X8X7XeX8X:X:X:X:X:X:X<XeXeXeXeXeXeXeXeXeXrXrXrXrXrXrXrXrXrXrXrXrXrXrXrXrXrXrXrX<X<XtX9.h s s s s s s s s s s s s s s s s s s s s s s s s s s s s s s s s s s s s s s s s s s s s s s s s s s s s s s s s s s s s s s s s s s s s s s s s ",
"s s s s s s s s s s s s s s s s s s s s s s s s s s s s s s s s s s s s s s s s s s s s s s s s s s s s s s r 2.N.A.C.C.C.C.C.C.C.C.C.M.M.M.M.M.M.M.M.M.M.M.M.M.M.M.m.m.m.m.m.m.m.m.m.m.x.x.x.x.x.B.Z.).`.'.'.'.;X;X;X;X;X6X;X'.'.`.).^.].6X6X6X6X6X6X6X6X6X6X6X6X6X6X8X8X8X8X;X:X:X:X:X8XW.w.:X:X:X8X8X:X:X<X8XeXeXeXeXeXeXeXeXeXrXrXrXrXrXrXrXrXrXrXrXrXrXrXrXrXrXrX<X<XrXrX7.h s s s s s s s s s s s s s s s s s s s s s s s s s s s s s s s s s s s s s s s s s s s s s s s s s s s s s s s s s s s s s s s s s s s s s s s ",
"s s s s s s s s s s s s s s s s s s s s s s s s s s s s s s s s s s s s s s s s s s s s s s s s s s s s h K k.A.A.A.A.C.C.C.C.C.C.C.C.C.C.M.M.M.M.M.M.M.M.M.M.M.M.M.m.m.m.m.m.m.m.m.m.x.m.V.Z.).`.'.;X;X;X;X;X;X;X;X;X;X;X;X;X;X'.'.'.6X+X6X6X6X6X6X6X6X6X6X6X6X6X6X6X8X8X8X:X;X;X:X:X:X8X#XB <.-X8X8X8X:X:X:X:X8XeXeXeXeXeXeXeXeXeXrXrXrXrXrXrXrXrXrXrXrXrXrXrXrXrXrXrXrXrXrXrX7.h s s s s s s s s s s s s s s s s s s s s s s s s s s s s s s s s s s s s s s s s s s s s s s s s s s s s s s s s s s s s s s s s s s s s s s ",
"s s s s s s s s s s s s s s s s s s s s s s s s s s s s s s s s s s s s s s s s s s s s s s s s s s s l :.Z.A.A.A.A.A.A.C.C.C.C.C.C.C.C.M.M.M.M.M.M.M.M.M.M.M.M.M.M.m.m.m.m.m.m.m.m.m.Z.`.'.'.'.'.;X;X;X;X;X;X;X;X;X;X;X;X;X;X;X;X6X6X6X6X6X6X6X6X6X6X6X6X6X6X6X6X6X6X6X6X6X6X;X;X:X:X:X;X;X<.8 Q 5XeX8X:X:X:X:X:X8XeXeXeXeXeXeXeXeXeXrXrXrXrXrXrXrXrXrXrXrXrXrXrXrXrXrXrXrXrXrXrX9.h s s s s s s s s s s s s s s s s s s s s s s s s s s s s s s s s s s s s s s s s s s s s s s s s s s s s s s s s s s s s s s s s s s s s s ",
"s s s s s s s s s s s s s s s s s s s s s s s s s s s s s s s s s s s s s s s s s s s s s s s s s s n d.(.A.A.A.A.A.A.A.C.C.C.C.C.C.C.C.C.M.M.M.M.M.M.M.M.M.M.M.M.M.M.M.m.m.m.m.V.(.'.'.;X;X'.;X;X;X;X;X;X;X;X;X;X;X;X;X;X;X;X;X6X6X6X6X6X6X6X6X6X6X6X6X6X6X6X6X6X6X6X6X6X6X6X6X;X;X:X;X;X;X#XN s Y e.:X:X:X:X:X8X8X8X8XeXeXeXeXeXeXeXeXeXrXrXrXrXrXrXrXrXrXrXrXrXrXrXrXrXrXuXrXrXtX( s s s s s s s s s s s s s s s s s s s s s s s s s s s s s s s s s s s s s s s s s s s s s s s s s s s s s s s s s s s s s s s s s s s s s ",
"s s s s s s s s s s s s s s s s s s s s s s s s s s s s s s s s s s s s s s s s s s s s s s s s s H j.(.(.(.A.A.A.A.A.A.A.C.C.C.C.C.C.C.C.C.M.M.M.M.M.M.M.M.M.M.M.M.M.m.m.m.V.(.'.;X;X'.;X;X;X;X;X;X;X;X;X;X;X;X;X;X;X;X;X;X6X6X6X6X6X6X6X6X6X6X6X6X6X6X6X6X6X6X6X6X6X6X6X6X6X6X6X;X;X;X:X;X8Xq.h s q >.-X:X8X8X:X:X8X8X8XeXeXeXeXeXeXeXeXrXrXrXrXrXrXrXrXrXrXrXrXrXrXrXrXuXuXuXrXrX0XR s s s s s s s s s s s s s s s s s s s s s s s s s s s s s s s s s s s s s s s s s s s s s s s s s s s s s s s s s s s s s s s s s s s s ",
"s s s s s s s s s s s s s s s s s s s s s s s s s s s s s s s s s s s s s s s s s s s s s s s h ` ^.(.(.(.(.(.A.A.A.A.A.A.A.C.C.C.C.C.C.C.M.M.M.M.M.M.M.M.M.M.M.M.M.m.m.M.(.'.'.'.;X;X;X;X;X;X;X;X;X;X;X;X;X;X;X;X;X;X;X;X6X6X6X6X6X6X6X6X+X+X6X6X6X6X6X6X6X6X6X6X6X6X6X6X6X6X6X8X;X:X:X:X:X:X9XJ 7 8 8 A t.8X8X:X:X:X:X8X8XeXeXeXeXeXeXeXeXeXrXrXrXrXrXrXrXrXrXrXrXrXrXrXuXuXuXrXuXuX=Xu s s s s s s s s s s s s s s s s s s s s s s s s s s s s s s s s s s s s s s s s s s s s s s s s s s s s s s s s s s s s s s s s s s s ",
"s s s s s s s s s s s s s s s s s s s s s s s s s s s s s s s s s s s s s s s s s s s s s s h :./.(.(.(.(.(.(.(.A.A.A.A.A.A.A.C.C.C.C.C.C.M.M.M.M.M.M.M.M.M.M.M.m.m.M.A.`.;X;X;X;X;X;X;X;X;X;X;X;X;X;X;X;X;X;X;X;X;X;X;X;X6X6X6X6X6X6X6X6X+X6X6X+X+X6X6X6X6X6X6X6X6X6X6X6X6X6X8X8X6X;X:X:X:X:X:XQ.y s s s k / Q.:X:X:X:X:X8XeXeXeXeXeXeXeXeXeXrXrXrXrXrXrXrXrXrXrXrXrXrXrXuXuXuXuXuXuXuXr.h s s s s s s s s s s s s s s s s s s s s s s s s s s s s s s s s s s s s s s s s s s s s s s s s s s s s s s s s s s s s s s s s s s ",
"s s s s s s s s s s s s s s s s s s s s s s s s s s s s s s s s s s s s s s s s s s s s s k ;.).(.(.(.(.(.(.(.(.A.A.A.A.A.A.A.C.C.C.C.C.C.C.C.C.M.M.M.M.M.M.M.M.m.C.).;X;X;X;X;X;X;X;X;X;X;X;X;X;X;X;X;X;X;X;X;X;X;X;X6X6X6X6X6X6X6X6X+X+X6X6X6X+X+X6X6X6X6X6X6X6X6X6X6X6X6X6X8X8X8X8X8X8X:X:X:X:Xw.k s s s 8 y 1.2X8X8X:X8XeXeXeXeXeXeXeXeXeXeXeXrXrXrXrXrXrXrXrXrXrXrXrXuXuXuXuXuXuXuXrX/ s s s s s s s s s s s s s s s s s s s s s s s s s s s s s s s s s s s s s s s s s s s s s s s s s s s s s s s s s s s s s s s s s s ",
"s s s s s s s s s s s s s s s s s s s s s s s s s s s s s s s s s s s s s s s s s s s s k 2.).).).(.(.(.(.(.(.(.A.A.A.A.A.A.A.A.C.C.C.C.C.C.C.C.C.C.C.M.M.M.M.M.A.'.;X;X;X;X;X;X;X;X;X;X;X;X;X;X;X;X;X;X;X;X;X;X;X;X;X6X6X6X6X6X6X6X+X+X6X6X6X6X+X6X6X6X6X6X6X6X6X6X6X6X6X6X6X6X8X8X8X8X8X8X:X:X;X8X1.9 8 s s s s A 0.4X:X8X8XeXeXeXeXeXeXeXeXeXeXrXrXrXrXrXrXrXrXrXrXrXuXuXuXuXuXuXuXuXuX*Xu s s s s s s s s s s s s s s s s s s s s s s s s s s s s s s s s s s s s s s s s s s s s s s s s s s s s s s s s s s s s s s s s s ",
"s s s s s s s s s s s s s s s s s s s s s s s s s s s s s s s s s s s s s s s s s s s k 2.).).).).).(.(.(.(.(.(.A.A.A.A.A.A.A.A.C.C.C.C.C.C.C.C.C.C.C.M.M.M.C.(.'.;X;X;X;X;X;X;X;X;X;X;X;X;X;X;X;X;X;X;X;X;X;X;X;X6X6X6X6X6X+X+X+X+X+X6X6X6X6X6X+X6X6X6X6X6X6X6X6X6X6X6X6X6X6X6X6X6X8X8X8X8X:X:X;X;X9X-.8 s s s s s h S w.7XeX:XeXeXeXeXeXeXeXeXeXrXrXrXrXrXrXrXrXrXrXrXrXuXuXuXuXuXuXuXuXuX7.s s s s s s s s s s s s s s s s s s s s s s s s s s s s s s s s s s s s s s s s s s s s s s s s s s s s s s s s s s s s s s s s s ",
"s s s s s s s s s s s s s s s s s s s s s s s s s s s s s s s s s s s s s s s s s s h =.).).).).).).(.(.(.(.(.(.A.A.A.A.A.A.A.A.A.C.C.C.C.C.C.C.C.C.C.C.M.C.).;X;X;X;X;X;X;X;X;X;X;X;X;X;X;X;X;X;X;X;X;X;X;X;X;X;X6X6X6X+X+X+X+X+X+X+X6X6X6X6X+X+X+X6X6X6X6X6X6X6X6X6X6X6X6X6X6X6X6X8X8X8X:X:X:X;X;X;X9X,.h s s s s s 7 w E t.7XeXeXeXeXeXeXeXeXeXeXrXrXrXrXrXrXrXrXrXrXrXuXuXuXuXuXuXuXuXuX0XV s s s s s s s s s s s s s s s s s s s s s s s s s s s s s s s s s s s s s s s s s s s s s s s s s s s s s s s s s s s s s s s s ",
"s s s s s s s s s s s s s s s s s s s s s s s s s s s s s s s s s s s s s s s s s s *..X).).).).).).(.(.(.(.(.(.(.(.A.A.A.A.A.A.A.C.C.C.C.C.C.C.C.C.C.M.C.`.;X;X;X;X;X;X;X;X;X;X;X;X;X;X;X;X;X;X;X;X;X;X'.'.'.'.;X6X6X6X+X+X+X+X+X+X6X6X6X6X+X+X6X+X6X6X6X+X+X6X6X6X6X6X6X6X6X6X6X6X8X8X6X6X6X:X:X:X:X8X7X7.k s s s s s s s k E e.7XeXeXeXeXeXeXeXeXeXeXrXrXrXrXrXrXrXrXuXuXuXuXuXuXuXuXuXuXuX7.s s s s s s s s s s s s s s s s s s s s s s s s s s s s s s s s s s s s s s s s s s s s s s s s s s s s s s s s s s s s s s s s ",
"s s s s s s s s s s s s s s s s s s s s s s s s s s s s s s s s s s s s s s s s s J }.).).).).).).).(.(.(.(.(.(.(.(.A.A.A.A.A.A.A.A.C.C.C.C.C.C.C.C.M.C.`.;X;X;X;X;X;X;X;X;X;X;X;X;X;X;X;X;X;X;X;X;X;X;X'.'.'.'.;X+X+X+X+X+X+X+X+X+X+X+X+X+X+X+X6X6X6X6X+X+X+X6X6X6X6X6X6X6X6X6X6X6X8X8X6X6X8X8X8X:X:X:X:X8Xe.y 7 s s s s s s s h E t.7XeX<XeXeXeXeXeXeXrXrXrXrXrXrXrXrXrXuXuXuXrXrXrXrXrXrXuXqXy s s s s s s s s s s s s s s s s s s s s s s s s s s s s s s s s s s s s s s s s s s s s s s s s s s s s s s s s s s s s s s s ",
"s s s s s s s s s s s s s s s s s s s s s s s s s s s s s s s s s s s s s s s s B [.).).).).).).).).).(.(.(.(.(.(.(.A.A.A.A.A.A.A.A.A.C.C.C.C.C.C.M.C.'.;X;X;X;X;X;X;X;X;X;X;X;X;X;X;X;X;X;X;X;X;X;X;X;X+X+X+X+X+X+X+X+X+X+X+X+X+X+X+X+X+X+X+X+X6X+X6X+X+X+X+X6X6X6X6X6X6X6X6X6X6X6X6X6X6X6X8X8X8X:X;X;X;X;X:X~.S s s s s s s s s s k E T.7XeXeXeXeXeXeXeXrXrXrXrXrXrXrXrXrXrXrXrXuXrXrXrXrXrXrX/ a s s s s s s s s s s s s s s s s s s s s s s s s s s s s s s s s s s s s s s s s s s s s s s s s s s s s s s s s s s s s s s ",
"s s s s s s s s s s s s s s s s s s s s s s s s s s s s s s s s s s s s s s s l g.).).).).).).).).).).(.(.(.(.(.(.(.(.A.A.A.A.A.A.A.C.C.C.C.C.C.C.C.'.;X;X;X;X;X;X;X;X;X;X;X;X;X;X6X;X;X;X;X;X;X'.'.;X6X6X+X+X+X+X+X+X+X+X+X+X+X+X+X+X+X+X+X+X+X+X+X+X+X+X+X+X+X6X6X6X6X6X6X6X6X6X6X6X6X6X6X8X8X8X8X;X;X;X:X:X:XI.w s s s s s s s s s s q W T.eXeXeXeXeXeXeXeXrXrXrXrXrXrXrXrXrXrXrXrXrXrXrXrX<Xy.d s s s s s s s s s s s s s s s s s s s s s s s s s s s s s s s s s s s s s s s s s s s s s s s s s s s s s s s s s s s s s s ",
"s s s s s s s s s s s s s s s s s s s s s s s s s s s s s s s s s s s s s s h ;.).).).).).).).).).).).(.(.(.(.(.(.(.(.A.A.A.A.A.A.A.C.C.C.C.C.C.A.'.:X;X;X;X;X;X;X;X;X;X;X;X;X;X;X;X;X;X;X'.'.'.'.'.'.'.+X+X+X+X+X+X+X+X+X+X+X+X+X+X+X+X+X+X+X+X+X+X+X+X+X+X+X+X6X6X6X6X6X6X6X6X6X6X6X6X6X8X8X6X8X8X6X6X:X:X:X;XQ.q s s s s s s s s s s s s q ^ %XeXeXeXeXeXeXeXrXrXrXrXrXrXrXrXrXrXrXrXrXrXrX<X3Xy s s s s s s s s s s s s s s s s s s s s s s s s s s s s s s s s s s s s s s s s s s s s s s s s s s s s s s s s s s s s s s ",
"s s s s s s s s s s s s s s s s s s s s s s s s s s s s s s s s s s s s s s J .X`.).).).).).).).).).).).)..X|.|./.Z.Z.A.A.A.A.A.A.A.C.C.C.C.C.C.`.:X:X;X;X;X;X;X;X;X;X;X;X;X;X;X;X;X;X;X'.'.'.'.'.'.'.+X+X+X+X+X+X+X+X+X+X+X+X+X+X+X+X+X+X+X+X+X+X+X+X+X+X+X+X+X6X6X6X6X6X6X6X6X6X6X8X8X6X6X6X6X6X6X6X6X:X;X;X;X#Xy s s s s s s s s s s s s s s t 1.4XeXeXeXeXeXrXrXrXrXrXrXrXrXrXrXrXrXrXrXrXrXwXE a s s s s s s s s s s s s s s s s s s s s s s s s s s s s s s s s s s s s s s s s s s s s s s s s s s s s s s s s s s s s s ",
"s s s s s s s s s s s s s s s s s s s s s s s s s s s s s s s s s s s s s t Y.`.`.).).).).).).)..XU.5.:.P J Z M M Z 3.A.A.A.A.A.A.A.A.C.C.C.C.).;X:X;X;X;X;X;X;X;X;X;X;X;X;X;X;X;X;X;X'.'.'.'.'.'.'.'.+X+X+X+X+X+X+X+X+X+X+X+X+X+X+X+X+X+X+X+X+X+X+X+X+X+X+X+X+X+X6X6X6X6X+X6X6X6X6X6X8X6X6X6X6X6X6X6X6X:X;X;X;X9XT s s s s s s s s s s s s s s s s A T.eXeXeXeXeXeXeXrXrXrXrXrXrXrXrXrXrXrXrX<XrX,.s s s s s s s s s s s s s s s s s s s s s s s s s s s s s s s s s s s s s s s s s s s s s s s s s s s s s s s s s s s s s s ",
"s s s s s s s s s s s s s s s s s s s s s s s s s s s s s s s s s s s s s :.).`.`.`.).OXOX^.6.*.T l 9 s s s s 7 s ` N.A.A.A.A.A.A.A.A.C.C.C.).;X;X;X;X;X;X;X;X;X;X;X;X;X;X;X;X;X;X;X'.'.'.'.'.'.'.'.'.+X+X+X+X+X+X+X+X+X+X+X+X+X+X+X+X+X+X+X+X+X+X+X+X+X+X+X+X+X+X+X+X6X6X+X+X6X6X6X6X6X6X6X6X6X6X6X6X6X:X:X;X8X8X<.s s s s s s s s s s s s s s s s s q 1.4XeXeXeXeXeXeXeXeXrXrXrXrXrXrXrXrXrX<XrX0.s s s s s s s s s s s s s s s s s s s s s s s s s s s s s s s s s s s s s s s s s s s s s s s s s s s s s s s s s s s s s s ",
"s s s s s s s s s s s s s s s s s s s s s s s s s s s s s s s s s s s s B ^.).).OXOXOXU.=.n h s s s s s s s s h :.Z.A.A.A.A.A.A.A.A.A.A.C.(.;X;X;X;X;X;X;X;X;X;X;X;X;X;X;X;X;X'.'.'.'.'.'.'.'.'.'.'.'.'.+X+X+X+X+X+X+X+X+X+X+X+XOX+X+X+X+X+X+X+X+X+X+X+X+X+X+X+X+X+X+X6X+X+X+X6X6X6X6X6X6X6X6X6X8X8X;X6X6X;X:X:X8XT.h s s s s s s s s s s s s s s s s s s W &XeXeXeXeXeXeXeXeXeXeXrXeXrXeXeX<X<XrXR.h s s s s s s s s s s s s s s s s s s s s s s s s s s s s s s s s s s s s s s s s s s s s s s s s s s s s s s s s s s s s s ",
"s s s s s s s s s s s s s s s s s s s s s s s s s s s s s s s s s s s s 5.`.).).`.U.*.x s s s s s s s s s s h :.A.A.A.A.A.A.A.A.A.A.A.A.A.'.;X;X;X;X;X;X;X;X;X;X;X;X;X;X;X;X;X'.'.'.'.'.'.'.'.'.'.'.'.'.'.'.'.'.'.+X+X+X+X+XOXOXOXOXOXOXOX+X+X+X+X+X+X+X+X+X+X+X+X+X+X+X+X+X+X6X6X6X6X6X6X6X6X6X6X8X6X8X8X8X;X;X;X2XB a s s s s s s s s s s s s s s s s s s B E.eXeXeXeXeXeXeXeXeXeXeXeXeXeX<XeXeX%Xk s s s s s s s s s s s s s s s s s s s s s s s s s s s s s s s s s s s s s s s s s s s s s s s s s s s s s s s s s s s s s ",
"s s s s s s s s s s s s s s s s s s s s s s s s s s s s s s s s s s s n }.OX`.^.:.r s s s s s s s s s s s h :.A.(.(.A.A.A.A.A.A.A.A.A.A.`.;X;X;X;X;X;X;X;X;X;X;X;X;X;X;X;X'.'.'.'.'.'.'.'.'.'.'.'.'.'.'.`.`.`.'.+X+X+X+X`.OXOXOXOXOXOXOXOX+XOXOXOX+X+X+X+X+X+X+X+X+X+X+X+X+X+X+X6X6X6X6X6X6X6X6X6X6X6X6X6X;X;X;X;X;X4.s s s s s s s s s s s s s s s s s s s s y e.eXeX<XeX<XeXeXeXeXeXeXeXeXeXeXeX3Xt a s s s s s s s s s s s s s s s s s s s s s s s s s s s s s s s s s s s s s s s s s s s s s s s s s s s s s s s s s s s s ",
"s s s s s s s s s s s s s s s s s s s s s s s s s s s s s s s s s s 8 2.).OXI.Z s s s s s s s s s s s s h :.(.(.(.(.(.A.A.A.A.A.A.A.A.(.;X;X;X;X;X;X;X;X;X;X;X;X;X;X;X;X'.'.'.'.'.'.'.'.'.'.'.'.'.'.'.'.`.`.`.`.+X+X+XOX`.OXOXOXOXOXOXOXOXOXOXOXOXOX+X+X+X+X+X+X+X+X+X+X+X+X+X+X+X6X6X6X6X6X6X6X6X6X6X6X6X6X8X;X;X;XoXS s s s s s s s s s s s s s s s s s s s s x t.eX<X<X<X<X<X<XeXeX<X<X<X<X<X<X>XS a s s s s s s s s s s s s s s s s s s s s s s s s s s s s s s s s s s s s s s s s s s s s s s s s s s s s s s s s s s s s ",
"s s s s s s s s s s s s s s s s s s s s s s s s s s s s s s s s s s b ^.).:.l s s s s s s s s s s s s d =./.(.(.(.(.(.(.A.A.A.A.A.A.A.'.;X;X;X;X;X;X;X;X;X;X;X;X;X;X;X'.'.'.'.'.'.'.'.'.'.'.'.`.`.'.'.`.`.'.'.`.+X+X+X+XOXOXOXOXOXOXOXOXOXOXOX+X+XOXOX+X+X+X+X+X+X+X+X+X+X+X+X+X+X+X6X6X6X6X6X6X6X6X6X6X6X6X8X6X;X;X6XT.z s s s s s s s s s s s s s s s s s s s s x T.<X:X<X<X<X<X<X<X<XeX<X<X<X<X<Xq.h s s s s s s s s s s s s s s s s s s s s s s s s s s s s s s s s s s s s s s s s s s s s s s s s s s s s s s s s s s s s ",
"s s s s s s s s s s s s s s s s s s s s s s s s s s s s s s s s s s <.}.J 8 s s s s s s s s s s s s s P |.(.(.(.(.(.(.(.(.A.A.A.A.A.).;X;X;X;X;X;X;X;X;X;X;X;X;X;X'.'.'.'.'.'.'.+X'.'.'.'.'.`.`.`.`.`.`.'.'.`.`.'.'.'.+XOXOXOXOXOXOXOXOXOXOXOXOX+XOXOX+X+X+X+X+X+X+X+X+X+X+X+X+X+X+X6X6X6X6X6X6X6X6X6X6X6X6X8X6X;X;X;X8Xw.q 7 s s s s s s s s s s s s s s s s s s s u !.:X:X<X<X:X<X:X<X<X<X:X:X<X<X7XW s s s s s s s s s s s s s s s s s s s s s s s s s s s s s s s s s s s s s s s s s s s s s s s s s s s s s s s s s s s s ",
"s s s s s s s s s s s s s s s s s s s s s s s s s s s s s s s s s e 4.T s s s s s s s s s s s s s s J {.(.(.(.(.(.(.(.(.(.A.A.A.A.(.;X;X;X;X;X;X;X;X;X;X;X;X;X;X'.'.'.'.'.+X+X'.'.'.'.'.'.`.`.`.`.`.`.`.OX^.B.B.`.OX+X+XOXOXOXOXOXOXOXOXOXOXOXOXOXOXOXOXOXOXOX+X+X+X+X+X+X+X+X+X+X+X+X6X6X6X6X6X6X6X6X6X6X6X6X;X;X;X;X8X8Xe.N s s s s s s s s s s s s s s s s s s s s S 5XeX<X<X:X:X:X:X<X<X<X<X:X:XeX&XN 7 s s s s s s s s s s s s s s s s s s s s s s s s s s s s s s s s s s s s s s s s s s s s s s s s s s s s s s s s s s ",
"s s s s s s s s s s s s s s s s s s s s s s s s s s s s s s s s s e y s s s s s s s s s s s s s s C J.(.(.(.(.(.(.(.(.(.(.A.A.A.A.`.;X;X;X;X;X;X;X;X;X;X;X;X;X'.'.'.'.'.+X+X+X'.'.'.'.'.'.`.`.`.`.`.N.c.o.X. .B.`.OXOXOXOXOXOXOXOXOXOXOXOXOXOXOXOXOXOXOXOXOXOXOXOX+X+X+X+X+X+X+X+X+X+X+X+X6X6X6X6X6X6X6X6X6X6X6X;X;X6X6X8X8X#X<.y h s s s s s s s s s s s s s s s s s g >.8X:X:X:X:X:X:X8X:X:X<X:X:X:X<XT.t s s s s s s s s s s s s s s s s s s s s s s s s s s s s s s s s s s s s s s s s s s s s s s s s s s s s s s s s s s ",
"s s s s s s s s s s s s s s s s s s s s s s s s s s s s s s s s s s s s s s s s s s s s s s s s y h.(.(.(.(.(.(.(.(.(.(.(.(.A.A.).;X;X;X;X;X;X;X;X;X;X;X;X'.'.'.'.'.'.+X+X+X'.'.'.`.'.'.'.'.`.`.N.u.X.X.X.X.o.).`.`.`.OXOXOXOXOXOXOXOXOXOXOXOXOXOXOXOXOXOXOXOXOXOXOX+X+X+X+X+X+X+X+X+X+X+X+X6X6X6X6X6X6X6X6X6X6X8X6X6X8X;X6X8X8X#Xq.^ B e h h s s s s s s s s s s s s s k 0.:X:X:X:X:X:X:X:X<X<X:X:X:X:X<XT.y s s s s s s s s s s s s s s s s s s s s s s s s s s s s s s s s s s s s s s s s s s s s s s s s s s s s s s s s s ",
"s s s s s s s s s s s s s s s s s s s s s s s s s s s s s s s s s s s s s s s s s s s s s s s k 5.).(.(.(.(.(.(.(.(.(.(.(.(.A.(.'.:X;X;X;X;X;X;X;X;X;X;X'.'.'.'.'.'.'.+X+X+X'.'.`.`.`.`.+X'./.z.X.X.X.X.X.X.c.`.`.`.`.OXOXOXOXOXOXOXOXOXOXOXOXOXOXOXOXOXOXOXOXOXOXOXOX+X+X+X+X+X+X+X+X+X+X+X6X6X6X6X6X6X6X6X6X6X6X6X8X6X6X6X;X;X6X8X6X2XQ.I.w.q.1.<.^ S N q 8 s s s s s s y Q.:X:X:X8X8X8X:X:X:X:X:X:X:X:XeXE.N s s s s s s s s s s s s s s s s s s s s s s s s s s s s s s s s s s s s s s s s s s s s s s s s s s s s s s s s ",
"s s s s s s s s s s s s s s s s s s s s s s s s s s s s s s s s s s s s s s s s s s s s s s d :.).).).(.(.(.(.(.(.(.(.(.(.(.(.).;X:X:X;X;X;X;X;X;X;X;X;X;X'.'.'.'.'.'.'.'.+X'.'.`.`.OX`.`.N.&.X.X.X.X.X.X.X.N.`.`.`.OXOXOXOXOXOXOXOXOXOXOXOXOXOXOXOXOXOXOXOXOXOXOXOXOXOXOX+X+X+X+X+X+X+X+X+X+X+X6X6X6X6X6X6X6X6X6X6X6X6X6X6X;X;X;X;X;X;X6X6X6X8X8X;X;X9X#XQ.e.>.A k s s s s / :X:X:X:X8X8X:X:X:X:X:X:X:X:X:X<X!.A s s s s s s s s s s s s s s s s s s s s s s s s s s s s s s s s s s s s s s s s s s s s s s s s s s s s s s s ",
"s s s s s s s s s s s s s s s s s s s s s s s s s s s s s s s s s s s s s s s s s s s s s s J |.).).).).(.(.(.(.(.(.(.(.(.(.(.'.;X;X:X;X;X;X;X;X;X;X;X6X;X'.'.'.'.'.'.'.'.'.'.'.`.`.`.).v.$.X.X.X.X.X.X.X.o.).`.`.`.OXOXOXOXOXOXOXOXOXOXOXOXOXOXOXOXOXOXOXOXOXOXOXOXOXOXOXOX+X+X+X+X+X+X+X+X+X+X+X+X6X6X6X6X6X6X6X6X6X6X6X6X6X6X;X;X;X;X6X6X6X6X6X;X;X;X;X;X8X8X9XI.-.b s s k W.8X:X:X8X:X:X:X:X:X:X8X8X:X:X:X<X5XE s s s s s s s s s s s s s s s s s s s s s s s s s s s s s s s s s s s s s s s s s s s s s s s s s s s s s s ",
"s s s s s s s s s s s s s s s s s s s s s s s s s s s s s s s s s s s s s s s s s s s s s b j.).).).).).(.(.(.(.(.(.(.(.(.(.).;X;X;X;X;X;X;X;X;X;X;X6X6X'.'.'.'.'.'.'.'.`.`.'.'.`.`.).v.$.X.X.X.X.X.X.X.X.z.).`.`.`.OXOXOXOXOXOXOXOXOXOXOXOXOXOXOXOXOXOXOXOXOXOXOXOXOXOXOXOXOX+X+X+X+X+X+X+X+X+X+X+X+X6X6X6X6X6X6X6X6X6X6X6X6X;X;X;X;X;X;X6X6X;X;X;X;X;X;X;X6X;X;X;X;X#X1.I g ) 7X:X:X:X:X:X:X:X:X:X:X8X:X:X:X:X<X4X>.h s s s s s s s s s s s s s s s s s s s s s s s s s s s s s s s s s s s s s s s s s s s s s s s s s s s s ",
"s s s s s s s s s s s s s s s s s s s s s s s s s s s s s s s s s s s s s s s s s s s s k 5.).).).).).(.).(.(.(.(.(.(.(.(.(.'.:X;X;X;X;X;X;X;X;X;X;X6X'.'.'.'.'.+X'.'.'.`.`.`.`.`.).v.&.$.$.X.X.$.X.X.X.X.c.`.`.`.`.OXOXOXOXOXXXXXOXOXOXOXOXOXOXOXOXOXOXOXOXOXOXOXOXOXOXOXOXOXOXOXOXOX+X+X+X+X+X+X+X+X+X+X6X6X6X6X6X6X6X6X6X6X6X;X6X;X;X;X;X;X;X;X;X;X;X;X;X;X;X;X;X;X;X:X#X<.N e.:X:X:X:X:X:X:X:X:X:X:X:X:X:X:X:X:X8Xq.t s s s s s s s s s s s s s s s s s s s s s s s s s s s s s s s s s s s s s s s s s s s s s s s s s s s ",
"s s s s s s s s s s s s s s s s s s s s s s s s s s s s s s s s s s s s s s s s s s s s ! XXXX).).).).(.).(.(.(.(.(.(.(.(.).;X;X;X;X;X;X;X;X;X;X;X;X'.'.'.'.'.'.'.'.'.'.`.`.`.`.`.v.&.&.&.$.$.X.$.$.X.X.X.B.`.`.`.`.`.OXOXOXOXOXXXXXOXOXOXOXOXOXOXOXOXOXOXOXOXOXOXOXOXOXOXOXOXOXOXOXOXOXOX+X+X+X+X+X+X+X+X+X+X+X6X6X6X6X6X6X6X6X6X;X;X;X;X;X;X;X;X;X6X6X6X;X;X;X;X;X;X:X:X8X8X~.e.:X:X:X:X:X8X:X:X:X:X:X:X:X:X:X:X:X:XeXW.A s s s s s s s s s s s s s s s s s s s s s s s s s s s s s s s s s s s s s s s s s s s s s s s s s s ",
"s s s s s s s s s s s s s s s s s s s s s s s s s s s s s s s s s s s s s s s s s s s n [.).XX).).).).(.).(.(.(.(.(.(.(.(.`.;X;X;X;X;X;X;X;X;X;X;X'.'.'.'.'.+X+X'.'.`.'.`.`.`.`.V.&.&.&.&.&.$.$.$.$.X.X.X.N.`.`.`.`.`.`.`.OXOXOXOXOXOXXXOXOXOXOXOXOXOXOXOXOXOXOXOXOXOXOXOXOXOXOXOXOXOXOXOXOX+X+X+X+X+X+X+X+X+X+X+X+X+X6X6X6X6X6X6X6X6X;X;X;X;X;X;X6X6X6X;X;X;X;X;X;X;X:X:X;X;X;X;X;X;X:X:X:X:X:X:X:X:X:X:X:X:X:X:X:X:X:X<X5X/ w s s s s s s s s s s s s s s s s s s s s s s s s s s s s s s s s s s s s s s s s s s s s s s s s ",
"s s s s s s s s s s s s s s s s s s s s s s s s s s s s s s s s s s s s s s s s s s h 5.).).).).).).).).).).(.(.(.(.(.(.(.;X;X;X;X;X;X;X;X;X;X;X'.'.'.'.'.'.+X'.'.'.'.'.`.`.`./.x.&.&.&.&.&.&.&.&.$.X.X.X.Z.`.`.`.`.`.`.`.OXOXOXOXOXXXXXOXOXOXOXOXOXOXOXOXOXOXOXOXOXOXOXOXOXOXOXOXOXOXOXOXOXOXOXOXOX+X+X+X+X+X+X+X+X+X+X+X6X6X6X6X6X6X6X;X;X;X;X6X6X6X;X;X;X;X;X;X;X;X;X;X;X;X;X;X;X;X:X:X;X;X;X;X:X:X:X:X:X:X:X:X:X:X:X:X<X8X0.N s s s s s s s s s s s s s s s s s s s s s s s s s s s s s s s s s s s s s s s s s s s s s s s ",
"s s s s s s s s s s s s s s s s s s s s s s s s s s s s s s s s s s s s s s s s s s J ).).).).).).).).).).).(.(.(.(.(.(.).;X;X;X;X;X;X6X6X;X;X6X'.'.'.'.'.'.'.'.'.`.`.`.`.`.OXv.&.&.&.&.&.&.&.&.&.$.$.X.X.Z.`.`.`.`.`.`.`.OXOXOXXXXXOXXXXXOXOXOXOXOXOXOXOXOXOXOXOXOXOXOXOXOXOXOXOXOXOXOXOXOXOXOXOXOXOXOXOX+X+X+X+X'.+X'.+X+X6X6X6X;X;X;X;X6X;X6X6X6X;X;X;X;X;X;X;X;X;X;X;X;X;X;X;X;X;X;X;X;X;X;X;X;X:X:X:X:X:X:X:X:X:X:X:X:X:XeX&X^ h s s s s s s s s s s s s s s s s s s s s s s s s s s s s s s s s s s s s s s s s s s s s s ",
"s s s s s s s s s s s s s s s s s s s s s s s s s s s s s s s s s s s s s s s s s e f.).).).).).).).).).).).(.(.(.(.(.(.'.:X;X;X;X;X;X6X6X6X6X'.'.'.'.'.'.'.'.'.`.`.`.`.`.OXZ.x.&.&.&.&.&.&.&.&.&.$.$.X.X.B.`.`.`.`.`.`.`.`.`.OXOXXXOXOXXXXXXXXXOXOXOXOXXXOXOXOXXXXXXXOXXXOXOXOXOXOXOXOXOXOXOXOXOXOXOXOXOXOX+X+X+X+X+X+X+X+X+X;X6X;X;X;X;X6X6X6X6X6X;X;X;X;X;X;X;X;X;X;X;X;X;X;X;X;X;X;X;X;X;X;X;X;X;X;X;X;X:X:X:X:X:X:X:X:X:X:X<X7X0.N s s s s s s s s s s s s s s s s s s s s s s s s s s s s s s s s s s s s s s s s s s s s ",
"s s s s s s s s s s s s s s s s s s s s s s s s s s s s s s s s s s s s s s s s s *.).).).).).).).).).).).(.(.(.(.(.(.).;X;X;X;X;X;X;X6X6X+X+X+X+X'.'.'.'.'.'.`.`.`.`.`.`.).m.x.&.&.&.&.&.&.&.&.&.&.$.$.X.v.`.`.`.`.).`.`.`.).).).XXXXXXXXXXXXOXOXXXXXXXXXXXXXXXXXXXXXXXOXXXXXXXXXOXOXOXOXOXOXOXOXOXOXOXOXOXOX+X+X+X+X+X+X+X+X'.'.;X;X;X6X6X6X;X;X;X;X;X;X;X;X6X6X;X;X;X;X;X;X;X;X;X;X;X;X;X;X;X;X;X;X;X;X;X;X:X:X:X:X:X:X:X:X:X:X<XeX5X>.q 7 s s s s s s s s s s s s s s s s s s s s s s s s s s s s s s s s s s s s s s s s s ",
"s s s s s s s s s s s s s s s s s s s s s s s s s s s s s s s s s s s s s s s s I [.`.).).).).).).).).).(.(.(.(.(.(.(.).;X;X;X;X;X;X;X;X;X+X+X+X+X'.+X+X+X+X'.`.`.`.`.`.OXZ.x.x.&.&.&.&.&.&.&.&.&.&.$.X.X.z.`.`.`.`.`.`.).).).).).XXXXXXXXXXOXOXOXXXOXOXXXXXXXXXOXOXXXXXXXXXXXXXXXXXOXOXOXOXOXOXOXOXOXOXOXOXOXOX+X+X+X+X+X+X+X'.'.'.'.;X6X6X6X;X;X;X;X;X;X;X;X;X;X;X;X;X;X;X;X;X;X;X;X;X;X;X;X;X;X;X;X;X;X;X;X;X:X:X:X:X:X:X:X<X<X<X:X<XeXE.W q s s s s s s s s s s s s s s s s s s s s s s s s s s s s s s s s s s s s s s s s ",
"s s s s s s s s s s s s s s s s s s s s s s s s s s s s s s s s s s s s s s s s ;.`.`.).).).).).).).XXXX(.(.(.(.(.(.(.`.;X;X;X;X;X;X;X;X'.'.+X+X+X'.+X+X+X'.'.`.`.`.OXOX).m.x.x.&.&.&.&.&.&.&.&.&.$.$.X.X.&.).`.`.`.`.`.).).).).`.OXXXXXXXXX).XXXXXXXXXXXXXXXXXXXXXXXXXXXXXXXXXXXXXXOXOXOXOXOXOXOXOXOXOXOXOXOXOXOXOX+X+X+X'.+X'.'.'.'.6X6X6X;X;X;X;X;X;X;X;X;X;X;X;X;X;X;X;X;X;X6X6X;X;X;X;X;X;X;X;X;X;X;X;X;X;X:X:X:X:X:X:X:X<X<X<X:X<XeXeXwXR.Q k 8 7 s s Y ,.t s s s s s s s s s s s s s s s s s s s s s s s s s s s s s s s ",
"s s s s s s s s s s s s s s s s s s s s s s s s s s s s s s s s s s s s s s s b [.`.`.).).).).).).).XXXX(.(.(.(.(.(.(.'.;X;X;X;X;X;X;X'.'.'.'.+X+X+X+X+X+X'.`.`.`.`.`.OX(.m.m.x.x.x.&.&.&.&.&.&.&.&.$.X.$.X.Z.`.`.`.`.`.OX).).).`.).XXXXXXXX).XXXXXXXXXXXXXXXXXXXXXXXXXXXXXXXXXXXXXXXXXXXXXXXXXXXXOXOXOXOXOXOXOXOXOXOX+X+X+X'.'.'.'.+X+X+X+X+X'.'.'.;X;X;X;X6X;X;X'.;X;X;X;X;X;X;X;X;X;X;X;X;X;X;X;X;X;X;X;X;X;X;X:X:X:X:X:X:X:X<X<XeXeXeXeXeXeXwXE.7./ / q.3XrX0.h s s s s s s s s s s s s s s s s s s s s s s s s s s s s s s ",
"s s s s s s s s s s s s s s s s s s s s s s s s s s s s s s s s s s s s s s s :.`.).).`.).).).).).).).XX(.(.(.(.(.(.).;X;X;X;X;X;X;X;X'.'.'.+X+X+X+X+X+X+X'.`.`.`.`.`.`.V.m.m.x.x.x.x.&.&.&.&.&.&.&.$.X.&.X.z.`.`.`.`.`.OXXXXXXX`.XX).XXXX).).).).XXXX).XXXXXXXX).XXXXXXXXXXXXXXXXXXXXXXXXXXXXXXXXXXXXOXOXOXOXOX`.OXOXOX+X+X'.+X'.'.+X+X+X'.+X'.'.'.'.'.;X;X+X'.'.'.+X'.'.'.'.'.'.'.'.'.'.'.'.'.'.'.;X;X;X;X;X;X;X:X:X:X:X:X:X:X:X:X:XeXeXeXeX<X<XeXrXrXrXrX<X<XeX<.s s s s s s s s s s s s s s s s s s s s s s s s s s s s s s ",
"s s s s s s s s s s s s s s s s s s s s s s s s s s s s s s s s s s s s s s I [.`.).).).).).).XX).).XX.X.X(.(.(.(.(.).;X;X;X;X;X;X;X'.'.'.'.'.'.+X'.OXOX`.`.`.`.`.`.OX).m.m.m.m.m.x.x.&.&.&.&.&.&.&.&.$.X.X.X./.`.`.`.`.OXOX`.).XXXX).XX).).).).).XXXX).).).).XX).XXXXXXXXXXXXXXXXXXXXXXXXXXXXXXXXXXXXXXOXOXOXOX`.`.OXOXOXOX+X+X+X+X+X+X+X'.'.'.'.'.'.'.'.'.'.'.'.'.'.'.'.'.'.'.'.'.'.'.'.'.'.'.'.'.'.;X;X;X;X;X;X;X:X:X:X:X:X:X:X:XeXeXeXeXeX<X<X<XrXrXrX<X<X<X<X-XA s s s s s s s s s s s s s s s s s s s s s s s s s s s s s ",
"s s s s s s s s s s s s s s s s s s s s s s s s s s s s s s s s s s s s s s *.OX`.).).).).).).XX).)..X.X(.(.(.(.(.(.`.;X;X;X;X6X6X;X'.'.'.'.'.+X+X+XOXOX`.`.`.`.`.`.OXZ.m.m.m.m.m.x.x.&.&.&.&.&.&.&.&.$.$.X.X.c.`.`.`.`.OXOX).).).).).).).).).).).).XXXXXXXX).).).).XXXXXXXXXXXXXXXXXXXXXXXXXXXXXXXXXXXXXXXXOXOX`.`.OXOXOXOXOX+XOX+X+X'.'.'.'.'.'.'.'.'.'.'.'.'.'.'.'.'.'.'.'.'.'.'.'.'.'.'.'.'.'.'.'.'.;X;X;X;X;X;X;X:X:X:X:X:X:X:X:X8XeXeXeXeXeXeXrXrXrX<X<X<X<X<XR.k s s s s s s s s s s s s s s s s s s s s s s s s s s s s ",
"s s s s s s s s s s s s s s s s s s s s s s s s s s s s s s s s s s s s s k f.`.`.).).).).).XXXX).(.(..X(.(..X(.(.(.'.;X;X;X;X6X6X+X'.'.+X'.'.+X+X'.`.OXOX`.OX`.`.OXOXV.m.m.m.m.m.x.x.x.&.&.&.&.&.&.&.&.$.X.X.X.Z.`.`.).).).).).).).).).).).).).).).).XXXXXX).).).XXXXXXXXXXXXXXXXXXXXXXXXXXXXXXXXXXXXXXXXXXXXXXOXOXOXOXOXOXOXOXOXOXOX'.+X'.'.'.'.+X+X'.'.'.'.'.'.'.'.'.'.'.'.'.'.'.'.'.'.'.'.'.'.'.'.'.;X;X;X;X;X;X;X:X:X:X:X:X:X:X:X:XeXeXeXeXeXeXeXeXeX<X<X<X<X<XeX/ s s s s s s s s s s s s s s s s s s s s s s s s s s s s ",
"s s s s s s s s s s s s s s s s s s s s s s s s s s s s s s s s s s s s s J ).`.`.`.).).).).XXXX).(.(.(.(.(..X(.(.(.'.;X;X;X;X;X6X+X+X+X+X+X+X+X+X'.+XOXOXOXOXOXOXOXXXm.m.m.m.m.m.m.x.x.x.x.&.&.&.&.&.&.$.X.X.X.z.).`.`.).).).).).).).).).).).).).).).).).).).).XXXXXXXXXXXXXXXXXXXXXXXXXXXXXXXXXXXXXXXXXXXXXXXXOXOXOXOXOXOXOXOXOXOX`.OXOX+X+X+X+X'.'.'.'.'.'.'.'.'.'.'.'.'.'.'.'.'.'.'.'.'.'.'.'.'.'.'.;X;X;X;X;X;X;X;X:X:X:X:X:X:X:X:X:X<XeXeXeXeXeXeXeX<X<X<X<X<XrX%Xx s s s s s s s s s s s s s s s s s s s s s s s s s s s ",
"s s s s s s s s s s s s s s s s s s s s s s s s s s s s s s s s s s s s h 5.`.).).).).).).).).).).).XX(.(.(.(.(.(.).;X;X6X6X6X6X+X+X+X+X+X+X+X+X+X+X'.+X+XOXOXOXOXOXXXm.m.m.m.m.m.m.x.x.x.x.&.&.&.&.&.&.&.X.X.X.X.c.).`.).).).).).).).).).).).(.).).).).).).).).XXXX.X.XXXXXXXXX.XXXXX).).).).XXXXXXXXXXXXXXXXXXXXXXOXOXOXOXOXOXOXOXOX`.OXOX+X+X+X'.+X'.'.'.'.+X'.'.'.'.'.'.`.`.'.'.'.'.'.'.'.'.'.'.'.'.'.;X;X;X;X;X;X;X;X:X:X:X:X:X:X:X<XeX4XeXrX<X<XeXeXeXeXeXrXrXeXeX<.s s s s s s s s s s s s s s s s s s s s s s s s s s s ",
"s s s s s s s s s s s s s s s s s s s s s s s s s s s s s s s s s s s s b }.`.`.).).).).).).).).).XXXX.X(.(.(.(.(.).;X;X;X6X6X6X+X+X+X+X+X+X+X+X+X+X+X+XOXOXOXOXOXOX).m.m.m.m.m.m.m.m.x.m.x.x.&.&.&.&.&.&.&.&.X.X.X.B.).`.`.).).).).).).).).(.(.(.).).).).).).).XXXX.X.X(.XXXXXXXX.X.X.X).XX.X.X.XXXXXXXXXXXXXXXXXXXXXOXOXOXOXOXOXOXOX`.OXOXOXOXOXOX'.'.OXOX+X+X+XOX`.'.`.`.`.OXOXOX`.`.`.'.`.'.'.'.'.'.'.'.;X;X;X;X;X;X;X;X:X:X:X:X:X:X:XeX7./ !.<X<XeXeXeXeXrXrXrXrXrX$Xk s s s s s s s s s s s s s s s s s s s s s s s s s s ",
"s s s s s s s s s s s s s s s s s s s s s s s s s s s s s s s s s s s s ! `.`.).`.).).).).).).).XXXX.X.X.X(.(.(.(.`.;X;X6X6X6X+X+X+X+X+X+X+X+X+X+X+X+X+XOXOXOXOXOXOX(.m.m.m.m.m.m.m.m.m.m.x.&.&.&.&.&.&.&.&.&.X.X.X.o.k.@XOX).).).).).).).).).(.(.).(.(.).(.(.(.(.(..X.X(.(.(.XX.X.X.X.X.XXX.X.X.X.X.X.XXXXXXXXXXXXXXXOXOXOXOXOXOXOXOXOXOXOXOXOXOXOX`.OXOXOXOXOXOXOXOXOXOXOXOXOX`.`.`.`.`.`.`.'.'.'.'.'.'.'.'.;X;X;X;X;X;X;X;X:X:X:X:X:X:XeX0.8 q >.*XrXrXeXeXeXrXrXeXeXwXW s s s s s s s s s s s s s s s s s s s s s s s s s s ",
"s s s s s s s s s s s s s s s s s s s s s s s s s s s s s s s s s s s s 5.`.`.).`.).).).).).).XXXXXX.X.X(.(.(.A.(.`.;X6X6X+X+X+X+X+X+X+X+X+X+X+X+X+X+XOXOXOXOXOXOXOX(.m.m.m.m.m.m.m.m.m.m.x.&.&.&.&.&.&.&.&.&.X.$.X.&.F Q }.).).).).).).).).(.(.(.).(.(.(.(.(.(.(.(.(.(.(..X(.(..X.X.X.X.X.X.X.X.X.X.X.XXXXXXXXXXXXXXXXXXXXXOXOXOXOXOXOXOXOXOXOXOXOXOXOXOXOXOXOXOXOXOXOXOXOXOX`.`.`.`.`.`.`.`.`.'.'.'.'.'.'.'.'.;X;X;X;X;X;X;X;X:X:X:X:X:X:X!.q 7 s I r.1X<XeX<XeXrXeXeXeX0.s s s s s s s s s s s s s s s s s s s s s s s s s s ",
"s s s s s s s s s s s s s s s s s s s s s s s s s s s s s s s s s s s y U.`.).).`.).).).).).XXXXXXXX.X.X.X(.(.A.(.'.;X6X+X+X+X+X+X+X+X+X+X+X+X+XOXOXOXOXOXOXOXOXOXOX(.m.m.m.m.m.m.m.m.m.m.x.&.&.x.&.&.&.&.&.&.&.&.&.o.M s C h.).).).).).).).(.).(.(.(.(.(.(.(.(.(.(.(.(.(.(.(.(..X.X(.(..X.X.X.X.X.X.X.XXXXXXXXXXXXXXXXXXXXXXXXXOXOXOXOXOXOXOXOXOXOXOXOXOXOXOXOXOXOXOXOXOXOXOXOX`.OX`.`.`.`.`.`.`.'.'.'.'.'.'.'.'.;X;X;X;X;X;X;X;X:X:X:X:X:X9XA s s s h >.>X<X<XeXeX<X<XeX5Xy s s s s s s s s s s s s s s s s s s s s s s s s s ",
"s s s s s s s s s s s s s s s s s s s s s s s s s s s s s s s s s s s J ).).).).OX).).).).).XXXX.X.X.X.X.X(.(.A.(.'.;X6X+X+X+X+X+X+X+X+X+X+X+X+XOXOXOXOXOXOXOXOXOXOX(.m.m.m.m.m.m.m.m.m.m.x.x.&.&.&.x.&.&.&.&.&.&.&.X.m 8 8 x 4..XOX).).).).).).(.(.(.(.(.(.(.(.(.(.(.(.(.(.(.(..X(.(.(..X.X.X.X.X.X.X.X.XXXXXXXXXXXXXXXXXXXXXXXXXXXOXOXOXOXOXOXOXOXOXOXOXOXOXOXOXOXOXOXOXOXOXOX`.`.`.`.`.`.`.`.`.'.'.'.'.'.'.'.'.'.'.;X;X;X;X;X;X:X:X:X:X:X:Xq.s s s 8 8 >.eXeXeXeX<X<X<XeXE s s s s s s s s s s s s s s s s s s s s s s s s s ",
"s s s s s s s s s s s s s s s s s s s s s s s s s s s s s s s s s s s =.`.).).).XXXXXX).XXXXXXXX.X.X.X.X.X(.(..X.X'.;X+X+X+X+X+X+X+X+X+X+X+X+XOXOXOXOXOXOXOXOXOXOXOX(.m.m.m.m.m.m.m.m.m.m.m.x.&.x.x.x.&.&.&.&.&.&.&.X.m s s s k J f.).).).(.).).).(.(.(.(.(.(.(.(.(.(.(.(.(.(..X.X.X(.(..X.X.X.X.X.X.X.X.X.XXX).XXXXXXXXXXXXXXXXXXXXXXXXXXXXXXOXOXOXOXOXOXOXXXOXOXOXOXOXOXOXOX`.).XX`.`.`.`.`.`.`.`.`.'.'.'.'.'.'.'.'.;X;X;X;X;X;X;X;X;X:X:X8X5XI s s s s h t.rX<X<X<X<X<XeX7.s s s s s s s s s s s s s s s s s s s s s s s s s ",
"s s s s s s s s s s s s s s s s s s s s s s s s s s s s s s s s s s h g.).).).).XXXXXXXX).XXXX.X.X.X.X.X(.(.(..X.X'.'.'.+X+X+X+X+X+X+X+X+X+X+XOXOXOXOXOXOXOXOXOXOXOX).m.m.m.m.m.m.m.m.m.m.m.x.x.x.x.x.&.&.&.&.&.&.&.X.M s s s s s q P f.(.).).).).(.).(.(.(.(.(.(.(.(.(.(.(.(..X.X.X(..X.X(..X.X.X.X.X.X.X(.(.).).XXXXXXXXXXXXXXXXXXXXXXXXXXXXXXXXXXOXOXOXOXXXXXXXXXXXOXOXXXXX).).).`.`.`.`.`.`.`.`.`.'.'.'.'.'.'.'.'.'.;X;X;X;X;X;X;X;X;X:X:X:X4.8 8 s s s W wX<X<X<X<X<X<XT.h s s s s s s s s s s s s s s s s s s s s s s s s ",
"s s s s s s s s s s s s s s s s s s s s s s s s s s s s s s s s s s y [.).).).XXXXXX).).).)..X.X.X.X(.(.(.(.(.L..X'.'.'.+X+X+X+X+X+X+X+XOXOXOXOXOXOXOXOXOXOXOXOXOXOXXXm.m.m.m.m.m.m.m.m.m.m.m.m.x.x.x.&.&.&.&.&.&.&.&.D s s s s s s 8 q J 5.{.XX).).(.(.(.(.(.(.(.(.(..X(..X.X.X.X.X.X.X.X(.(..X.X.X.X.X(.(.).).).XXXXXXXXXXXXXXXXXXXXXXXXXXXXXXXXXXXXXXXXXXXXXXXXXXXXXXXXXXXXXX).).).`.`.`.`.`.`.`.`.`.'.'.'.'.'.'.'.'.;X;X;X;X;X;X;X;X;X;X;X;X9X~ s s s s t Q.<X<X<X<X<X<X&Xt s s s s s s s s s s s s s s s s s s s s s s s s ",
"s s s s s s s s s s s s s s s s s s s s s s s s s s s s s s s s s s Z .X).).XXXX).XX).).).(..X.X.X(.(.(.(.(.(.L..X'.'.'.+X+X+X+X+X+X+X+XOXOXOXOXOXOXOXOXOXOXOXOXOXOXXXM.m.m.m.m.m.m.m.m.m.m.m.m.x.x.x.x.&.&.&.&.&.&.&.] s s s s s s s s s h b P 5.j./.(.(.(.(.(.(.(.(..X.X.X.X.X.X.X.X.X.X.X.X.X.X.X|.|.{.{.{.{.{.}..X.XXXXXXXXXXXXXXXXXXXXXXXXXXXXXXXXXXXXXXXXXXXXXXXXXXXXXXXXXXX).).XXOXOX`.`.`.`.`.`.`.`.'.'.'.'.'.'.'.'.;X;X;X;X;X;X;X;X;X;X;X-X/ h s s 8 e.:X:X:X:X<X:X-XB s s s s s s s s s s s s s s s s s s s s s s s s ",
"s s s s s s s s s s s s s s s s s s s s s s s s s s s s s s s s s s *.).).).XX).).).).).(.(..X.X.X.X(.A.(.(.(.L.(.'.'.+X+X+X+X+X+X+X+X+XOXOXOXOXOXOXOXOXOXOXOXOXOXOXOXC.M.m.m.m.m.m.m.m.m.m.m.m.x.x.x.x.x.&.&.&.&.&.&.[ 9 s s s s s s s s s s s d r Z *.2.d.j.{.{.|.|.|.|.|.{.J.J.j.f.6.5.2.:.` L H Z C n U I U U B C J L *.;.6.f.[..XXXXXXXXXXXXXXXXXXXXXXXXXXXXXXXXXXXXXXXXXXXXXXXXXXXXXOXOX`.`.`.OXOX`.`.`.'.'.'.'.'.'.'.'.'.;X;X;X;X;X;X;X;X;X:X7X1.9 8 8 q.:X:X:X:X:X:X:XJ a s s s s s s s s s s s s s s s s s s s s s s s ",
"s s s s s s s s s s s s s s s s s s s s s s s s s s s s s s s s s s 2.).).).XXXXXX).).(.(.(.(..X.X(..XA.(.A.A.A.(.'.'.+X+X+X+X+XOXOXOX+XOXOXOXOXOXOXOXOXOXOXOXOXOXOXOXA.m.m.m.m.m.m.m.m.m.m.m.m.m.x.x.x.x.x.&.&.&.&.&.O.r a s s s s s s s s s s s s s s s k l I U T C T T T U U x l k h h d s s s s s s s s s s s s s s s s s h k x C ! 4.f.}.XXXXXXXXXXXXXXXXXXXXXXXXXXXXXXXXXXXXXXXXXXXXXXXXOX`.OXOXOXOX`.`.+X+X'.'.'.'.'.'.'.'.'.;X;X;X;X;X;X;X;X:X;X-.8 s q.:X:X:X:X:X:X;XQ a s s s s s s s s s s s s s s s s s s s s s s s ",
"s s s s s s s s s s s s s s s s s s s s s s s s s s s s s s s s s h 6.).).).).XX).).).).(.(.(.(.(.(.(.A.A.A.A.A.).'.'.+X+XOXOXOX+X+XOXOXOXOXOXOXOXOXOXOXOXOXOXOXOXOXOX(.m.m.M.m.m.m.m.m.m.m.m.m.m.x.x.x.x.x.x.&.&.&.&.&.G s s s s s s s s s s s s s s s s s s s s s s s s s s s s s s s s s s s s s s s s s s s s s s s s s s s s s s s s k b L 4.Y..XXXXXXXXXXXXXXXXXXXXXXXXXXXXXXXXXXXXXXXXXXXOXOXOXOXOXOXOXOX+X+X'.'.'.'.'.'.'.'.'.;X;X;X;X;X;X;X;X;X-XA h I.:X:X:X:X:X;X:X-.s s s s s s s s s s s s s s s s s s s s s s s s ",
"s s s s s s s s s s s s s s s s s s s s s s s s s s s s s s s s s k h.).).).).XXXXXX).).(.(.(.(.(.(.A.A.A.A.A.A.(.'.+X+XOXOXOXOX+XOXOXOXOXOXOXOXOXOXOXOXOXOXOXOXOXOXOXXXM.m.m.m.m.m.m.m.m.m.m.m.m.m.m.x.x.x.x.x.&.&.&.&.{ k s s s s s s s s s s s s s s s s s s s s s s d d s s s s s s s s s s s s s s s s s s s s s s s s s s s s s s s s s s s z Z ;.f.|.XXXXXXXXXXXXXXXXXXXXXXXXXXXXXXXXXXXXOXOXOXOXOXOXOXOXOX`.`.`.'.'.'.'.'.'.'.;X;X;X;X;X;X;X;X;X8Xq.t Q.:X:X:X:X;X;X8X<.s s s s s s s s s s s s s s s s s s s s s s s s ",
"s s s s s s s s s s s s s s s s s s s s s s s s s s s s s s s s s y [.).).).).).).XXXX.X(.(.(.(.(.(.A.A.A.A.A.A.(.'.'.+XOXOXOXOXOXOXOXOXOXOXOXOXOXOXOXOXOXOXOXOXOXOXOXOXC.m.M.M.m.m.m.m.m.m.m.m.m.m.m.m.m.x.x.x.x.&.&.&.&.H s s s s s s s s s s s s s s s s s s s s s s s s s s s s s s s s s s s s s s s s s s s s s s s s s s s s s s s s s s s s s s k Z 2.U.XXXXXXXXXXXXXXXXXXXXXXXXXXXXXXXXXXOX`.OXOXOXOXOXOX`.`.`.'.'.'.'.'.'.'.'.'.;X;X;X;X;X;X;X;X#X/ 2X:X:X:X:X;X;X6X>.s s s s s s s s s s s s s s s s s s s s s s s s ",
"s s s s s s s s s s s s s s s s s s s s s s s s s s s s s s s s s b {.).).).XX).XXXXXX.X.X.X.X(.(.(.A.A.A.A.A.A.(.'.+X+XOXOXOXOXOXOXOXOXOXOXOXOXOXOXOXOXOXOXOXOXOXOXOXOXA.M.M.m.m.m.m.m.m.m.m.m.m.m.m.m.m.m.m.m.x.&.&.&.&.{ 9 s s s s s s s s s s s s s s s s s s s s s s s s s s s s s s s s s s s s s s s s s s s s s s s s s s s s s s s s s s s s s s s s e J 5.{.XXXXXXXXXXXXXXXXXXXXXXXXXXXXXXXXOXOXOXOXOXOXOX`.OX+X'.'.'.'.'.'.'.'.'.;X;X;X;X;X;X;X;X#X;X:X;X;X;X;X;X;X/ s s s s s s s s s s s s s s s s s s s s s s s s ",
"s s s s s s s s s s s s s s s s s s s s s s s s s s s s s s s s s C .X).).).).XXXXXX.X.X.X.X(.(.(.(.(.A.A.A.A.A.(.OXOXOXOXOXOXOXOXOXOXOXOXOXOXOXOXOXOXOXOXOXOXOXOXOXOXOXXXM.M.M.m.m.m.m.m.m.m.m.m.m.m.m.m.m.m.m.x.x.x.&.&.&.F s s s s s s s s s s s s s s s s s s s s s s s s s s s s s s s s s s s s s s s s s s s s s s s s s s s s s s s s s s s s s s s s s s h T ;.U.XXXXXXXXXXXXXXXXXXXXXXXXXXXXOXOXOXOXOXOXOXOXOX+X+X'.'.'.'.'.'.'.'.'.'.'.;X;X;X;X;X;X;X;X;X;X;X;X;X;XQ s s s s s s s s s s s s s s s s s s s s s s s s ",
"s s s s s s s s s s s s s s s s s s s s s s s s s s s s s s s s s H .X).).).).).XXXX.X.X.X.X.XJ.J.(.(.A.A.A.A.A.(.`.OXOXOXOX+X+XOXOXOXOXOXOXOXOXOXOXOXOXOXOXOXOXOXOXOXOXOXA.M.M.M.m.m.m.m.m.m.m.m.m.m.m.m.m.m.m.m.x.x.x.&.x.O.m s s s s s s s s s s s s s s s s s s s s s s s s s s s s s s s s s s s s s s s s s s s s s s s s s s s s s s s s s s s s s s s s s s s s y *.h.XXXXXXXXXXXXXXXXXXXXXXXXXXOXOXOXOXOXOXOXOX`.OXOX'.'.'.'.'.'.'.'.'.'.'.;X;X;X;X;X;X;X;X;X;X;X;X].S s s s s s s s s s s s s s s s s s s s s s s s s ",
"s s s s s s s s s s s s s s s s s s s s s s s s s s s s s s s s s J XX).).).).).XXXX.X.X.X.Xj.H 3.(.A.A.A.A.A.A..X`.OXOXOXOXOXOXOXOXOXOXOXOXOXOXOXOXOXOXOXOXOXOXOXOXOXOXOXXXM.M.m.m.M.M.m.m.m.m.m.m.m.m.m.m.m.m.m.m.m.m.x.x.x.[ 9 s s s s s s s s s s s s s s s s s s s s s s s s s s s s s s s s s s s s s s s s s s s s s s s s s s s s s s s s s s s s s s s s s s s s s z ! f.XXXXXXXXXXXXXXXXXXXXOXOXOXOXOXOXOXOXOX`.OXOX+X+X'.'.'.'.'.'.'.'.'.'.'.'.;X;X;X;X;X;X;X;X;XoXN s s 8 s s s s s s s s s s s s s s s s s s s s s ",
"s s s s s s s s s s s s s s s s s s s s s s s s s s s s s s s s s J XX).XXXXXXXX)..X.X.X.Xk.n 9 3.(.A.A.A.A.A.A.(.`.OXOXOXOXOXOXOXOXOXOXOXOXOXOXOXOXOXOXOXOXOXOXOXOXOXOXOXOXA.m.m.m.M.m.m.m.m.m.m.m.m.m.m.m.m.m.m.m.m.m.m.x.m.x.] s s s s s s s s s s s s s s s s s s s s s s s s s s s s s s s s s s s s s s s s s s s s s s s s s s s s s s s s s s s s s s s s s s s s s s s k ! Y.XXXXXXXXXXXXXXXXOXOXOXOXOXOXOXOXOXOXOXOXOX+X'.'.'.'.'.'.'.'.'.'.'.'.'.;X;X;X;X;X;X;X;XY.k s s s s s s s s s s s s s s s s s s s s s s s s ",
"s s s s s s s s s s s s s s s s s s s s s s s s s s s s s s s s s J XX).(..X(.(.(.(..X.Xh.n s h d..XA.A.A.A.A.A.A.`.'.OXOXOXOXOXOXOXOXOXOXOXOXOXOXOXOXOXOXOXOXOXOXOXOXOXOXOXXXm.m.m.m.m.m.m.m.m.m.m.m.m.m.m.m.m.m.m.m.m.m.m.m.m.x.D s s s s s s s s s s s s s s s s s s s s s s s s s s s s s s s s s s s s s s s s s s s s s s s s s s s s s s s s s s s s s s s s s s s s s s s s z =.[.XXXXXXXXXXXXXXXXXXOXOXOXOXOXOXOXOXOXOX`.'.'.'.'.'.'.'.'.'.'.'.'.'.'.'.'.'.'.'.'.;X4.s s s s s s s s s s s s s s s s s s s s s s s s s ",
"s s s s s s s s s s s s s s s s s s s s s s s s s s s s s s s s s J XX).(..X(.(.(.(.(.J.M s s k d..XA.A.A.A.A.A.A.`.`.+XOXOXOXOXOXOXOXOXOXOXOXOXOXOXOXOXOXOXOXOXOXOXOXOXOXOXOXA.m.m.m.m.m.m.m.m.m.m.m.m.m.m.m.m.m.m.m.m.m.m.m.m.m.u.Z s s s s s s s s s s s s s s s s s s s s s s s s s s s s s s s s s s s s s s s s s s s s s s s s s s s s s s s s s s s s s s s s s s s s s s s s s b 4..XXXXXXXXXXXXXXXXXOXOXOXOXOXOXOXOXOXOXOX`.'.'.'.'.'.'.'.'.'.'.'.'.'.'.'.'.'.'.'.J a s s s s s s s s s s s s s s s s s s s s s s s s ",
"s s s s s s s s s s s s s s s s s s s s s s s s s s s s s s s s s H |.).).(.(.(.(..X{.K a s s k d.A.A.A.A.A.A.A.A.`.'.OXOXOXOXOXOXOXOXOXOXOXOXOXOXOXOXOXOXOXOXOXOXOXOXOXOXOXOXXXC.m.M.M.M.M.m.m.m.m.m.m.m.m.m.m.m.m.m.m.m.m.m.m.m.m.u.Z s s s s s s s s s s s s s s s s s s s s s s s s s s s s s s s s s s s s s s s s s s s s s s s s s s s s s s s s s s s s s s s s s s s s s s s s s h J f.XXXXXXXXXXXXXXXXXXOXOXOXOXOXOXOXOXOX`.`.`.`.`.`.'.'.'.'.'.'.'.'.'.'.'.'.'.Y.z s s s s s s s s s s s s s s s s s s s s s s s s s ",
"s s s s s s s s s s s s s s s s s s s s s s s s s s s s s s s s s Z |.).(.(.(.(.(..X:.d s s s 9 a.A.A.A.A.A.A.A.A.).`.OXOXOXOXOXOXOXOXOXOXOXOXOXOXOXOXOXOXOXOXOXOXOXOXOXOXOXOXOX(.M.M.M.M.M.M.M.m.m.m.m.m.m.m.m.m.m.m.m.m.m.m.m.m.m.m.u.H s s s s s s s s s s s s s s s s s s s s s s s s s s s s s s s s s s s s s s s s s s s s s s s s s s s s s s s s s s s s s s s s s s s s s s s s s s e =.{.XX).XXOXXXXXXXXXXXXXOXOXOXOXOXOX`.`.`.`.`.`.`.'.'.'.'.'.'.'.'.'.'.'.'.<.s s s s s s s s s s s s s s s s s s s s s s s s s s ",
"s s s s s s s s s s s s s s s s s s s s s s s s s s s s s s s s s M {.).(.(.(.(.(.d.k s s s s 8 3.(.A.A.A.A.A.A.A.).`.OXOXOXOXOXOXOXOXOXOXOXOXOXOXOXOXOXOXOXOXOXOXOXOXOXOXOXOXOXOXA.M.M.M.M.M.M.M.M.m.m.m.m.m.m.m.m.m.m.m.m.m.m.m.m.m.m.z.D 8 s s s s s s s s s s s s s s s s s s s s s s s s s s s s s s s s s s s s s s s s s s s s s s s s s s s s s s s s s s s s s s s s s s s s s s s s s s C f.XXXXXXXXXXXXXXXX).XXXXXX`.OXOX`.`.`.`.`.`.`.`.`.`.'.'.'.'.'.'.'.'.}.b s s s s s s s s s s s s s s s s s s s s s s s s s s ",
"s s s s s s s s s s s s s s s s s s s s s s s s s s s s s s s s s b {.).(.(.(.(.{.M a s s s s 8 2.A.A.A.A.A.A.A.A.(.`.OXOXOXOXOXOXOXOXOXXXXXOXOXOXOXOXOXOXOXOXOXOXOXOXOXOXOXOXOXXXXXA.M.M.M.M.M.M.M.M.M.M.M.m.m.m.m.m.m.m.m.m.m.m.m.m.m.m.v.` d s s s s s s s s s s s s s s s s s s s s s s s s s s s s s s s s s s s s s s s s s s s s s s s s s s s s s s s s s s s s s s s s s s s s s s s s s s z ;..XXXXXXXXXXX).).XXXX).XXOXOXOX`.`.`.`.`.`.`.`.`.`.`.`.'.'.'.`.+X-.s s s s s s s s s s s s s s s s s s s s s s s s s s s ",
"s s s s s s s s s s s s s s s s s s s s s s s s s s s s s s s s s e j.).(.(.(..X:.s s s s s s s :..XA.A.A.A.L.L.A.(.OXOXOXOXOXOXOXOXOXOXXXOXXXXXXXXXXXXXOXOXOXOXOXOXOXOXOXOXOXOXOXOXXXA.M.M.M.M.M.M.M.M.M.M.M.M.M.M.m.m.m.m.m.m.m.m.m.m.m.M.m.' l s s s s s s s s s s s s s s s s s s s s s s s s s s s s s s s s s s s s s s s s s s s s s s s s s s s s s s s s s s s s s s s s s s s s s s s s s s h L {.XXXXXXXXXXXXXXXXXXXXXXXXXX).).).`.`.OX`.`.`.`.`.`.`.`.`.`.I.l s s s s s s s s s s s s s s s s s s s s s s s s s s s ",
"s s s s s s s s s s s s s s s s s s s s s s s s s s s s s s s s s k f.).(.(.(.j.x s s s s s s s =..XA.A.A.A.L.L.A.A.OX`.OXOXOXOXOXOXOXOXXXXXXXXXXXXXXXXXXXXXXXXXXXXXXXXXOXOXOXOXOXOXOXXXC.M.M.M.M.M.M.M.M.M.M.M.M.M.M.m.m.M.M.M.M.m.m.m.m.m.M.M.3.b s s s s s s s s s s s s s s s s s s s s s s s s s s s s s s s s s s s s s s s s s s s s s s s s s s s s s s s s s s s s s s s s s s s s s s s s s s s Z Y.XXXXXXXXXXXXXXXXXXXXXX).).).).`.`.`.OX`.`.`.`.`.`.`.`.}.C s s s s s s s s s s s s s s s s s s s s s s s s s s s s ",
"s s s s s s s s s s s s s s s s s s s s s s s s s s s s s s s s s h 5.(.).(.(.` s s s s s s s s L L.L.A.A.A.A.L.A.A.).`.`.OXXXXX).).).XXXXXXXXXXXXXXXXXXXXXXXXXXOXOXOXOXXXOXXXXXOXOXOXOX).C.M.M.M.M.M.M.M.M.M.M.C.M.M.M.m.M.M.M.M.M.m.m.M.M.M.m.C.s.H s s s s s s s s s s s s s s s s s s s s s s s s s s s s s s s s s s s s s s s s s s s s s s s s s s s s s s s s s s s s s s s s s s s s s s s s s s s n f.OXXXXXXXXXXX).).XX).).).).).).).).).`.`.`.`.`.OXOX@X! s s s s s s s s s s s s s s s s s s s s s s s s s s s s s ",
"s s s s s s s s s s s s s s s s s s s s s s s s s s s s s s s s s s :.(.(.XXj.e s s s s s s s s M P.A.A.A.A.A.A.A.A.).OX`.).).).).).).).XXXXXXXXXXXXXXXXXXXXXXXXXXXXOXOXXXXXXXXXOX`.).).).).A.M.M.M.M.M.M.M.M.M.M.M.C.M.M.M.M.M.C.C.C.C.M.C.C.C.m.C.v.' k s s s s s s s s s s s s s s s s s s s s s s s s s s s s s s s s s s s s s s s s s s s s s s s s s s s s s s s s s s s s s s s s s s s s s s s s s s b f.OXXXXX).).).).).XX).).).).).).).).).).`.`.`.OXOX=.h s s s s s s s s s s s s s s s s s s s s s s s s s s s s s ",
"s s s s s s s s s s s s s s s s s s s s s s s s s s s s s s s s s s P (.(.XX:.s s s s s s s s s r J.A.A.A.A.A.A.A.C.(.`.`.`.).).).).).).XXXXXXXXXXXXXXXX).).XX).XXXXXXXXXXXXXXXX`.).).).).).).A.M.M.M.M.M.M.M.M.C.C.C.C.M.M.M.M.C.C.C.C.C.C.C.C.C.C.C.C.3.n s s s s s s s s s s s s s s s s s s s s s s s s s s s s s s s s s s s s s s s s s s s s s s s s s s s s s s s s s s s s s s s s s s s s s s s s s s I f.XXXXXX).).).).).).).XXXXXXXX).).).).).OX`.@X;.h s s s s s s s s s s s s s s s s s s s s s s s s s s s s s s ",
"s s s s s s s s s s s s s s s s s s s s s s s s s s s s s s s s s s Z |.(.{.U s s s s s s s s s h a.A.A.A.A.A.A.A.C.A.`.`.).).).).).).).XXXXXXXXXX).).).).).).).).).XXXXXXXX).).).).`.).`.`.`.).A.C.M.M.M.M.M.C.C.C.C.C.C.C.M.C.C.C.C.C.C.C.C.C.C.C.C.C.C.i.F w s s s s s s s s s s s s s s s s s s s s s s s s s s s s s s s s s s s s s s s s s s s s s s s s s s s s s s s s s s s s s s s s s s s s s s s s s n [.XXXX).).).).).XXXXXXXXXXXX).).).).XXOX.X=.h s s s s s s s s s s s s s s s s s s s s s s s s s s s s s s s ",
"s s s s s s s s s s s s s s s s s s s s s s s s s s s s s s s s s s x [.(.3.d s s s s s s s s s s :.A.A.A.A.A.A.A.C.L.XX`.).).).).).XXXXXXXXXX).).XX).).).).).).).).).).).).).).).`.`.`.).`.`.).`.(.C.M.M.M.M.C.C.C.C.C.C.C.C.C.C.C.C.C.C.C.C.C.C.C.C.C.C.C.V.2.x s s s s s s s s s s s s s s s s s s s s s s s s s s s s s s s s s s s s s s s s s s s s s s s s s s s s s s s s s s s s s s s s s s s s s s s s s L |.XXXX(.(.).).XXXX).).).).).).).).XX}.! d s s s s s s s s s s s s s s s s s s s s s s s s s s s s s s s s ",
"s s s s s s s s s s s s s s s s s s s s s s s s s s s s s s s s s s h 6.XXL a s s s s s s s s s s K A.A.A.A.A.A.C.C.C.(.`.).).).).XXXXXXXXXX).).).).).).).).).).).).).).).).).).).`.`.`.`.`.`.`.`.`.).A.C.C.C.C.C.C.C.C.C.C.C.C.C.C.C.C.C.C.C.C.C.C.C.C.C.C.A.A.k.H s s s s s s s s s s s s s s s s s s s s s s s s s s s s s s s s s s s s s s s s s s s s s s s s s s s s s s s s s s s s s s s s s s s s s s s s h 2.XXXX(.(.(..X(.(..X).).).).).XX).h.H s s s s s s s s s s s s s s s s s s s s s s s s s s s s s s s s s s ",
"s s s s s s s s s s s s s s s s s s s s s s s s s s s s s s s s s s s =.}.b s s s s s s s s s s s m J.A.A.L.A.A.C.K.C.A.).).).).).XXXXXXXXXX).).).).).).).).).).).XX).).).).).).).).`.`.`.`.`.`.`.`.`.`.(.C.C.C.C.C.C.C.C.C.C.C.C.C.C.C.C.C.C.C.C.C.C.C.A.A.A.A.A.Z.:.l s s s s s s s s s s s s s s s s s s s s s s s s s s s s s s s s s s s s s s s s s s s s s s s s s s s s s s s s s s s s s s s s s s s s s s s n {.(.(.(.(.(..X.X.X(.(.(..XXXXX6.b s s s s s s s s s s s s s s s s s s s s s s s s s s s s s s s s s s s ",
"s s s s s s s s s s s s s s s s s s s s s s s s s s s s s s s s s s s Z 5.h s s s s s s s s s s s h 3.A.L.L.A.C.K.C.C.A.).).).).XXXXXXXXXXXX).).(.(.(.(.(.(.).).).).).).).).).XX).).).`.`.`.`.`.`.`.`.`.`.).A.C.C.C.C.C.C.C.C.C.C.C.C.C.C.C.C.C.C.A.A.A.A.A.A.A.A.A.(.d.Z s s s s s s s s s s s s s s s s s s s s s s s s s s s s s s s s s s s s s s s s s s s s s s s s s s s s s s s s s s s s s s s s s s s s s s h 2..X(.(..X(..X(.(.(.(.(.XX|.;.l s s s s s s s s s s s s s s s s s s s s s s s s s s s s s s s s s s s s ",
"s s s s s s s s s s s s s s s s s s s s s s s s s s s s s s s s s s s e H s s s s s s s s s s s s s P L.A.A.K.C.C.C.K.K.(.`.).).).).).XXXXXX).).(.(.(.(.(.(.(.(.).).).).).).).XX).).).`.`.`.`.`.`.`.`.`.`.`.`.).A.C.C.C.C.C.C.C.C.C.C.C.C.C.C.C.A.A.A.A.A.A.A.A.A.A.(.(.J.` k s s s s s s s s s s s s s s s s s s s s s s s s s s s s s s s s s s s s s s s s s s s s s s s s s s s s s s s s s s s s s s s s s s s s s Z |..X.X.X(.(..X(.(.XXXXj.K d s s s s s s s s s s s s s s s s s s s s s s s s s s s s s s s s s s s s s ",
"s s s s s s s s s s s s s s s s s s s s s s s s s s s s s s s s s s s s h s s s s s s s s s s s s s m J.A.A.K.C.C.K.K.K.(.).).).).).).).(.(.(.(.(.(.(.(.(.(.(.(.(.).).).).).XX).).).).`.`.`.`.`.`.`.`.`.`.`.`.`.`.(.A.C.C.C.C.C.C.C.C.C.C.C.A.A.A.A.A.A.A.A.A.A.(.(.(.(.(..X3.b s s s s s s s s s s s s s s s s s s s s s s s s s s s s s s s s s s s s s s s s s s s s s s s s s s s s s s s s s s s s s s s s s s s s e h..X.X(.(.(.(.(..X|.2.b s s s s s s s s s s s s s s s s s s s s s s s s s s s s s s s s s s s s s s s ",
"s s s s s s s s s s s s s s s s s s s s s s s s s s s s s s s s s s s s s s s s s s s s s s s s s s d 2.A.A.C.C.C.C.K.K.K.).).).).).).).(.(.(.(.(.(.(.(.(.(.(.(.(.(.).).).XXXX).).).).`.`.`.`.`.`.`.`.`.`.'.'.`.`.`.`.(.A.C.C.C.C.C.C.C.C.C.A.A.A.A.A.A.A.A.A.A.(.(.(.(.(.(..Xj.H s s s s s s s s s s s s s s s s s s s s s s s s s s s s s s s s s s s s s s s s s s s s s s s s s s s s s s s s s s s s s s s s s s s h 6..X(.(.(..X.X.XJ.L h s s s s s s s s s s s s s s s s s s s s s s s s s s s s s s s s s s s s s s s s ",
"s s s s s s s s s s s s s s s s s s s s s s s s s s s s s s s s s s s s s s s s s s s s s s s s s s s H V.C.C.C.C.C.K.K.C.(.).).).XX).).(.(.(.(.(.(.(.(.(.(.(.(.(.(.(.).).).XXXX).).).`.`.`.`.`.`.`.`.`.`.`.'.'.'.'.'.'.`.(.A.C.C.C.C.C.C.C.A.A.A.A.A.A.A.A.(.(.(.(.(.(.(.(.(.(.{.=.k s s s s s s s s s s s s s s s s s s s s s s s s s s s s s s s s s s s s s s s s s s s s s s s s s s s s s s s s s s s s s s s s s s :..X(.(..X.X|.2.b s s s s s s s s s s s s s s s s s s s s s s s s s s s s s s s s s s s s s s s s s s ",
"s s s s s s s s s s s s s s s s s s s s s s s s s s s s s s s s s s s s s s s s s s s s s s s s s s s k a.C.C.C.C.C.C.C.M.A.).).).).XX).(.(.(.(.(.(.(.(.(.(.(.(.(.(.(.).).).).).).).).).`.).`.`.`.`.`.`.`.`.'.'.'.'.'.'.'.'.`.(.A.A.A.A.C.A.A.A.A.A.A.A.(.(.(.(.(.(.(.(.(.(.(.(.(..X5.b s s s s s s s s s s s s s s s s s s s s s s s s s s s s s s s s s s s s s s s s s s s s s s s s s s s s s s s s s s s s s s s s s ` .X(.(..Xf.K h s s s s s s s s s s s s s s s s s s s s s s s s s s s s s s s s s s s s s s s s s s s ",
"s s s s s s s s s s s s s s s s s s s s s s s s s s s s s s s s s s s s s s s s s s s s s s s s s s s s K V.C.C.C.C.C.C.M.m.(.XX).).).(.(.(.(.(.(.(.(.(.(.(.(.(.(.(.(.(.).).).).).).).).).).).`.`.`.`.`.`.`.`.'.'.'.'.'.'.'.'.'.`.(.A.A.A.A.A.A.A.A.A.A.(.(.(.(.(.(.(.(.(.(.(.(.(.(.XXh.Z s s s s s s s s s s s s s s s s s s s s s s s s s s s s s s s s s s s s s s s s s s s s s s s s s s s s s s s s s s s s s s s s =..X(.J.=.l s s s s s s s s s s s s s s s s s s s s s s s s s s s s s s s s s s s s s s s s s s s s s ",
"s s s s s s s s s s s s s s s s s s s s s s s s s s s s s s s s s s s s s s s s s s s s s s s s s s s s k 3.C.C.C.C.C.C.M.m.A.XX).).(.(.(.(.(.(.(.(.(.(.(.(.(.(.(.(.(.(.(.(.).).).).).).).).).`.`.`.`.`.`.`.`.'.'.'.'.'.'.'.'.'.'.'.`.).A.A.A.A.A.A.A.A.(.(.(.(.(.(.(.(.(.(.(.(.(.).(.).[.L h s s s s s s s s s s s s s s s s s s s s s s s s s s s s s s s s s s s s s s s s s s s s s s s s s s s s s s s s s s s s s s :.{.:.b s s s s s s s s s s s s s s s s s s s s s s s s s s s s s s s s s s s s s s s s s s s s s s s ",
"s s s s s s s s s s s s s s s s s s s s s s s s s s s s s s s s s s s s s s s s s s s s s s s s s s s s s Z B.C.C.C.C.C.M.m.C..X).(.(.(.(.(.(.(.(..X(.(.(.(.(.(.(.(.(.(.(.(.).).).).).).).).).).`.`.`.`.`.`.`.`.'.'.'.'.'.'.'.'.'.'.;X;X'.).(.A.A.A.(.(.(.(.(.(.(.(.(.).).).(.(.).).(.).).|.=.h s s s s s s s s s s s s s s s s s s s s s s s s s s s s s s s s s s s s s s s s s s s s s s s s s s s s s s s s s s s s s K M s s s s s s s s s s s s s s s s s s s s s s s s s s s s s s s s s s s s s s s s s s s s s s s s s ",
"s s s s s s s s s s s s s s s s s s s s s s s s s s s s s s s s s s s s s s s s s s s s s s s s s s s s s d ' C.C.C.C.C.M.M.M.(.(.(.(.(.(.(.(.(.(.(.(.(.(.(.(.(.(.(.(.(.(.(.(.).).).).).).).).).`.`.`.`.`.`.`.`.`.'.'.'.'.'.'.'.;X;X;X;X;X;X'.`.(.(.(.(.(.(.(.(.(.).).).).).).).XXXX(.).).).XX;.k s s s s s s s s s s s s s s s s s s s s s s s s s s s s s s s s s s s s s s s s s s s s s s s s s s s s s s s s s s s s s s s s s s s s s s s s s s s s s s s s s s s s s s s s s s s s s s s s s s s s s s s s s s s s s s s ",
"s s s s s s s s s s s s s s s s s s s s s s s s s s s s s s s s s s s s s s s s s s s s s s s s s s s s s s r l.C.C.C.C.M.M.m.C.(.(.(.(.(.(.(.(.(.(.(..X.X(.(.(.(.(.(.(.(.(.(.(.(.).).).).).).).).`.`.`.`.`.`.`.`.'.'.'.'.'.'.'.;X;X;X;X;X;X;X;X;X`.).(.(.(.(.(.(.).).).).).).XXXXXXXX).).).XXXX2.q s s s s s s s s s s s s s s s s s s s s s s s s s s s s s s s s s s s s s s s s s s s s s s s s s s s s s s s s s s s s s s s s s s s s s s s s s s s s s s s s s s s s s s s s s s s s s s s s s s s s s s s s s s s s s s ",
"s s s s s s s s s s s s s s s s s s s s s s s s s s s s s s s s s s s s s s s s s s s s s s s s s s s s s s s H B.C.C.C.V.m.G.m.A.(.(.(.(.(.(.(.(.(..X.X(.(.(.(.(.(.(.(.(.(.(.(.(.).).).).).).).).).`.`.`.`.`.`.`.`.'.'.'.'.'.'.;X;X;X;X;X;X;X;X:X;X;X'.).).(.(.(.).).).).).).).XXXX).).).).).).).5.l s s s s s s s s s s s s s s s s s s s s s s s s s s s s s s s s s s s s s s s s s s s s s s s s s s s s s s s s s s s s s s s s s s s s s s s s s s s s s s s s s s s s s s s s s s s s s s s s s s s s s s s s s s s s s ",
"s s s s s s s s s s s s s s s s s s s s s s s s s s s s s s s s s s s s s s s s s s s s s s s s s s s s s s s s ` V.C.V.m.m.G.m.C.(.(.(.(.(.(.(.(.(.(..X(.(.(.(.(.(.(.(.(.(.(.(.(.(.).).).).).).).).).`.`.`.`.`.`.`.'.'.'.'.'.'.;X;X;X;X;X;X;X;X:X;X:X:X;X'.).(.(.(.).).).).).).XXXX).).).).).).).XX5.l s s s s s s s s s s s s s s s s s s s s s s s s s s s s s s s s s s s s s s s s s s s s s s s s s s s s s s s s s s s s s s s s s s s s s s s s s s s s s s s s s s s s s s s s s s s s s s s s s s s s s s s s s s s s ",
"s s s s s s s s s s s s s s s s s s s s s s s s s s s s s s s s s s s s s s s s s s s s s s s s s s s s s s s s d ' m.m.m.m.m.m.G.L..X(.(.(.(..X(.(.(.(.(.(.(.(.(.(.(.(.(.(.(.(.(.(.(.(.).).).).).).).).`.`.`.`.`.`.`.'.'.'.'.'.'.;X;X;X;X;X;X;X;X;X:X:X:X:X;X'.).).).).).).).).XX).).).).XX).XXXX).XX3.k s s s s s s s s s s s s s s s s s s s s s s s s s s s s s s s s s s s s s s s s s s s s s s s s s s s s s s s s s s s s s s s s s s s s s s s s s s s s s s s s s s s s s s s s s s s s s s s s s s s s s s s s s s s ",
"s s s s s s s s s s s s s s s s s s s s s s s s s s s s s s s s s s s s s s s s s s s s s s s s s s s s s s s s s k [ G.m.m.m.m.m.C..X(..X(.(.A.(.(..XA.(.(.(.(.(.(.A.(.(.(.(.(.(.(.(.(.(.(.(.).).).).).).`.`.`.`.`.`.`.'.'.'.'.'.;X;X;X;X;X;X;X;X;X;X:X:X:X:X:X:X'.`.).).).).).).).).).XXXX).).XXXX).).2.k s s s s s s s s s s s s s s s s s s s s s s s s s s s s s s s s s s s s s s s s s s s s s s s s s s s s s s s s s s s s s s s s s s s s s s s s s s s s s s s s s s s s s s s s s s s s s s s s s s s s s s s s s s ",
"s s s s s s s s s s s s s s s s s s s s s s s s s s s s s s s s s s s s s s s s s s s s s s s s s s s s s s s s s s k [ m.m.m.m.m.m.L..X.X(.(.(.(..X(.A.L.L.A.L.L..XA.A.A.(.(.(.(.(.(.(.(.(.(.).).).).).).).`.`.`.`.`.`.`.'.'.'.'.'.;X;X;X;X;X;X;X;X;X:X:X:X:X:X:X:X:X;X`.).).).).).).).).).).).XXXX).XXXX=.d s s s s s s s s s s s s s s s s s s s s s s s s s s s s s s s s s s s s s s s s s s s s s s s s s s s s s s s s s s s s s s s s s s s s s s s s s s s s s s s s s s s s s s s s s s s s s s s s s s s s s s s s s ",
"s s s s s s s s s s s s s s s s s s s s s s s s s s s s s s s s s s s s s s s s s s s s s s s s s s s s s s s s s s s k ' G.m.m.m.m.C..X.XL.L.L.L.L.L.L.L.L.L.L.L.L.A.A.A.(.(.(.(.(.(.(.(.(.(.(.).).).).).).).`.`.`.`.`.`.'.'.'.'.'.;X;X;X;X;X;X;X:X:X:X:X:X:X:X:X:X:X:X:X'.).).).).).).).XXXXXXXXXXXXXXXX.XP s s s s s s s s s s s s s s s s s s s s s s s s s s s s s s s s s s s s s s s s s s s s s s s s s s s s s s s s s s s s s s s s s s s s s s s s s s s s s s s s s s s s s s s s s s s s s s s s s s s s s s s s s ",
"s s s s s s s s s s s s s s s s s s s s s s s s s s s s s s s s s s s s s s s s s s s s s s s s s s s s s s s s s s s s h ` S.m.m.m.m.L..X.X.XL.L.L.L.L.L.L.L.L.L.L.L.A.A.(.(.(.(.(.(.(.(.(.(.(.(.).).).).).).).).`.`.`.`.`.'.'.'.'.'.;X;X;X;X;X;X;X:X:X:X:X:X:X:X:X:X:X:X:X:X'.).).).).).).XXXX).).).).).).[.Z s s s s s s s s s s s s s s s s s s s s s s s s s s s s s s s s s s s s s s s s s s s s s s s s s s s s s s s s s s s s s s s s s s s s s s s s s s s s s s s s s s s s s s s s s s s s s s s s s s s s s s s s ",
"s s s s s s s s s s s s s s s s s s s s s s s s s s s s s s s s s s s s s s s s s s s s s s s s s s s s s s s s s s s s s s H s.M.m.m.m.L..XL.L.L.L.L.L.L.L.L.L.L.L.L.L.L.L.L.A.(.(.(.(.(.(.(.(.(.(.).).).).).).).).`.`.`.`.`.'.'.'.'.'.;X;X;X;X;X;X:X:X:X:X:X:X:X:X:X:X:X:X:X:X:X`.).).).).).XX).).).).).).XXh.y s s s s s s s s s s s s s s s s s s s s s s s s s s s s s s s s s s s s s s s s s s s s s s s s s s s s s s s s s s s s s s s s s s s s s s s s s s s s s s s s s s s s s s s s s s s s s s s s s s s s s s s ",
"s s s s s s s s s s s s s s s s s s s s s s s s s s s s s s s s s s s s s s s s s s s s s s s s s s s s s s s s s s s s s s s n } m.m.m.C.L.L.L.L.L.L.L.L.L.L.L.L.L.L.L.L.A.L.L.A.(.(.(.(.(.(.(.(.(.(.).).).).).).).`.`.`.`.`.`.'.'.'.'.'.;X;X;X;X;X;X:X:X:X:X:X:X:X:X:X:X:X<X<X<X:X;X`.).).).).).).).XXXX).).XX5.h s s s s s s s s s s s s s s s s s s s s s s s s s s s s s s s s s s s s s s s s s s s s s s s s s s s s s s s s s s s s s s s s s s s s s s s s s s s s s s s s s s s s s s s s s s s s s s s s s s s s s s ",
"s s s s s s s s s s s s s s s s s s s s s s s s s s s s s s s s s s s s s s s s s s s s s s s s s s s s s s s s s s s s s s s s q ' x.m.m.L.A.A.L.L.L.L.L.L.L.L.L.L.L.L.L.L.A.A.A.A.(.A.A.A.(.(.(.(.(.(.).).).).).).).`.`.`.`.`.`.'.'.'.'.'.;X;X;X;X;X;X;X:X:X:X:X:X:X:X:X<X<X<X<X<X<X:X'.).).).).).).).XXXXXXXX.XL s s s s s s s s s s s s s s s s s s s s s s s s s s s s s s s s s s s s s s s s s s s s s s s s s s s s s s s s s s s s s s s s s s s s s s s s s s s s s s s s s s s s s s s s s s s s s s s s s s s s s s ",
"s s s s s s s s s s s s s s s s s s s s s s s s s s s s s s s s s s s s s s s s s s s s s s s s s s s s s s s s s s s s s s s s s d F u.m.V.A.A.A.L.A.A.A.L.L.L.L.L.L.L.L.A.A.A.A.A.A.A.A.A.(.(.(.(.(.(.(.).).).).).).).`.`.`.`.`.`.'.'.'.'.'.;X;X;X;X;X;X;X:X:X:X:X:X:X:X:XeX<X:X:X:X<X:X'.`.).).).).).).XXXX).XX[.b s s s s s s s s s s s s s s s s s s s s s s s s s s s s s s s s s s s s s s s s s s s s s s s s s s s s s s s s s s s s s s s s s s s s s s s s s s s s s s s s s s s s s s s s s s s s s s s s s s s s s ",
"s s s s s s s s s s s s s s s s s s s s s s s s s s s s s s s s s s s s s s s s s s s s s s s s s s s s s s s s s s s s s s s s s s s M @.m.A.A.A.A.A.A.A.L.L.L.L.L.L.A.L.L.A.A.A.A.A.A.A.A.A.(.(.(.(.(.(.(.).).).).).).).).`.`.`.`.'.'.'.'.'.'.;X;X;X;X;X;X:X:X:X:X:X:X:X:X<X<X:X<X<X:X<XeX:X'.).).).).).XXXXXX).XX2.h s s s s s s s s s s s s s s s s s s s s s s s s s s s s s s s s s s s s s s s s s s s s s s s s s s s s s s s s s s s s s s s s s s s s s s s s s s s s s s s s s s s s s s s s s s s s s s s s s s s s ",
"s s s s s s s s s s s s s s s s s s s s s s s s s s s s s s s s s s s s s s s s s s s s s s s s s s s s s s s s s s s s s s s s s s s s r } m.A.A.A.L.L.L.A.K.L.L.L.L.K.L.L.L.L.A.A.A.A.A.A.A.A.A.(.(.(.(.(.(.(.).).).).).).`.`.`.`.`.'.'.'.'.'.'.'.;X;X;X;X;X:X:X:X:X:X:X:X:X<X<X<X<X<XeXeXeXeX'.).).).).).XX).).)..XJ s s s s s s s s s s s s s s s s s s s s s s s s s s s s s s s s s s s s s s s s s s s s s s s s s s s s s s s s s s s s s s s s s s s s s s s s s s s s s s s s s s s s s s s s s s s s s s s s s s s s ",
"s s s s s s s s s s s s s s s s s s s s s s s s s s s s s s s s s s s s s s s s s s s s s s s s s s s s s s s s s s s s s s s s s s s s s l [ V.A.A.A.L.C.C.L.L.K.L.K.C.K.L.A.L.A.C.A.A.A.A.A.A.A.A.A.(.(.(.(.(.(.).).).).).).`.`.`.`.`.'.'.'.'.'.'.;X;X;X;X;X;X:X:X:X:X:X:X:X<X:X:X<X<XeXeXeXeXeX;X`.).).).).).).).XXh.l s s s s s s s s s s s s s s s s s s s s s s s s s s s s s s s s s s s s s s s s s s s s s s s s s s s s s s s s s s s s s s s s s s s s s s s s s s s s s s s s s s s s s s s s s s s s s s s s s s s ",
"s s s s s s s s s s s s s s s s s s s s s s s s s s s s s s s s s s s s s s s s s s s s s s s s s s s s s s s s s s s s s s s s s s s s s s k ' C.L.L.L.C.C.A.L.K.K.L.C.C.A.K.L.C.C.A.A.A.A.A.A.A.A.A.(.(.(.(.(.(.(.).).).).).).`.`.`.`.`.'.'.'.'.'.'.;X;X;X;X;X;X;X:X:X:X:X:X:X:X<X<X<X<XeXeX<XeX<X:X`.).).).).).).XXXX=.s s s s s s s s s s s s s s s s s s s s s s s s s s s s s s s s s s s s s s s s s s s s s s s s s s s s s s s s s s s s s s s s s s s s s s s s s s s s s s s s s s s s s s s s s s s s s s s s s s s ",
"s s s s s s s s s s s s s s s s s s s s s s s s s s s s s s s s s s s s s s s s s s s s s s s s s s s s s s s s s s s s s s s s s s s s s s s f 2.L.A.A.C.C.K.K.K.K.K.C.K.C.C.C.C.C.C.A.A.A.A.A.A.A.A.(.(.(.(.(.(.(.(.(.).).).).).`.`.`.`.`.`.'.'.'.'.'.;X;X;X;X;X;X;X:X:X:X:X:X:X:X<X<X<XeX<X<X<X<X<X:X`.).).).).).).XXU.y s s s s s s s s s s s s s s s s s s s s s s s s s s s s s s s s s s s s s s s s s s s s s s s s s s s s s s s s s s s s s s s s s s s s s s s s s s s s s s s s s s s s s s s s s s s s s s s s s s ",
"s s s s s s s s s s s s s s s s s s s s s s s s s s s s s s s s s s s s s s s s s s s s s s s s s s s s s s s s s s s s s s s s s s s s s s s s k 3.A.A.C.C.K.C.K.K.K.K.K.C.C.C.K.C.C.C.A.A.A.A.A.A.A.A.A.(.(.(.(.(.(.(.(.).).).).`.`.`.`.`.`.`.'.'.'.'.'.'.;X;X;X;X;X;X:X:X:X:X:X:X:X:X:X:X<X<X<X<X<XeX:X`.).).).).).).XX:.s s s s s s s s s s s s s s s s s s s s s s s s s s s s s s s s s s s s s s s s s s s s s s s s s s s s s s s s s s s s s s s s s s s s s s s s s s s s s s s s s s s s s s s s s s s s s s s s s s ",
"s s s s s s s s s s s s s s s s s s s s s s s s s s s s s s s s s s s s s s s s s s s s s s s s s s s s s s s s s s s s s s s s s s s s s s s s s r l.C.K.K.K.C.C.K.K.K.C.C.C.C.K.K.C.C.C.C.A.A.A.A.A.A.A.A.(.(.(.(.(.(.(.(.).).).).`.`.`.`.`.`.`.'.'.'.'.'.'.;X;X;X;X;X;X:X:X:X:X:X:X:X:X:X<X<X<X<X<X<X<X:X`.).).).).).).[.b s s s s s s s s s s s s s s s s s s s s s s s s s s s s s s s s s s s s s s s s s s s s s s s s s s s s s s s s s s s s s s s s s s s s s s s s s s s s s s s s s s s s s s s s s s s s s s s s s ",
"s s s s s s s s s s s s s s s s s s s s s s s s s s s s s s s s s s s s s s s s s s s s s s s s s s s s s s s s s s s s s s s s s s s s s s s s s s H B.K.K.K.K.K.K.K.C.C.K.K.C.K.K.C.C.C.C.C.A.A.A.A.A.A.A.A.(.(.(.(.(.(.(.(.).).).).).`.`.`.`.`.'.'.'.'.'.'.'.;X;X;X;X;X;X:X:X:X:X:X:X:X<X<X<X<X<X<X<X<X<X<X'.).).XXXX).XX:.s s s s s s s s s s s s s s s s s s s s s s s s s s s s s s s s s s s s s s s s s s s s s s s s s s s s s s s s s s s s s s s s s s s s s s s s s s s s s s s s s s s s s s s s s s s s s s s s s ",
"s s s s s s s s s s s s s s s s s s s s s s s s s s s s s s s s s s s s s s s s s s s s s s s s s s s s s s s s s s s s s s s s s s s s s s s s s s s [ K.K.K.C.K.K.K.C.C.K.K.C.K.K.C.C.C.C.C.C.A.A.A.A.A.A.A.A.A.(.(.(.(.(.(.).).).).).).`.`.`.`.`.`.'.'.'.'.'.'.'.;X;X;X;X;X;X:X:X:X:X:X:X<XeXeX<X<X<X<X<X<X<X'.).).).).).[.b s s s s s s s s s s s s s s s s s s s s s s s s s s s s s s s s s s s s s s s s s s s s s s s s s s s s s s s s s s s s s s s s s s s s s s s s s s s s s s s s s s s s s s s s s s s s s s s s ",
"s s s s s s s s s s s s s s s s s s s s s s s s s s s s s s s s s s s s s s s s s s s s s s s s s s s s s s s s s s s s s s s s s s s s s s s s s s s b S.K.K.C.K.K.K.K.K.K.K.K.C.K.C.C.K.K.C.K.A.A.A.A.A.A.A.A.A.A.(.(.(.(.(.(.).).).).).).`.`.`.`.`.`.`.'.'.'.'.'.'.;X;X;X;X;X;X:X:X:X:X:X:X<X8X:X:X<X<X<X<X<X<X'.).).).).XX=.s s s s s s s s s s s s s s s s s s s s s s s s s s s s s s s s s s s s s s s s s s s s s s s s s s s s s s s s s s s s s s s s s s s s s s s s s s s s s s s s s s s s s s s s s s s s s s s s ",
"p s s s s s s s s s s s s s s s s s s s s s s s s s s s s s s s s s s s s s s s s s s s s s s s s s s s s s s s s s s s s s s s s s s s s s s s s s s s ' K.K.K.K.K.K.K.K.K.K.K.C.C.C.C.K.K.K.K.K.K.L.L.A.A.A.A.A.A.(.(.(.(.(.(.(.).).).).).).).`.`.`.`.`.'.'.'.'.'.'.'.;X;X;X;X;X;X;X:X:X:X:X:X:X:X:X:X:X<X<X<X<X<X`.).).).).j.l s s s s s s s s s s s s s s s s s s s s s s s s s s s s s s s s s s s s s s s s s s s s s s s s s s s s s s s s s s s s s s s s s s s s s s s s s s s s s s s s s s s s s s s s s s s s s s p ",
"3 s s s s s s s s s s s s s s s s s s s s s s s s s s s s s s s s s s s s s s s s s s s s s s s s s s s s s s s s s s s s s s s s s s s s s s s s s s s b S.C.C.K.K.K.G.K.K.K.K.C.K.K.C.K.C.C.C.C.C.C.A.A.A.A.A.A.A.A.A.(.(.(.(.(.(.).).).).).).).`.`.`.`.`.`.`.'.'.'.'.'.'.'.;X;X;X;X;X:X:X:X:X:X:X:X:X:X<X<X<X<X<X:X`.).).).).P s s s s s s s s s s s s s s s s s s s s s s s s s s s s s s s s s s s s s s s s s s s s s s s s s s s s s s s s s s s s s s s s s s s s s s s s s s s s s s s s s s s s s s s s s s s s s s 3 ",
"2 s s s s s s s s s s s s s s s s s s s s s s s s s s s s s s s s s s s s s s s s s s s s s s s s s s s s s s s s s s s s s s s s s s s s s s s s s s s s } M.M.G.G.G.G.G.K.K.G.G.G.K.K.K.C.C.C.C.C.C.C.A.A.A.A.A.A.A.A.(.(.(.(.(.(.(.).).).).).).).).`.`.`.`.`.`.'.'.'.'.'.'.'.;X;X;X;X;X:X:X:X:X:X:X:X:X8X<X<X<X<X<X;X).).).).d.h s s s s s s s s s s s s s s s s s s s s s s s s s s s s s s s s s s s s s s s s s s s s s s s s s s s s s s s s s s s s s s s s s s s s s s s s s s s s s s s s s s s s s s s s s s s s s 2 ",
"> s s s s s s s s s s s s s s s s s s s s s s s s s s s s s s s s s s s s s s s s s s s s s s s s s s s s s s s s s s s s s s s s s s s s s s s s s s s a K m.G.G.G.G.G.G.G.G.G.G.G.G.K.K.K.K.C.C.C.C.C.C.C.A.A.A.A.A.A.A.A.A.(.(.(.(.(.(.).).).).).).).).`.`.`.`.`.`.'.'.'.'.'.'.;X;X;X;X;X:X:X:X:X:X:X8X8X8X:X<X<X<X<X;X).).)./.Z s s s s s s s s s s s s s s s s s s s s s s s s s s s s s s s s s s s s s s s s s s s s s s s s s s s s s s s s s s s s s s s s s s s s s s s s s s s s s s s s s s s s s s s s s s s s s > ",
"& s s s s s s s s s s s s s s s s s s s s s s s s s s s s s s s s s s s s s s s s s s s s s s s s s s s s s s s s s s s s s s s s s s s s s s s s s s s s r S.M.M.G.G.G.G.G.G.G.G.G.G.G.K.K.K.C.C.C.C.C.C.C.A.A.A.A.A.A.A.A.A.A.(.(.(.(.(.(.(.).).).).).).).`.`.`.`.`.`.`.'.'.'.'.'.;X;X;X;X;X:X:X:X:X:X:X:X8X8X:X<X<X<X<X'.).).).2.s s s s s s s s s s s s s s s s s s s s s s s s s s s s s s s s s s s s s s s s s s s s s s s s s s s s s s s s s s s s s s s s s s s s s s s s s s s s s s s s s s s s s s s s s s s s s & ",
"+ p s s s s s s s s s s s s s s s s s s s s s s s s s s s s s s s s s s s s s s s s s s s s s s s s s s s s s s s s s s s s s s s s s s s s s s s s s s s h p.M.G.G.G.G.G.G.G.G.G.G.G.G.G.G.G.K.K.C.K.K.K.C.C.C.L.A.A.A.A.A.A.A.A.(.(.(.(.(.(.(.).).).).).).).`.`.`.`.`.`.'.'.'.'.'.;X;X;X;X;X;X;X:X:X:X:X:X:X:X:X<X<X<X<X:X`.).).J.I s s s s s s s s s s s s s s s s s s s s s s s s s s s s s s s s s s s s s s s s s s s s s s s s s s s s s s s s s s s s s s s s s s s s s s s s s s s s s s s s s s s s s s s s s s s p + ",
"o 6 s s s s s s s s s s s s s s s s s s s s s s s s s s s s s s s s s s s s s s s s s s s s s s s s s s s s s s s s s s s s s s s s s s s s s s s s s s s s ' G.G.G.G.G.G.G.G.G.G.G.G.G.G.G.G.M.K.K.K.K.C.C.C.C.K.A.A.A.A.A.A.A.A.A.(.(.(.(.(.(.(.(.).).).).).).`.`.`.`.`.`.`.'.'.'.'.;X;X;X;X;X;X;X:X:X:X:X:X:X:X:X<X<X<X<X;X).).XXP s s s s s s s s s s s s s s s s s s s s s s s s s s s s s s s s s s s s s s s s s s s s s s s s s s s s s s s s s s s s s s s s s s s s s s s s s s s s s s s s s s s s s s s s s s s 6 o ",
". 2 s s s s s s s s s s s s s s s s s s s s s s s s s s s s s s s s s s s s s s s s s s s s s s s s s s s s s s s s s s s s s s s s s s s s s s s s s s s s L G.G.G.G.G.G.G.G.G.G.G.G.G.G.G.G.G.G.K.C.C.C.C.C.C.C.C.C.A.A.A.A.L.A.A.A.(.(.(.(.(.(.(.(.(.).).).).).).`.`.`.`.`.'.'.'.'.'.'.;X;X;X;X;X;X;X:X:X:X:X:X:X:X<X:X:X<X'.).).6.h s s s s s s s s s s s s s s s s s s s s s s s s s s s s s s s s s s s s s s s s s s s s s s s s s s s s s s s s s s s s s s s s s s s s s s s s s s s s s s s s s s s s s s s s s s 2 . ",
"  > s s s s s s s s s s s s s s s s s s s s s s s s s s s s s s s s s s s s s s s s s s s s s s s s s s s s s s s s s s s s s s s s s s s s s s s s s s s s Z m.M.M.M.G.G.G.G.G.G.G.G.G.G.G.G.M.M.G.G.C.C.C.C.C.C.C.C.C.L.A.A.A.A.A.A.A.A.(.(.(.(.(.(.(.(.).).).).).).`.`.`.`.`.'.'.'.'.'.'.;X;X;X;X;X;X:X:X:X:X:X:X:X:X:X:X:X:X).).{.b s s s s s s s s s s s s s s s s s s s s s s s s s s s s s s s s s s s s s s s s s s s s s s s s s s s s s s s s s s s s s s s s s s s s s s s s s s s s s s s s s s s s s s s s s s >   ",
"  % s s s s s s s s s s s s s s s s s s s s s s s s s s s s s s s s s s s s s s s s s s s s s s s s s s s s s s s s s s s s s s s s s s s s s s s s s s s s m S.M.M.G.G.G.G.G.G.G.G.G.G.G.G.M.M.M.G.G.M.C.C.C.C.C.C.K.K.C.L.A.A.A.A.A.A.A.A.(.(.(.(.(.(.(.(.).).).).).).`.`.`.`.`.'.'.'.'.'.'.;X;X;X;X;X;X:X:X:X:X:X:X:X:X:X<X<X;X).).` s s s s s s s s s s s s s s s s s s s s s s s s s s s s s s s s s s s s s s s s s s s s s s s s s s s s s s s s s s s s s s s s s s s s s s s s s s s s s s s s s s s s s s s s s s %   ",
"  O i s s s s s s s s s s s s s s s s s s s s s s s s s s s s s s s s s s s s s s s s s s s s s s s s s s s s s s s s s s s s s s s s s s s s s s s s s s s r S.M.M.G.G.G.G.G.G.G.G.m.G.G.M.M.G.M.G.G.M.G.C.M.C.C.C.K.K.C.C.C.A.A.A.A.A.A.A.A.(.(.(.(.(.(.(.(.).).).).).).`.`.`.`.`.`.'.'.'.'.'.;X;X;X;X;X;X;X:X:X:X:X:X:X:X:X:X:X`.).6.d s s s s s s s s s s s s s s s s s s s s s s s s s s s s s s s s s s s s s s s s s s s s s s s s s s s s s s s s s s s s s s s s s s s s s s s s s s s s s s s s s s s s s s s s i O   ",
"  . 2 s s s s s s s s s s s s s s s s s s s s s s s s s s s s s s s s s s s s s s s s s s s s s s s s s s s s s s s s s s s s s s s s s s s s s s s s s s s c s.M.M.G.G.G.m.G.G.G.G.G.G.G.G.G.G.G.G.G.G.G.G.M.M.C.K.K.K.C.C.C.C.A.A.A.A.A.A.A.A.A.(.(.(.(.(.(.(.).).).).).).`.`.`.`.`.`.'.'.'.'.'.;X;X;X;X;X;X;X:X:X:X:X:X8X:X:X:X;X).J.b s s s s s s s s s s s s s s s s s s s s s s s s s s s s s s s s s s s s s s s s s s s s s s s s s s s s s s s s s s s s s s s s s s s s s s s s s s s s s s s s s s s s s s s s 2 .   ",
"    ; s s s s s s s s s s s s s s s s s s s s s s s s s s s s s s s s s s s s s s s s s s s s s s s s s s s s s s s s s s s s s s s s s s s s s s s s s s s e s.M.M.M.G.G.G.G.G.G.G.D.G.G.G.G.G.G.G.G.G.G.G.M.M.K.K.K.K.C.C.C.C.C.A.A.A.A.A.A.A.A.A.(.(.(.(.(.(.(.).).).).).).`.`.`.`.`.`.'.'.'.'.'.'.;X;X;X;X;X;X:X:X:X:X:X:X:X:X:X`.(.L a s s s s s s s s s s s s s s s s s s s s s s s s s s s s s s s s s s s s s s s s s s s s s s s s s s s s s s s s s s s s s s s s s s s s s s s s s s s s s s s s s s s s s s s ;     ",
"    # p s s s s s s s s s s s s s s s s s s s s s s s s s s s s s s s s s s s s s s s s s s s s s s s s s s s s s s s s s s s s s s s s s s s s s s s s s s e s.M.m.m.D.m.m.m.G.G.G.G.D.D.G.G.G.G.G.G.G.G.G.G.M.K.K.K.K.K.K.C.C.C.C.K.L.L.L.A.A.A.A.A.A.A.(.(.(.(.(.).).).).).).).`.`.`.`.`.'.'.'.'.'.'.'.;X;X;X;X;X;X:X:X:X:X:X:X:X;X(.2.s s s s s s s s s s s s s s s s s s s s s s s s s s s s s s s s s s s s s s s s s s s s s s s s s s s s s s s s s s s s s s s s s s s s s s s s s s s s s s s s s s s s s s s p #     ",
"    X 4 s s s s s s s s s s s s s s s s s s s s s s s s s s s s s s s s s s s s s s s s s s s s s s s s s s s s s s s s s s s s s s s s s s s s s s s s s s r S.M.m.m.D.m.m.G.G.D.D.G.D.D.D.G.G.G.G.G.G.G.G.G.G.G.G.K.K.K.K.C.C.C.C.C.C.L.L.A.A.A.A.A.A.A.A.(.(.(.(.(.).).).).).).).`.`.`.`.`.'.'.'.'.'.'.'.;X;X;X;X;X;X:X:X:X:X:X:X:X`.h.l s s s s s s s s s s s s s s s s s s s s s s s s s s s s s s s s s s s s s s s s s s s s s s s s s s s s s s s s s s s s s s s s s s s s s s s s s s s s s s s s s s s s s s 4 X     ",
"      - s s s s s s s s s s s s s s s s s s s s s s s s s s s s s s s s s s s s s s s s s s s s s s s s s s s s s s s s s s s s s s s s s s s s s s s s s s n S.m.m.m.m.m.D.G.G.D.D.D.D.D.D.G.G.G.G.G.G.G.G.G.G.G.G.G.K.K.K.K.C.C.C.C.C.C.A.A.A.A.A.A.A.A.A.A.(.(.(.(.(.(.).).).).).).`.`.`.`.`.'.'.'.'.'.'.'.;X;X;X;X;X;X;X:X:X:X:X:X;X|.Z s s s s s s s s s s s s s s s s s s s s s s s s s s s s s s s s s s s s s s s s s s s s s s s s s s s s s s s s s s s s s s s s s s s s s s s s s s s s s s s s s s s s s s -       ",
"      O 6 s s s s s s s s s s s s s s s s s s s s s s s s s s s s s s s s s s s s s s s s s s s s s s s s s s s s s s s s s s s s s s s s s s s s s s s s s Z m.m.m.m.m.D.D.D.D.D.D.D.D.G.D.D.G.G.G.m.G.G.G.G.G.G.G.G.K.K.K.K.C.C.C.C.C.C.C.C.A.A.A.A.A.A.A.A.A.(.(.(.(.(.(.(.).).).).).`.`.`.`.`.`.'.'.'.'.'.'.;X;X;X;X;X;X;X;X:X:X:X:X`.` s s s s s s s s s s s s s s s s s s s s s s s s s s s s s s s s s s s s s s s s s s s s s s s s s s s s s s s s s s s s s s s s s s s s s s s s s s s s s s s s s s s s s 6 O       ",
"        < s s s s s s s s s s s s s s s s s s s s s s s s s s s s s s s s s s s s s s s s s s s s s s s s s s s s s s s s s s s s s s s s s s s s s s s s s F m.m.m.m.D.D.D.D.D.G.D.D.D.D.D.D.D.D.D.m.m.G.G.G.G.G.G.G.G.G.K.K.K.K.C.C.C.C.C.C.C.A.A.A.A.A.A.A.A.A.(.(.(.(.(.(.(.).).).).).OX`.`.`.`.`.'.'.'.'.'.'.'.;X;X;X;X;X;X;X;X:X:X'.3.s s s s s s s s s s s s s s s s s s s s s s s s s s s s s s s s s s s s s s s s s s s s s s s s s s s s s s s s s s s s s s s s s s s s s s s s s s s s s s s s s s s s s <         ",
"        @ s s s s s s s s s s s s s s s s s s s s s s s s s s s s s s s s s s s s s s s s s s s s s s s s s s s s s s s s s s s s s s s s s s s s s s s s s ] m.m.D.D.D.m.D.D.G.G.D.D.D.D.D.D.D.D.m.m.m.m.G.G.G.G.G.G.G.G.G.G.K.K.C.C.K.C.C.C.C.C.C.A.A.A.A.A.L.A.A.(.(.(.(.(.(.(.).).).).XXXX`.`.`.`.`.`.'.'.'.'.'.'.;X;X;X;X;X;X;X;X;X;Xh.e s s s s s s s s s s s s s s s s s s s s s s s s s s s s s s s s s s s s s s s s s s s s s s s s s s s s s s s s s s s s s s s s s s s s s s s s s s s s s s s s s s s s @         ",
"        X 4 s s s s s s s s s s s s s s s s s s s s s s s s s s s s s s s s s s s s s s s s s s s s s s s s s s s s s s s s s s s s s s s s s s s s s s s d } m.m.m.D.D.D.D.D.G.G.D.D.D.D.D.m.m.D.D.m.m.D.G.G.G.G.G.G.G.G.G.G.G.G.K.K.K.K.K.C.C.C.C.C.A.A.A.L.L.A.A.A.(.(.(.(.(.(.(.).XX).).).).`.`.`.`.`.`.'.+X+X+X+X+X'.;X;X;X;X;X;X;X;X^.n s s s s s s s s s s s s s s s s s s s s s s s s s s s s s s s s s s s s s s s s s s s s s s s s s s s s s s s s s s s s s s s s s s s s s s s s s s s s s s s s s s s 4 X         ",
"          % s s s s s s s s s s s s s s s s s s s s s s s s s s s s s s s s s s s s s s s s s s s s s s s s s s s s s s s s s s s s s s s s s s s s s s s k #.m.m.m.D.D.D.D.D.D.D.D.D.D.D.D.m.D.D.D.D.D.D.D.G.G.G.G.G.G.G.G.G.G.G.G.G.K.K.K.K.C.C.C.C.C.A.A.L.L.A.A.A.A.(.(.(.(.(.(.(.XX).).).).XX`.`.`.`.`.`.+X+X+X+X+X+X'.+X;X;X;X;X;X;X'.L s s s s s s s s s s s s s s s s s s s s s s s s s s s s s s s s s s s s s s s s s s s s s s s s s s s s s s s s s s s s s s s s s s s s s s s s s s s s s s s s s s s %           ",
"          X 4 s s s s s s s s s s s s s s s s s s s s s s s s s s s s s s s s s s s s s s s s s s s s s s s s s s s s s s s s s s s s s s s s s s s s s s m x.m.m.m.m.D.m.D.D.D.m.m.D.D.D.m.m.D.D.D.D.D.D.D.D.G.G.G.G.G.G.G.G.G.G.G.G.G.G.K.C.C.C.C.C.K.C.C.L.L.A.A.A.A.A.(.(.(.(..X(.(.(.).).).).).`.`.OXOX`.OXOX+X+X+X'.'.'.'.6X6X6X;X6X6X;.s s s s s s s s s s s s s s s s s s s s s s s s s s s s s s s s s s s s s s s s s s s s s s s s s s s s s s s s s s s s s s s s s s s s s s s s s s s s s s s s s s 4 X           ",
"            % s s s s s s s s s s s s s s s s s s s s s s s s s s s s s s s s s s s s s s s s s s s s s s s s s s s s s s s s s s s s s s s s s s s s s s F m.m.m.m.m.D.D.D.D.D.m.m.m.m.m.m.m.m.D.D.D.D.D.D.D.D.G.G.G.G.G.G.G.G.G.G.G.G.G.M.C.C.K.K.K.K.C.C.C.C.A.A.A.A.A.A.A.(.(.(.(.(.(.).).).).).).).OXOX`.`.`.`.`.'.'.'.'.'.+X+X+X6X6X6Xe.h s s s s s s s s s s s s s s s s s s s s s s s s s s s s s s s s s s s s s s s s s s s s s s s s s s s s s s s s s s s s s s s s s s s s s s s s s s s s s s s s s %             ",
"            X 1 s s s s s s s s s s s s s s s s s s s s s s s s s s s s s s s s s s s s s s s s s s s s s s s s s s s s s s s s s s s s s s s s s s s s d [ m.m.m.m.D.D.D.D.D.D.D.D.m.m.m.m.D.D.m.D.D.D.D.D.D.D.D.G.G.G.G.G.G.G.G.G.G.G.G.M.M.C.C.K.K.C.C.C.C.C.A.A.A.A.A.A.A.A.(.(.(.(.(.(.(.).).).).).XXOX`.`.`.`.`.`.`.`.'.+X+X+X+X+X6X6XY.k s s s s s s s s s s s s s s s s s s s s s s s s s s s s s s s s s s s s s s s s s s s s s s s s s s s s s s s s s s s s s s s s s s s s s s s s s s s s s s s s 1 X             ",
"              + p s s s s s s s s s s s s s s s s s s s s s s s s s s s s s s s s s s s s s s s s s s s s s s s s s s s s s s s s s s s s s s s s s s s r u.m.m.m.m.D.D.D.D.D.D.D.D.m.m.m.m.D.D.m.D.D.D.D.D.D.D.D.D.D.D.D.G.G.G.G.G.G.G.G.G.G.K.C.G.K.K.C.C.C.C.C.A.A.A.A.A.A.L.L.(.(.(.(.(.(.(.(.).).).XXXX).OX`.`.`.`.`.`.`.+X+X+X+X+X+X6XoXI s s s s s s s s s s s s s s s s s s s s s s s s s s s s s s s s s s s s s s s s s s s s s s s s s s s s s s s s s s s s s s s s s s s s s s s s s s s s s s s p +               ",
"                > s s s s s s s s s s s s s s s s s s s s s s s s s s s s s s s s s s s s s s s s s s s s s s s s s s s s s s s s s s s s s s s s s s s F m.m.m.D.D.D.m.m.D.D.D.D.D.m.m.m.m.D.D.m.m.D.D.D.D.D.D.D.D.D.D.D.G.G.G.G.G.G.G.G.G.G.G.G.M.K.K.K.K.C.C.C.C.C.L.A.A.A.A.A.A.A.A..X.X.X(.(.(.(.XXXX).).).).`.OXOXOXOX`.OX+X+X'.'.+X+X@XT a s s s s s s s s s s s s s s s s s s s s s s s s s s s s s s s s s s s s s s s s s s s s s s s s s s s s s s s s s s s s s s s s s s s s s s s s s s s s s s >                 ",
"                o 5 s s s s s s s s s s s s s s s s s s s s s s s s s s s s s s s s s s s s s s s s s s s s s s s s s s s s s s s s s s s s s s s s s d } m.m.m.D.D.D.D.D.D.D.D.D.D.m.m.m.m.D.D.D.D.D.D.m.m.D.D.D.D.D.D.D.D.D.G.G.G.G.G.G.G.G.G.G.M.G.M.C.K.C.K.K.C.C.C.A.A.L.L.A.A.A.A..X.X.X.X.X(.(..XXXXXXX).).).OXOXOXOX`.`.OX+X'.'.+X+X+XQ a s s s s s s s s s s s s s s s s s s s s s s s s s s s s s s s s s s s s s s s s s s s s s s s s s s s s s s s s s s s s s s s s s s s s s s s s s s s s s 5 o                 ",
"                  $ s s s s s s s s s s s s s s s s s s s s s s s s s s s s s s s s s s s s s s s s s s s s s s s s s s s s s s s s s s s s s s s s s M &.m.m.m.m.m.m.m.D.m.D.D.D.D.D.m.m.D.D.D.D.D.D.D.m.m.D.D.D.D.D.D.D.D.D.D.D.G.G.G.G.G.G.G.G.M.M.M.G.K.K.K.K.K.K.C.C.A.A.L.A.A.A.A.A..X.X.X.X.X.X.XXXXXXX).).).).).`.OX`.`.OXOXOX'.+X+X+X-.s s s s s s s s s s s s s s s s s s s s s s s s s s s s s s s s s s s s s s s s s s s s s s s s s s s s s s s s s s s s s s s s s s s s s s s s s s s s s s $                   ",
"                    < s s s s s s s s s s s s s s s s s s s s s s s s s s s s s s s s s s s s s s s s s s s s s s s s s s s s s s s s s s s s s s s s ' m.m.m.m.m.m.m.m.m.m.D.D.D.D.D.m.m.D.D.D.m.D.D.D.D.D.m.m.D.D.D.D.D.D.D.D.D.G.G.G.G.G.G.G.G.G.G.G.G.G.K.K.K.K.K.C.C.K.L.L.A.A.A.A.A..X.X.X.X.X.X.X.XXXXXXX).).XX).).OXOXOXOXOXOXOX+X+X+X4.s s s s s s s s s s s s s s s s s s s s s s s s s s s s s s s s s s s s s s s s s s s s s s s s s s s s s s s s s s s s s s s s s s s s s s s s s s s s s <                     ",
"                    o 4 s s s s s s s s s s s s s s s s s s s s s s s s s s s s s s s s s s s s s s s s s s s s s s s s s s s s s s s s s s s s s s m &.m.m.m.m.m.m.m.m.m.D.D.D.D.m.m.m.D.D.D.D.D.D.D.D.D.D.D.D.D.D.D.D.D.D.D.D.D.G.G.G.G.G.G.G.m.G.G.G.G.G.G.K.K.K.K.K.C.C.C.C.A.A.L.L.L..X.X.X(..X.X.X.X.X.X.XXXXXXXXX).XXOXOXOXOX`.OXOXOX+X6.s s s s s s s s s s s s s s s s s s s s s s s s s s s s s s s s s s s s s s s s s s s s s s s s s s s s s s s s s s s s s s s s s s s s s s s s s s s s 4 o                     ",
"                      # i s s s s s s s s s s s s s s s s s s s s s s s s s s s s s s s s s s s s s s s s s s s s s s s s s s s s s s s s s s s s s [ m.m.m.m.m.m.m.m.m.m.m.m.m.D.D.m.m.D.m.D.D.D.m.m.m.m.D.D.D.D.D.D.D.D.D.D.D.D.G.D.D.G.G.G.G.G.G.G.G.G.G.G.G.K.K.K.K.C.C.C.C.C.A.A.A.L.L.A.L..X.X.X.X.X.X.X.XXXXXXXXXXXXXXXOXOXOXOXOXOX`.OXg.h s s s s s s s s s s s s s s s s s s s s s s s s s s s s s s s s s s s s s s s s s s s s s s s s s s s s s s s s s s s s s s s s s s s s s s s s s s 6 #                       ",
"                        = s s s s s s s s s s s s s s s s s s s s s s s s s s s s s s s s s s s s s s s s s s s s s s s s s s s s s s s s s s s s M &.m.m.m.m.m.m.m.m.m.m.m.m.m.D.D.D.m.D.m.m.m.m.m.m.m.m.m.D.D.D.D.D.D.D.D.D.D.D.G.G.D.D.D.G.G.G.G.G.G.G.G.G.G.K.K.K.K.C.C.C.C.C.C.A.A.A.A.A.L.L..X.X.X.X.X.X(.XXXXXXXXXXXXXXXXOXOXOXOXOX`.OXI.k s s s s s s s s s s s s s s s s s s s s s s s s s s s s s s s s s s s s s s s s s s s s s s s s s s s s s s s s s s s s s s s s s s s s s s s s s s =                         ",
"                        . > s s s s s s s s s s s s s s s s s s s s s s s s s s s s s s s s s s s s s s s s s s s s s s s s s s s s s s s s s s k | m.m.m.m.m.m.m.m.m.m.m.m.m.m.D.D.m.D.m.m.m.m.m.m.m.m.m.m.m.m.m.m.m.m.m.D.D.D.D.D.D.D.D.D.D.G.G.G.G.G.G.G.G.G.G.G.K.K.K.K.C.C.C.C.C.L.L.A.A.L.A.A.L..X.X.X.X.X.X.XXXXXXXXXXX).XXXXOX`.OXOXOXY.q s s s s s s s s s s s s s s s s s s s s s s s s s s s s s s s s s s s s s s s s s s s s s s s s s s s s s s s s s s s s s s s s s s s s s s s s s > .                         ",
"                          . < s s s s s s s s s s s s s s s s s s s s s s s s s s s s s s s s s s s s s s s s s s s s s s s s s s s s s s s s s F &.&.&.m.m.m.m.m.m.m.m.m.m.m.m.D.D.m.D.D.D.m.m.m.m.m.m.m.m.m.m.m.m.m.m.m.D.D.D.D.D.D.D.D.D.D.G.G.G.G.G.G.G.G.G.M.G.G.K.K.K.K.C.C.K.K.L.L.L.L.L.L.A.L..X.X.X.X.X.X.X.X.XXXXXXXXXXXXXXX`.OXOXOXU.e s s s s s s s s s s s s s s s s s s s s s s s s s s s s s s s s s s s s s s s s s s s s s s s s s s s s s s s s s s s s s s s s s s s s s s s s < .                           ",
"                            o 1 s s s s s s s s s s s s s s s s s s s s s s s s s s s s s s s s s s s s s s s s s s s s s s s s s s s s s s s m O.&.&.&.m.&.m.m.m.m.m.&.m.m.m.m.m.m.m.D.D.D.m.m.m.m.D.m.m.m.m.m.m.m.D.D.D.D.D.D.D.D.D.D.D.D.D.D.D.G.G.G.G.G.G.G.M.G.G.K.K.K.K.K.K.K.K.K.K.L.L.L.L.A.L.L.L..X.X.X.X.X.X.XXXXXXXXX).).).XXOXOXOX[.r s s s s s s s s s s s s s s s s s s s s s s s s s s s s s s s s s s s s s s s s s s s s s s s s s s s s s s s s s s s s s s s s s s s s s s s 1 o                             ",
"                              o 1 s s s s s s s s s s s s s s s s s s s s s s s s s s s s s s s s s s s s s s s s s s s s s s s s s s s s s k | &.m.&.&.m.m.m.m.m.m.m.m.m.m.m.m.m.m.m.m.m.m.m.m.m.m.m.m.m.m.m.m.m.m.m.D.D.D.D.D.D.D.D.D.m.m.m.D.D.D.D.G.G.G.G.G.G.G.G.G.K.K.K.K.K.K.K.K.K.L.L.L.A.A.L.L.L..X(.(.(.(..X.X.X.X.XXXXXXXXXXXXXXXXX[.y s s s s s s s s s s s s s s s s s s s s s s s s s s s s s s s s s s s s s s s s s s s s s s s s s s s s s s s s s s s s s s s s s s s s s s 1 o                               ",
"                                o 1 s s s s s s s s s s s s s s s s s s s s s s s s s s s s s s s s s s s s s s s s s s s s s s s s s s s s ] m.m.m.&.&.m.m.m.m.m.m.m.m.m.m.m.m.m.m.m.m.m.m.m.m.m.m.m.D.D.D.D.D.D.D.m.D.D.D.m.D.D.D.D.m.D.D.m.D.D.D.D.D.G.G.G.G.G.G.G.G.G.K.K.K.K.K.K.K.K.L.L.L.L.A.A.L.L.L.A.A.(.(.(..X.X.X.X.XXXXXXXXXXXXXXX[.y s s s s s s s s s s s s s s s s s s s s s s s s s s s s s s s s s s s s s s s s s s s s s s s s s s s s s s s s s s s s s s s s s s s s s 1 o                                 ",
"                                  o 1 s s s s s s s s s s s s s s s s s s s s s s s s s s s s s s s s s s s s s s s s s s s s s s s s s s H &.m.m.m.m.m.m.m.m.m.m.m.m.m.m.m.m.m.m.m.m.m.D.m.m.m.m.m.m.m.D.D.D.D.D.D.D.D.D.D.D.D.D.D.D.D.D.D.D.D.D.D.D.n.G.G.G.G.G.G.G.G.G.G.K.K.K.K.K.K.K.L.L.L.L.L.L.L.L.L.L..X.X.X.X.X.X.X.X.XXXXXXXXXXXXXXX[.y s s s s s s s s s s s s s s s s s s s s s s s s s s s s s s s s s s s s s s s s s s s s s s s s s s s s s s s s s s s s s s s s s s s s 1 o                                   ",
"                                    o < s s s s s s s s s s s s s s s s s s s s s s s s s s s s s s s s s s s s s s s s s s s s s s s s m o.m.m.m.m.m.m.m.m.m.m.m.m.m.m.m.m.m.m.m.m.m.m.m.m.m.m.m.m.m.m.D.D.D.D.D.D.D.D.D.D.D.D.D.D.D.D.D.D.D.D.D.D.D.D.G.G.G.G.G.G.G.G.G.G.K.K.K.K.K.K.K.L.L.L.L.L.L.L.L.L.L..X.X.X.X.X.X.X.X.XXXXXXXXXXXXXXX[.y s s s s s s s s s s s s s s s s s s s s s s s s s s s s s s s s s s s s s s s s s s s s s s s s s s s s s s s s s s s s s s s s s s s < o                                     ",
"                                      . > s s s s s s s s s s s s s s s s s s s s s s s s s s s s s s s s s s s s s s s s s s s s s s n s.m.m.m.m.m.m.m.m.m.m.m.m.m.m.m.m.m.m.m.m.m.m.m.m.m.m.m.m.m.m.m.m.m.n.n.m.m.m.m.n.n.m.m.n.n.n.n.n.n.G.G.m.n.G.G.G.G.G.G.G.G.G.G.G.K.K.K.K.K.K.K.K.K.L.L.L.L.L.L.L.L..X.X.X.X.X.X.X.X.XXXXXXXXXXXXXXXXX[.r s s s s s s s s s s s s s s s s s s s s s s s s s s s s s s s s s s s s s s s s s s s s s s s s s s s s s s s s s s s s s s s s s s > .                                       ",
"                                        . = i s s s s s s s s s s s s s s s s s s s s s s s s s s s s s s s s s s s s s s s s s s s k ' @.} } } @.@.} } } } } } @.} } } } } } } } } } } } } } } } } } } } } } } } } } } @.} } } @.@.@.} } } } @.} } } } @.} } p.p.p.p.3.3.p.p.p.p.p.p.p.a.a.a.a.a.a.a.a.a.a.a.d.d.d.d.d.d.d.d.d.g.g.g.g.g.d.g.6.l s s s s s s s s s s s s s s s s s s s s s s s s s s s s s s s s s s s s s s s s s s s s s s s s s s s s s s s s s s s s s s s s 6 = .                                         ",
"                                            # 4 s s s s s s s s s s s s s s s s s s s s s s s s s s s s s s s s s s s s s s s s s s s h d d d d h h h h h h h h h d h h d d d d h d h h h h h h h h h h d d d d h d d d d h h h h h h d h h h h h h h h h h h h h h h h h h h h h h h h h h h h h h h h h h h d h h h h h h h h h h h h h h h h s s s s s s s s s s s s s s s s s s s s s s s s s s s s s s s s s s s s s s s s s s s s s s s s s s s s s s s s s s s s s s s s 4 #                                             ",
"                                              o < s s s s s s s s s s s s s s s s s s s s s s s s s s s s s s s s s s s s s s s s s s s s s s s s s s s s s s s s s s s s s s s s s s s s s s s s s s s s s s s s s s s s s s s s s s s s s s s s s s s s s s s s s s s s s s s s s s s s s s s s s s s s s s s s s s s s s s s s s s s s s s s s s s s s s s s s s s s s s s s s s s s s s s s s s s s s s s s s s s s s s s s s s s s s s s s s s s s s s s s s s s s s s s < o                                               ",
"                                                  $ 5 s s s s s s s s s s s s s s s s s s s s s s s s s s s s s s s s s s s s s s s s s s s s s s s s s s s s s s s s s s s s s s s s s s s s s s s s s s s s s s s s s s s s s s s s s s s s s s s s s s s s s s s s s s s s s s s s s s s s s s s s s s s s s s s s s s s s s s s s s s s s s s s s s s s s s s s s s s s s s s s s s s s s s s s s s s s s s s s s s s s s s s s s s s s s s s s s s s s s s s s s s s 5 $                                                   ",
"                                                    o > p s s s s s s s s s s s s s s s s s s s s s s s s s s s s s s s s s s s s s s s s s s s s s s s s s s s s s s s s s s s s s s s s s s s s s s s s s s s s s s s s s s s s s s s s s s s s s s s s s s s s s s s s s s s s s s s s s s s s s s s s s s s s s s s s s s s s s s s s s s s s s s s s s s s s s s s s s s s s s s s s s s s s s s s s s s s s s s s s s s s s s s s s s s s s s s s s s s s s s s p > o                                                     ",
"                                                        + 1 s s s s s s s s s s s s s s s s s s s s s s s s s s s s s s s s s s s s s s s s s s s s s s s s s s s s s s s s s s s s s s s s s s s s s s s s s s s s s s s s s s s s s s s s s s s s s s s s s s s s s s s s s s s s s s s s s s s s s s s s s s s s s s s s s s s s s s s s s s s s s s s s s s s s s s s s s s s s s s s s s s s s s s s s s s s s s s s s s s s s s s s s s s s s s s s s s s s s 1 +                                                         ",
"                                                          X % 4 s s s s s s s s s s s s s s s s s s s s s s s s s s s s s s s s s s s s s s s s s s s s s s s s s s s s s s s s s s s s s s s s s s s s s s s s s s s s s s s s s s s s s s s s s s s s s s s s s s s s s s s s s s s s s s s s s s s s s s s s s s s s s s s s s s s s s s s s s s s s s s s s s s s s s s s s s s s s s s s s s s s s s s s s s s s s s s s s s s s s s s s s s s s s s s s s 4 % X                                                           ",
"                                                              X % 4 s s s s s s s s s s s s s s s s s s s s s s s s s s s s s s s s s s s s s s s s s s s s s s s s s s s s s s s s s s s s s s s s s s s s s s s s s s s s s s s s s s s s s s s s s s s s s s s s s s s s s s s s s s s s s s s s s s s s s s s s s s s s s s s s s s s s s s s s s s s s s s s s s s s s s s s s s s s s s s s s s s s s s s s s s s s s s s s s s s s s s s s s s s s s 4 % X                                                               ",
"                                                                  X @ < i s s s s s s s s s s s s s s s s s s s s s s s s s s s s s s s s s s s s s s s s s s s s s s s s s s s s s s s s s s s s s s s s s s s s s s s s s s s s s s s s s s s s s s s s s s s s s s s s s s s s s s s s s s s s s s s s s s s s s s s s s s s s s s s s s s s s s s s s s s s s s s s s s s s s s s s s s s s s s s s s s s s s s s s s s s s s s s s s s s s s s s i < @ X                                                                   ",
"                                                                        O - 4 p s s s s s s s s s s s s s s s s s s s s s s s s s s s s s s s s s s s s s s s s s s s s s s s s s s s s s s s s s s s s s s s s s s s s s s s s s s s s s s s s s s s s s s s s s s s s s s s s s s s s s s s s s s s s s s s s s s s s s s s s s s s s s s s s s s s s s s s s s s s s s s s s s s s s s s s s s s s s s s s s s s s s s s s s s s s s s s s s p 4 - O                                                                         ",
"                                                                            X # ; 2 i s s s s s s s s s s s s s s s s s s s s s s s s s s s s s s s s s s s s s s s s s s s s s s s s s s s s s s s s s s s s s s s s s s s s s s s s s s s s s s s s s s s s s s s s s s s s s s s s s s s s s s s s s s s s s s s s s s s s s s s s s s s s s s s s s s s s s s s s s s s s s s s s s s s s s s s s s s s s s s s s s s s s s s s s s s i 2 ; # X                                                                             ",
"                                                                                  . O % > 2 6 p s s s s s s s s s s s s s s s s s s s s s s s s s s s s s s s s s s s s s s s s s s s s s s s s s s s s s s s s s s s s s s s s s s s s s s s s s s s s s s s s s s s s s s s s s s s s s s s s s s s s s s s s s s s s s s s s s s s s s s s s s s s s s s s s s s s s s s s s s s s s s s s s s s s s s s s s s s s s s s s s p 6 2 > % O .                                                                                   ",
"                                                                                          . o + & > 2 3 p s s s s s s s s s s s s s s s s s s s s s s s s s s s s s s s s s s s s s s s s s s s s s s s s s s s s s s s s s s s s s s s s s s s s s s s s s s s s s s s s s s s s s s s s s s s s s s s s s s s s s s s s s s s s s s s s s s s s s s s s s s s s s s s s s s s s s s s s s s s s s s s s s s s s s s p 3 2 > & + o .                                                                                           "
};
